;FLAVOR:Marlin
;TIME:6175
;Filament used: 4.35521m
;Layer height: 0.24
;MINX:131.491
;MINY:92
;MINZ:0.2
;MAXX:168.509
;MAXY:208
;MAXZ:53.72
;Generated with Cura_SteamEngine 4.8.0
M140 S70
M105
M190 S70
M104 S225
M105
M109 S225
M82 ;absolute extrusion mode
M201 X500.00 Y500.00 Z100.00 E5000.00 ;Setup machine max acceleration
M203 X500.00 Y500.00 Z10.00 E50.00 ;Setup machine max feedrate
M204 P500.00 R1000.00 T500.00 ;Setup Print/Retract/Travel acceleration
M205 X8.00 Y8.00 Z0.40 E5.00 ;Setup Jerk
M220 S100 ;Reset Feedrate
M221 S100 ;Reset Flowrate

G28 ;Home

G92 E0 ;Reset Extruder
G1 Z2.0 F3000 ;Move Z Axis up
G1 X10.1 Y20 Z0.28 F5000.0 ;Move to start position
G1 X10.1 Y200.0 Z0.28 F1500.0 E15 ;Draw the first line
G1 X10.4 Y200.0 Z0.28 F5000.0 ;Move to side a little
G1 X10.4 Y20 Z0.28 F1500.0 E30 ;Draw the second line
G92 E0 ;Reset Extruder
G1 Z2.0 F3000 ;Move Z Axis up

G92 E0
G92 E0
G1 F2700 E-5
;LAYER_COUNT:224
;LAYER:0
M107
G0 F5400 X133.487 Y96.703 Z0.2
;TYPE:SKIRT
G1 F2700 E0
G1 F900 X134.057 Y95.958 E0.0312
G1 X134.689 Y95.264 E0.06242
G1 X135.377 Y94.627 E0.0936
G1 X136.117 Y94.051 E0.12479
G1 X136.903 Y93.539 E0.15599
G1 X137.73 Y93.097 E0.18718
G1 X138.592 Y92.727 E0.21838
G1 X139.482 Y92.431 E0.24958
G1 X140.394 Y92.213 E0.28077
G1 X141.321 Y92.072 E0.31195
G1 X142.192 Y92.013 E0.34099
G1 X142.513 Y92.004 E0.35167
G1 X142.821 Y92 E0.36191
G1 X156.802 Y92 E0.82692
G1 X157.658 Y92.011 E0.8554
G1 X158.594 Y92.065 E0.88658
G1 X159.522 Y92.197 E0.91776
G1 X160.436 Y92.409 E0.94896
G1 X161.328 Y92.698 E0.98015
G1 X162.193 Y93.061 E1.01135
G1 X163.023 Y93.497 E1.04253
G1 X163.814 Y94.002 E1.07375
G1 X164.558 Y94.573 E1.10494
G1 X165.251 Y95.205 E1.13613
G1 X165.888 Y95.893 E1.16732
G1 X166.463 Y96.634 E1.19851
G1 X166.974 Y97.42 E1.2297
G1 X167.416 Y98.248 E1.26091
G1 X167.785 Y99.11 E1.2921
G1 X168.08 Y100 E1.32329
G1 X168.298 Y100.912 E1.35447
G1 X168.438 Y101.84 E1.38569
G1 X168.496 Y102.701 E1.41439
G1 X168.505 Y103.021 E1.42504
G1 X168.509 Y103.33 E1.43532
G1 X168.508 Y196.4 E4.53084
G1 X168.499 Y197.127 E4.55502
G1 X168.448 Y198.064 E4.58623
G1 X168.316 Y198.992 E4.61741
G1 X168.107 Y199.906 E4.64859
G1 X167.82 Y200.799 E4.67979
G1 X167.458 Y201.665 E4.71101
G1 X167.024 Y202.496 E4.74219
G1 X166.52 Y203.287 E4.77338
G1 X165.951 Y204.032 E4.80456
G1 X165.32 Y204.727 E4.83578
G1 X164.633 Y205.365 E4.86697
G1 X163.894 Y205.942 E4.89815
G1 X163.108 Y206.454 E4.92935
G1 X162.282 Y206.897 E4.96053
G1 X161.42 Y207.269 E4.99175
G1 X160.531 Y207.565 E5.02292
G1 X159.619 Y207.785 E5.05412
G1 X158.692 Y207.926 E5.08531
G1 X157.808 Y207.987 E5.11478
G1 X157.487 Y207.996 E5.12546
G1 X157.179 Y208 E5.1357
G1 X143.056 Y207.999 E5.60544
G1 X142.358 Y207.99 E5.62865
G1 X141.422 Y207.938 E5.65983
G1 X140.493 Y207.806 E5.69104
G1 X139.579 Y207.596 E5.72223
G1 X138.686 Y207.309 E5.75343
G1 X137.821 Y206.946 E5.78463
G1 X136.99 Y206.512 E5.81581
G1 X136.199 Y206.008 E5.84701
G1 X135.454 Y205.438 E5.87821
G1 X134.76 Y204.807 E5.90941
G1 X134.123 Y204.12 E5.94057
G1 X133.546 Y203.38 E5.97178
G1 X133.034 Y202.594 E6.00298
G1 X132.591 Y201.767 E6.03418
G1 X132.22 Y200.906 E6.06536
G1 X131.924 Y200.016 E6.09656
G1 X131.705 Y199.104 E6.12775
G1 X131.564 Y198.177 E6.15894
G1 X131.504 Y197.288 E6.18858
G1 X131.495 Y196.955 E6.19966
G1 X131.491 Y196.658 E6.20954
G1 X131.492 Y103.525 E9.30715
G1 X131.501 Y102.86 E9.32927
G1 X131.554 Y101.924 E9.36045
G1 X131.686 Y100.995 E9.39166
G1 X131.897 Y100.081 E9.42286
G1 X132.185 Y99.189 E9.45404
G1 X132.548 Y98.324 E9.48524
G1 X132.983 Y97.493 E9.51643
G1 X133.487 Y96.703 E9.5476
G0 F5400 X133.883 Y96.835
G1 F900 X134.452 Y96.111 E9.57823
G1 X135.08 Y95.439 E9.60882
G1 X135.765 Y94.823 E9.63946
G1 X136.501 Y94.27 E9.67008
G1 X137.282 Y93.782 E9.70071
G1 X138.102 Y93.364 E9.73132
G1 X138.956 Y93.019 E9.76196
G1 X139.836 Y92.749 E9.79257
G1 X140.736 Y92.557 E9.82318
G1 X141.65 Y92.443 E9.85382
G1 X142.203 Y92.413 E9.87224
G1 X142.524 Y92.404 E9.88292
G1 X142.821 Y92.4 E9.8928
G1 X156.802 Y92.4 E10.35781
G1 X157.652 Y92.411 E10.38608
G1 X158.571 Y92.464 E10.4167
G1 X159.482 Y92.597 E10.44732
G1 X160.378 Y92.808 E10.47793
G1 X161.252 Y93.096 E10.50854
G1 X162.099 Y93.459 E10.53919
G1 X162.91 Y93.894 E10.5698
G1 X163.68 Y94.398 E10.60041
G1 X164.404 Y94.967 E10.63103
G1 X165.076 Y95.597 E10.66167
G1 X165.691 Y96.282 E10.69229
G1 X166.244 Y97.018 E10.72291
G1 X166.731 Y97.799 E10.75352
G1 X167.148 Y98.62 E10.78415
G1 X167.493 Y99.474 E10.81478
G1 X167.762 Y100.354 E10.84539
G1 X167.954 Y101.255 E10.87603
G1 X168.067 Y102.168 E10.90663
G1 X168.096 Y102.712 E10.92475
G1 X168.105 Y103.032 E10.93539
G1 X168.109 Y103.33 E10.94531
G1 X168.108 Y196.395 E14.04066
G1 X168.099 Y197.122 E14.06484
G1 X168.048 Y198.041 E14.09546
G1 X167.917 Y198.953 E14.1261
G1 X167.707 Y199.849 E14.15671
G1 X167.421 Y200.724 E14.18733
G1 X167.06 Y201.571 E14.21795
G1 X166.626 Y202.383 E14.24857
G1 X166.124 Y203.155 E14.2792
G1 X165.556 Y203.88 E14.30983
G1 X164.928 Y204.553 E14.34045
G1 X164.244 Y205.169 E14.37107
G1 X163.509 Y205.723 E14.40168
G1 X162.729 Y206.212 E14.4323
G1 X161.909 Y206.631 E14.46293
G1 X161.056 Y206.977 E14.49354
G1 X160.176 Y207.248 E14.52417
G1 X159.276 Y207.441 E14.55478
G1 X158.362 Y207.556 E14.58542
G1 X157.797 Y207.587 E14.60424
G1 X157.476 Y207.596 E14.61492
G1 X157.179 Y207.6 E14.6248
G1 X143.061 Y207.599 E15.09437
G1 X142.363 Y207.59 E15.11759
G1 X141.444 Y207.538 E15.1482
G1 X140.533 Y207.407 E15.17881
G1 X139.637 Y207.197 E15.20942
G1 X138.762 Y206.91 E15.24005
G1 X137.915 Y206.548 E15.27068
G1 X137.103 Y206.114 E15.30131
G1 X136.332 Y205.612 E15.33191
G1 X135.607 Y205.044 E15.36254
G1 X134.934 Y204.415 E15.39318
G1 X134.319 Y203.731 E15.42377
G1 X133.765 Y202.996 E15.45439
G1 X133.277 Y202.215 E15.48502
G1 X132.858 Y201.395 E15.51564
G1 X132.512 Y200.542 E15.54626
G1 X132.242 Y199.662 E15.57687
G1 X132.049 Y198.761 E15.60752
G1 X131.935 Y197.848 E15.63812
G1 X131.904 Y197.277 E15.65714
G1 X131.895 Y196.944 E15.66822
G1 X131.891 Y196.658 E15.67774
G1 X131.892 Y103.531 E18.77515
G1 X131.901 Y102.866 E18.79727
G1 X131.953 Y101.946 E18.82792
G1 X132.085 Y101.035 E18.85854
G1 X132.296 Y100.139 E18.88915
G1 X132.583 Y99.264 E18.91978
G1 X132.946 Y98.418 E18.9504
G1 X133.38 Y97.606 E18.98102
G1 X133.883 Y96.835 E19.01164
G0 F5400 X134.279 Y96.971
G1 F900 X134.846 Y96.267 E19.04171
G1 X135.472 Y95.617 E19.07172
G1 X136.153 Y95.024 E19.10176
G1 X136.885 Y94.494 E19.13181
G1 X137.66 Y94.031 E19.16184
G1 X138.473 Y93.638 E19.19187
G1 X139.318 Y93.318 E19.22193
G1 X140.187 Y93.075 E19.25194
G1 X141.075 Y92.909 E19.28199
G1 X142.214 Y92.813 E19.32
G1 X142.535 Y92.804 E19.33068
G1 X142.821 Y92.8 E19.3402
G1 X156.802 Y92.8 E19.80521
G1 X157.646 Y92.811 E19.83328
G1 X158.548 Y92.864 E19.86333
G1 X159.441 Y92.996 E19.89336
G1 X160.319 Y93.207 E19.92339
G1 X161.175 Y93.495 E19.95343
G1 X162.002 Y93.857 E19.98346
G1 X162.794 Y94.292 E20.01351
G1 X163.545 Y94.794 E20.04355
G1 X164.248 Y95.361 E20.07359
G1 X164.898 Y95.988 E20.10363
G1 X165.49 Y96.67 E20.13367
G1 X166.02 Y97.401 E20.1637
G1 X166.482 Y98.177 E20.19374
G1 X166.875 Y98.99 E20.22377
G1 X167.193 Y99.835 E20.2538
G1 X167.436 Y100.705 E20.28385
G1 X167.601 Y101.593 E20.31389
G1 X167.696 Y102.723 E20.3516
G1 X167.705 Y103.043 E20.36225
G1 X167.709 Y103.33 E20.3718
G1 X167.708 Y196.39 E23.46698
G1 X167.699 Y197.117 E23.49117
G1 X167.648 Y198.019 E23.52122
G1 X167.517 Y198.913 E23.55127
G1 X167.308 Y199.791 E23.58129
G1 X167.022 Y200.648 E23.61133
G1 X166.661 Y201.476 E23.64138
G1 X166.229 Y202.268 E23.67138
G1 X165.728 Y203.02 E23.70144
G1 X165.162 Y203.724 E23.73148
G1 X164.537 Y204.375 E23.7615
G1 X163.856 Y204.969 E23.79155
G1 X163.125 Y205.5 E23.8216
G1 X162.351 Y205.964 E23.85162
G1 X161.538 Y206.358 E23.88167
G1 X160.694 Y206.678 E23.91169
G1 X159.824 Y206.923 E23.94175
G1 X158.937 Y207.089 E23.97176
G1 X157.786 Y207.187 E24.01019
G1 X157.465 Y207.196 E24.02087
G1 X157.179 Y207.2 E24.03038
G1 X143.066 Y207.199 E24.49978
G1 X142.368 Y207.19 E24.523
G1 X141.467 Y207.139 E24.55301
G1 X140.573 Y207.007 E24.58307
G1 X139.695 Y206.798 E24.61309
G1 X138.838 Y206.511 E24.64315
G1 X138.011 Y206.15 E24.67316
G1 X137.218 Y205.717 E24.70321
G1 X136.467 Y205.216 E24.73324
G1 X135.763 Y204.65 E24.76328
G1 X135.112 Y204.024 E24.79332
G1 X134.519 Y203.343 E24.82336
G1 X133.989 Y202.612 E24.85339
G1 X133.525 Y201.837 E24.88343
G1 X133.131 Y201.024 E24.91348
G1 X132.811 Y200.18 E24.9435
G1 X132.567 Y199.31 E24.97355
G1 X132.401 Y198.422 E25.0036
G1 X132.304 Y197.267 E25.04215
G1 X132.295 Y196.934 E25.05323
G1 X132.291 Y196.658 E25.06241
G1 X132.292 Y103.536 E28.15966
G1 X132.301 Y102.871 E28.18178
G1 X132.353 Y101.969 E28.21183
G1 X132.485 Y101.076 E28.24186
G1 X132.695 Y100.198 E28.27188
G1 X132.982 Y99.341 E28.30194
G1 X133.344 Y98.514 E28.33197
G1 X133.777 Y97.722 E28.36199
G1 X134.279 Y96.971 E28.39203
G1 F2700 E23.39203
;MESH:HeadphoneHolder.stl
G0 F5400 X141.826 Y103.414
G0 X142.905 Y103.414
G0 X143.091 Y103.6
;TYPE:WALL-INNER
G1 F2700 E28.39203
G1 F900 X156.909 Y103.6 E28.85162
G1 X156.909 Y196.4 E31.93816
G1 X143.091 Y196.4 E32.39775
G1 X143.091 Y103.6 E35.48429
G0 F5400 X142.691 Y103.2
;TYPE:WALL-OUTER
G1 F900 X157.309 Y103.2 E35.97049
G1 X157.309 Y196.8 E39.08364
G1 X142.691 Y196.8 E39.56983
G1 X142.691 Y103.2 E42.68298
G0 F5400 X142.961 Y103.47
G0 X143.481 Y103.71
G0 X143.481 Y103.99
;TYPE:SKIN
G1 F900 X156.519 Y103.99 E43.11663
G1 X156.519 Y196.01 E46.17723
G1 X143.481 Y196.01 E46.61087
G1 X143.481 Y103.99 E49.67147
G0 F5400 X143.481 Y103.71
G0 X156.727 Y103.782
G0 X156.799 Y104.315
G0 X156.358 Y104.315
G1 F900 X156.192 Y104.149 E49.67928
G0 F5400 X155.627 Y104.149
G1 F900 X156.358 Y104.881 E49.71368
G0 F5400 X156.358 Y105.447
G1 F900 X155.061 Y104.149 E49.77471
G0 F5400 X154.495 Y104.149
G1 F900 X156.358 Y106.012 E49.86234
G0 F5400 X156.358 Y106.578
G1 F900 X153.93 Y104.149 E49.97657
G0 F5400 X153.364 Y104.149
G1 F900 X156.358 Y107.144 E50.11743
G0 F5400 X156.358 Y107.71
G1 F900 X152.798 Y104.149 E50.2849
G0 F5400 X152.233 Y104.149
G1 F900 X156.358 Y108.275 E50.47895
G0 F5400 X156.358 Y108.841
G1 F900 X151.667 Y104.149 E50.69963
G0 F5400 X151.101 Y104.149
G1 F900 X156.358 Y109.407 E50.94692
G0 F5400 X156.358 Y109.972
G1 F900 X150.535 Y104.149 E51.22082
G0 F5400 X149.97 Y104.149
G1 F900 X156.358 Y110.538 E51.52131
G0 F5400 X156.358 Y111.104
G1 F900 X149.404 Y104.149 E51.84843
G0 F5400 X148.838 Y104.149
G1 F900 X156.358 Y111.669 E52.20215
G0 F5400 X156.358 Y112.235
G1 F900 X148.273 Y104.149 E52.58247
G0 F5400 X147.707 Y104.149
G1 F900 X156.358 Y112.801 E52.98941
G0 F5400 X156.358 Y113.366
G1 F900 X147.141 Y104.149 E53.42295
G0 F5400 X146.576 Y104.149
G1 F900 X156.358 Y113.932 E53.88309
G0 F5400 X156.358 Y114.498
G1 F900 X146.01 Y104.149 E54.36985
G0 F5400 X145.444 Y104.149
G1 F900 X156.358 Y115.063 E54.88321
G0 F5400 X156.358 Y115.629
G1 F900 X144.879 Y104.149 E55.42317
G0 F5400 X144.313 Y104.149
G1 F900 X156.358 Y116.195 E55.98975
G0 F5400 X156.358 Y116.761
G1 F900 X143.747 Y104.149 E56.58296
G0 F5400 X143.64 Y104.607
G1 F900 X156.358 Y117.326 E57.1812
G0 F5400 X156.358 Y117.892
G1 F900 X143.64 Y105.173 E57.77944
G0 F5400 X143.64 Y105.739
G1 F900 X156.358 Y118.458 E58.37768
G0 F5400 X156.358 Y119.023
G1 F900 X143.64 Y106.305 E58.97589
G0 F5400 X143.64 Y106.87
G1 F900 X156.358 Y119.589 E59.57413
G0 F5400 X156.358 Y120.155
G1 F900 X143.64 Y107.436 E60.17237
G0 F5400 X143.64 Y108.002
G1 F900 X156.358 Y120.72 E60.77059
G0 F5400 X156.358 Y121.286
G1 F900 X143.64 Y108.567 E61.36883
G0 F5400 X143.64 Y109.133
G1 F900 X156.358 Y121.852 E61.96706
G0 F5400 X156.358 Y122.417
G1 F900 X143.64 Y109.699 E62.56528
G0 F5400 X143.64 Y110.264
G1 F900 X156.358 Y122.983 E63.16352
G0 F5400 X156.358 Y123.549
G1 F900 X143.64 Y110.83 E63.76176
G0 F5400 X143.64 Y111.396
G1 F900 X156.358 Y124.114 E64.35997
G0 F5400 X156.358 Y124.68
G1 F900 X143.64 Y111.961 E64.95821
G0 F5400 X143.64 Y112.527
G1 F900 X156.358 Y125.246 E65.55645
G0 F5400 X156.358 Y125.811
G1 F900 X143.64 Y113.093 E66.15467
G0 F5400 X143.64 Y113.658
G1 F900 X156.358 Y126.377 E66.75291
G0 F5400 X156.358 Y126.943
G1 F900 X143.64 Y114.224 E67.35115
G0 F5400 X143.64 Y114.79
G1 F900 X156.358 Y127.509 E67.94939
G0 F5400 X156.358 Y128.074
G1 F900 X143.64 Y115.355 E68.54763
G0 F5400 X143.64 Y115.921
G1 F900 X156.358 Y128.64 E69.14586
G0 F5400 X156.358 Y129.206
G1 F900 X143.64 Y116.487 E69.7441
G0 F5400 X143.64 Y117.053
G1 F900 X156.358 Y129.771 E70.34232
G0 F5400 X156.358 Y130.337
G1 F900 X143.64 Y117.618 E70.94056
G0 F5400 X143.64 Y118.184
G1 F900 X156.358 Y130.903 E71.5388
G0 F5400 X156.358 Y131.468
G1 F900 X143.64 Y118.75 E72.13701
G0 F5400 X143.64 Y119.315
G1 F900 X156.358 Y132.034 E72.73525
G0 F5400 X156.358 Y132.6
G1 F900 X143.64 Y119.881 E73.33349
G0 F5400 X143.64 Y120.447
G1 F900 X156.358 Y133.165 E73.93171
G0 F5400 X156.358 Y133.731
G1 F900 X143.64 Y121.012 E74.52995
G0 F5400 X143.64 Y121.578
G1 F900 X156.358 Y134.297 E75.12819
G0 F5400 X156.358 Y134.862
G1 F900 X143.64 Y122.144 E75.7264
G0 F5400 X143.64 Y122.709
G1 F900 X156.358 Y135.428 E76.32464
G0 F5400 X156.358 Y135.994
G1 F900 X143.64 Y123.275 E76.92288
G0 F5400 X143.64 Y123.841
G1 F900 X156.358 Y136.559 E77.5211
G0 F5400 X156.358 Y137.125
G1 F900 X143.64 Y124.406 E78.11934
G0 F5400 X143.64 Y124.972
G1 F900 X156.358 Y137.691 E78.71758
G0 F5400 X156.358 Y138.257
G1 F900 X143.64 Y125.538 E79.31581
G0 F5400 X143.64 Y126.104
G1 F900 X156.358 Y138.822 E79.91403
G0 F5400 X156.358 Y139.388
G1 F900 X143.64 Y126.669 E80.51227
G0 F5400 X143.64 Y127.235
G1 F900 X156.358 Y139.954 E81.11051
G0 F5400 X156.358 Y140.519
G1 F900 X143.64 Y127.801 E81.70872
G0 F5400 X143.64 Y128.366
G1 F900 X156.358 Y141.085 E82.30696
G0 F5400 X156.358 Y141.651
G1 F900 X143.64 Y128.932 E82.9052
G0 F5400 X143.64 Y129.498
G1 F900 X156.358 Y142.216 E83.50342
G0 F5400 X156.358 Y142.782
G1 F900 X143.64 Y130.063 E84.10166
G0 F5400 X143.64 Y130.629
G1 F900 X156.358 Y143.348 E84.6999
G0 F5400 X156.358 Y143.913
G1 F900 X143.64 Y131.195 E85.29811
G0 F5400 X143.64 Y131.76
G1 F900 X156.358 Y144.479 E85.89635
G0 F5400 X156.358 Y145.045
G1 F900 X143.64 Y132.326 E86.49459
G0 F5400 X143.64 Y132.892
G1 F900 X156.358 Y145.61 E87.09281
G0 F5400 X156.358 Y146.176
G1 F900 X143.64 Y133.457 E87.69105
G0 F5400 X143.64 Y134.023
G1 F900 X156.358 Y146.742 E88.28929
G0 F5400 X156.358 Y147.308
G1 F900 X143.64 Y134.589 E88.88752
G0 F5400 X143.64 Y135.154
G1 F900 X156.358 Y147.873 E89.48576
G0 F5400 X156.358 Y148.439
G1 F900 X143.64 Y135.72 E90.084
G0 F5400 X143.64 Y136.286
G1 F900 X156.358 Y149.005 E90.68224
G0 F5400 X156.358 Y149.57
G1 F900 X143.64 Y136.852 E91.28046
G0 F5400 X143.64 Y137.417
G1 F900 X156.358 Y150.136 E91.8787
G0 F5400 X156.358 Y150.702
G1 F900 X143.64 Y137.983 E92.47694
G0 F5400 X143.64 Y138.549
G1 F900 X156.358 Y151.267 E93.07515
G0 F5400 X156.358 Y151.833
G1 F900 X143.64 Y139.114 E93.67339
G0 F5400 X143.64 Y139.68
G1 F900 X156.358 Y152.399 E94.27163
G0 F5400 X156.358 Y152.964
G1 F900 X143.64 Y140.246 E94.86985
G0 F5400 X143.64 Y140.811
G1 F900 X156.358 Y153.53 E95.46809
G0 F5400 X156.358 Y154.096
G1 F900 X143.64 Y141.377 E96.06633
G0 F5400 X143.64 Y141.943
G1 F900 X156.358 Y154.661 E96.66454
G0 F5400 X156.358 Y155.227
G1 F900 X143.64 Y142.508 E97.26278
G0 F5400 X143.64 Y143.074
G1 F900 X156.358 Y155.793 E97.86102
G0 F5400 X156.358 Y156.358
G1 F900 X143.64 Y143.64 E98.45924
G0 F5400 X143.64 Y144.205
G1 F900 X156.358 Y156.924 E99.05747
G0 F5400 X156.358 Y157.49
G1 F900 X143.64 Y144.771 E99.65571
G0 F5400 X143.64 Y145.337
G1 F900 X156.358 Y158.056 E100.25395
G0 F5400 X156.358 Y158.621
G1 F900 X143.64 Y145.902 E100.85219
G0 F5400 X143.64 Y146.468
G1 F900 X156.358 Y159.187 E101.45043
G0 F5400 X156.358 Y159.753
G1 F900 X143.64 Y147.034 E102.04867
G0 F5400 X143.64 Y147.6
G1 F900 X156.358 Y160.318 E102.64689
G0 F5400 X156.358 Y160.884
G1 F900 X143.64 Y148.165 E103.24513
G0 F5400 X143.64 Y148.731
G1 F900 X156.358 Y161.45 E103.84336
G0 F5400 X156.358 Y162.015
G1 F900 X143.64 Y149.297 E104.44158
G0 F5400 X143.64 Y149.862
G1 F900 X156.358 Y162.581 E105.03982
G0 F5400 X156.358 Y163.147
