;FLAVOR:Marlin
;TIME:9473
;Filament used: 5.63479m
;Layer height: 0.24
;MINX:102.5
;MINY:107.5
;MINZ:0.2
;MAXX:197.5
;MAXY:192.5
;MAXZ:41
;Generated with Cura_SteamEngine 4.8.0
M140 S70
M105
M190 S70
M104 S225
M105
M109 S225
M82 ;absolute extrusion mode
M201 X500.00 Y500.00 Z100.00 E5000.00 ;Setup machine max acceleration
M203 X500.00 Y500.00 Z10.00 E50.00 ;Setup machine max feedrate
M204 P500.00 R1000.00 T500.00 ;Setup Print/Retract/Travel acceleration
M205 X8.00 Y8.00 Z0.40 E5.00 ;Setup Jerk
M220 S100 ;Reset Feedrate
M221 S100 ;Reset Flowrate

G28 ;Home

G92 E0 ;Reset Extruder
G1 Z2.0 F3000 ;Move Z Axis up
G1 X10.1 Y20 Z0.28 F5000.0 ;Move to start position
G1 X10.1 Y200.0 Z0.28 F1500.0 E15 ;Draw the first line
G1 X10.4 Y200.0 Z0.28 F5000.0 ;Move to side a little
G1 X10.4 Y20 Z0.28 F1500.0 E30 ;Draw the second line
G92 E0 ;Reset Extruder
G1 Z2.0 F3000 ;Move Z Axis up

G92 E0
G92 E0
G1 F2700 E-5
;LAYER_COUNT:171
;LAYER:0
M107
G0 F5400 X105.698 Y110.764 Z0.2
;TYPE:SKIRT
G1 F2700 E0
G1 F900 X106.386 Y110.127 E0.03119
G1 X107.126 Y109.551 E0.06237
G1 X107.912 Y109.039 E0.09357
G1 X108.739 Y108.597 E0.12476
G1 X109.601 Y108.227 E0.15596
G1 X110.491 Y107.931 E0.18716
G1 X111.403 Y107.713 E0.21835
G1 X112.33 Y107.572 E0.24953
G1 X113.201 Y107.513 E0.27857
G1 X113.522 Y107.504 E0.28925
G1 X113.83 Y107.5 E0.29949
G1 X185.793 Y107.5 E2.69299
G1 X186.649 Y107.511 E2.72147
G1 X187.585 Y107.565 E2.75265
G1 X188.513 Y107.697 E2.78383
G1 X189.427 Y107.909 E2.81503
G1 X190.319 Y108.198 E2.84622
G1 X191.184 Y108.561 E2.87742
G1 X192.014 Y108.997 E2.9086
G1 X192.805 Y109.502 E2.93982
G1 X193.549 Y110.073 E2.97101
G1 X194.242 Y110.705 E3.0022
G1 X194.879 Y111.393 E3.03339
G1 X195.454 Y112.134 E3.06458
G1 X195.965 Y112.92 E3.09577
G1 X196.407 Y113.748 E3.12698
G1 X196.776 Y114.61 E3.15817
G1 X197.071 Y115.5 E3.18936
G1 X197.289 Y116.412 E3.22054
G1 X197.429 Y117.34 E3.25176
G1 X197.487 Y118.201 E3.28046
G1 X197.496 Y118.521 E3.29111
G1 X197.5 Y118.83 E3.30139
G1 X197.499 Y180.9 E5.36584
G1 X197.49 Y181.627 E5.39002
G1 X197.439 Y182.564 E5.42124
G1 X197.307 Y183.492 E5.45241
G1 X197.098 Y184.406 E5.4836
G1 X196.811 Y185.299 E5.51479
G1 X196.449 Y186.165 E5.54601
G1 X196.015 Y186.996 E5.57719
G1 X195.511 Y187.787 E5.60839
G1 X194.942 Y188.532 E5.63957
G1 X194.311 Y189.227 E5.67079
G1 X193.624 Y189.865 E5.70197
G1 X192.885 Y190.442 E5.73316
G1 X192.099 Y190.954 E5.76436
G1 X191.273 Y191.397 E5.79553
G1 X190.411 Y191.769 E5.82676
G1 X189.522 Y192.065 E5.85792
G1 X188.61 Y192.285 E5.88912
G1 X187.683 Y192.426 E5.92031
G1 X186.799 Y192.487 E5.94978
G1 X186.478 Y192.496 E5.96046
G1 X186.17 Y192.5 E5.97071
G1 X114.065 Y192.499 E8.36893
G1 X113.367 Y192.49 E8.39215
G1 X112.431 Y192.438 E8.42333
G1 X111.502 Y192.306 E8.45454
G1 X110.588 Y192.096 E8.48573
G1 X109.695 Y191.809 E8.51693
G1 X108.83 Y191.446 E8.54813
G1 X107.999 Y191.012 E8.57931
G1 X107.208 Y190.508 E8.6105
G1 X106.463 Y189.938 E8.6417
G1 X105.769 Y189.307 E8.6729
G1 X105.132 Y188.62 E8.70406
G1 X104.555 Y187.88 E8.73527
G1 X104.043 Y187.094 E8.76647
G1 X103.6 Y186.267 E8.79768
G1 X103.229 Y185.406 E8.82886
G1 X102.933 Y184.516 E8.86005
G1 X102.714 Y183.604 E8.89125
G1 X102.573 Y182.677 E8.92244
G1 X102.513 Y181.788 E8.95207
G1 X102.504 Y181.455 E8.96315
G1 X102.5 Y181.158 E8.97303
G1 X102.501 Y119.025 E11.03958
G1 X102.51 Y118.36 E11.0617
G1 X102.563 Y117.424 E11.09288
G1 X102.695 Y116.495 E11.12409
G1 X102.906 Y115.581 E11.15529
G1 X103.194 Y114.689 E11.18647
G1 X103.557 Y113.824 E11.21767
G1 X103.992 Y112.993 E11.24887
G1 X104.496 Y112.203 E11.28003
G1 X105.066 Y111.458 E11.31123
G1 X105.698 Y110.764 E11.34245
G0 F5400 X106.089 Y110.939
G1 F900 X106.774 Y110.323 E11.37309
G1 X107.51 Y109.77 E11.40371
G1 X108.291 Y109.282 E11.43434
G1 X109.111 Y108.864 E11.46495
G1 X109.965 Y108.519 E11.49559
G1 X110.845 Y108.249 E11.5262
G1 X111.745 Y108.057 E11.55681
G1 X112.659 Y107.943 E11.58745
G1 X113.212 Y107.913 E11.60587
G1 X113.533 Y107.904 E11.61655
G1 X113.83 Y107.9 E11.62643
G1 X185.793 Y107.9 E14.01993
G1 X186.643 Y107.911 E14.0482
G1 X187.562 Y107.964 E14.07882
G1 X188.473 Y108.097 E14.10944
G1 X189.369 Y108.308 E14.14005
G1 X190.243 Y108.596 E14.17066
G1 X191.09 Y108.959 E14.20131
G1 X191.901 Y109.394 E14.23192
G1 X192.671 Y109.898 E14.26253
G1 X193.395 Y110.467 E14.29316
G1 X194.067 Y111.097 E14.32379
G1 X194.682 Y111.782 E14.35441
G1 X195.235 Y112.518 E14.38503
G1 X195.722 Y113.299 E14.41564
G1 X196.139 Y114.12 E14.44627
G1 X196.484 Y114.974 E14.4769
G1 X196.753 Y115.854 E14.50751
G1 X196.945 Y116.755 E14.53815
G1 X197.058 Y117.668 E14.56875
G1 X197.087 Y118.212 E14.58687
G1 X197.096 Y118.532 E14.59751
G1 X197.1 Y118.83 E14.60743
G1 X197.099 Y180.895 E16.67172
G1 X197.09 Y181.622 E16.6959
G1 X197.039 Y182.541 E16.72651
G1 X196.908 Y183.453 E16.75716
G1 X196.698 Y184.349 E16.78777
G1 X196.412 Y185.224 E16.81838
G1 X196.051 Y186.071 E16.84901
G1 X195.617 Y186.883 E16.87963
G1 X195.115 Y187.655 E16.91026
G1 X194.547 Y188.38 E16.94089
G1 X193.919 Y189.053 E16.97151
G1 X193.235 Y189.669 E17.00212
G1 X192.5 Y190.223 E17.03273
G1 X191.72 Y190.712 E17.06335
G1 X190.9 Y191.131 E17.09398
G1 X190.047 Y191.477 E17.1246
G1 X189.167 Y191.748 E17.15522
G1 X188.267 Y191.941 E17.18584
G1 X187.353 Y192.056 E17.21648
G1 X186.788 Y192.087 E17.2353
G1 X186.467 Y192.096 E17.24598
G1 X186.17 Y192.1 E17.25586
G1 X114.07 Y192.099 E19.65391
G1 X113.372 Y192.09 E19.67713
G1 X112.453 Y192.038 E19.70775
G1 X111.542 Y191.907 E19.73836
G1 X110.646 Y191.697 E19.76897
G1 X109.771 Y191.41 E19.79959
G1 X108.924 Y191.048 E19.83023
G1 X108.112 Y190.614 E19.86085
G1 X107.341 Y190.112 E19.89145
G1 X106.616 Y189.544 E19.92209
G1 X105.943 Y188.915 E19.95272
G1 X105.328 Y188.231 E19.98332
G1 X104.774 Y187.496 E20.01393
G1 X104.286 Y186.715 E20.04456
G1 X103.867 Y185.895 E20.07519
G1 X103.521 Y185.042 E20.1058
G1 X103.251 Y184.162 E20.13642
G1 X103.058 Y183.261 E20.16707
G1 X102.944 Y182.348 E20.19767
G1 X102.913 Y181.777 E20.21669
G1 X102.904 Y181.444 E20.22777
G1 X102.9 Y181.158 E20.23728
G1 X102.901 Y119.031 E22.30363
G1 X102.91 Y118.366 E22.32575
G1 X102.962 Y117.446 E22.3564
G1 X103.094 Y116.535 E22.38702
G1 X103.305 Y115.639 E22.41764
G1 X103.592 Y114.764 E22.44826
G1 X103.955 Y113.918 E22.47888
G1 X104.389 Y113.106 E22.50951
G1 X104.892 Y112.335 E22.54012
G1 X105.461 Y111.611 E22.57075
G1 X106.089 Y110.939 E22.60134
G0 F5400 X106.481 Y111.117
G1 F900 X107.162 Y110.524 E22.63138
G1 X107.894 Y109.994 E22.66143
G1 X108.669 Y109.531 E22.69146
G1 X109.482 Y109.138 E22.72149
G1 X110.327 Y108.818 E22.75155
G1 X111.196 Y108.575 E22.78156
G1 X112.084 Y108.409 E22.81161
G1 X113.223 Y108.313 E22.84962
G1 X113.544 Y108.304 E22.8603
G1 X113.83 Y108.3 E22.86982
G1 X185.793 Y108.3 E25.26332
G1 X186.637 Y108.311 E25.29139
G1 X187.539 Y108.364 E25.32144
G1 X188.432 Y108.496 E25.35147
G1 X189.31 Y108.707 E25.3815
G1 X190.166 Y108.995 E25.41154
G1 X190.993 Y109.357 E25.44157
G1 X191.785 Y109.792 E25.47162
G1 X192.536 Y110.294 E25.50166
G1 X193.239 Y110.861 E25.5317
G1 X193.889 Y111.488 E25.56174
G1 X194.481 Y112.17 E25.59178
G1 X195.011 Y112.901 E25.62181
G1 X195.473 Y113.677 E25.65185
G1 X195.866 Y114.49 E25.68188
G1 X196.184 Y115.335 E25.71191
G1 X196.427 Y116.205 E25.74195
G1 X196.592 Y117.093 E25.77199
G1 X196.687 Y118.223 E25.80971
G1 X196.696 Y118.543 E25.82036
G1 X196.7 Y118.83 E25.82991
G1 X196.699 Y180.89 E27.89403
G1 X196.69 Y181.617 E27.91821
G1 X196.639 Y182.519 E27.94826
G1 X196.508 Y183.413 E27.97831
G1 X196.299 Y184.291 E28.00833
G1 X196.013 Y185.148 E28.03838
G1 X195.652 Y185.976 E28.06842
G1 X195.22 Y186.768 E28.09843
G1 X194.719 Y187.52 E28.12848
G1 X194.153 Y188.224 E28.15853
G1 X193.528 Y188.875 E28.18854
G1 X192.847 Y189.469 E28.2186
G1 X192.116 Y190 E28.24865
G1 X191.342 Y190.464 E28.27866
G1 X190.529 Y190.858 E28.30871
G1 X189.685 Y191.178 E28.33873
G1 X188.815 Y191.423 E28.3688
G1 X187.928 Y191.589 E28.39881
G1 X186.777 Y191.687 E28.43723
G1 X186.456 Y191.696 E28.44791
G1 X186.17 Y191.7 E28.45742
G1 X114.075 Y191.699 E30.85531
G1 X113.377 Y191.69 E30.87853
G1 X112.476 Y191.639 E30.90855
G1 X111.582 Y191.507 E30.9386
G1 X110.704 Y191.298 E30.96862
G1 X109.847 Y191.011 E30.99868
G1 X109.02 Y190.65 E31.02869
G1 X108.227 Y190.217 E31.05875
G1 X107.476 Y189.716 E31.08877
G1 X106.772 Y189.15 E31.11882
G1 X106.121 Y188.524 E31.14886
G1 X105.528 Y187.843 E31.17889
G1 X104.998 Y187.112 E31.20892
G1 X104.534 Y186.337 E31.23896
G1 X104.14 Y185.524 E31.26901
G1 X103.82 Y184.68 E31.29903
G1 X103.576 Y183.81 E31.32909
G1 X103.41 Y182.922 E31.35913
G1 X103.313 Y181.767 E31.39768
G1 X103.304 Y181.434 E31.40876
G1 X103.3 Y181.158 E31.41794
G1 X103.301 Y119.036 E33.48413
G1 X103.31 Y118.371 E33.50625
G1 X103.362 Y117.469 E33.5363
G1 X103.494 Y116.576 E33.56632
G1 X103.704 Y115.698 E33.59635
G1 X103.991 Y114.841 E33.62641
G1 X104.353 Y114.014 E33.65644
G1 X104.786 Y113.222 E33.68646
G1 X105.288 Y112.471 E33.7165
G1 X105.855 Y111.767 E33.74657
G1 X106.481 Y111.117 E33.77658
G1 F2700 E28.77658
;MESH:WallCandleHolder v1.stl
G0 F5400 X113.914 Y117.835
G0 X113.914 Y118.914
G0 X114.1 Y119.1
;TYPE:WALL-INNER
G1 F2700 E33.77658
G1 F900 X185.9 Y119.1 E36.16466
G1 X185.9 Y180.9 E38.22014
G1 X114.1 Y180.9 E40.60822
G1 X114.1 Y119.1 E42.66369
G0 F5400 X113.7 Y118.7
;TYPE:WALL-OUTER
G1 F900 X186.3 Y118.7 E45.07838
G1 X186.3 Y181.3 E47.16046
G1 X113.7 Y181.3 E49.57515
G1 X113.7 Y118.7 E51.65723
G0 F5400 X113.97 Y118.97
G0 X114.49 Y119.21
G0 X114.49 Y119.49
;TYPE:SKIN
G1 F900 X185.51 Y119.49 E54.01937
G1 X185.51 Y180.51 E56.0489
G1 X114.49 Y180.51 E58.41103
G1 X114.49 Y119.49 E60.44057
G1 F2700 E55.44057
G0 F5400 X114.49 Y119.21
G0 X114.282 Y180.718
G0 X114.729 Y180.79
G0 X114.729 Y180.348
G1 F2700 E60.44057
G1 F900 X114.65 Y180.269 E60.44428
G0 F5400 X114.65 Y179.704
G1 F900 X115.295 Y180.348 E60.4746
G0 F5400 X115.86 Y180.348
G1 F900 X114.65 Y179.138 E60.53151
G0 F5400 X114.65 Y178.572
G1 F900 X116.426 Y180.348 E60.61505
G0 F5400 X116.992 Y180.348
G1 F900 X114.65 Y178.007 E60.72519
G0 F5400 X114.65 Y177.441
G1 F900 X117.557 Y180.348 E60.86193
G0 F5400 X118.123 Y180.348
G1 F900 X114.65 Y176.875 E61.02528
G0 F5400 X114.65 Y176.31
G1 F900 X118.689 Y180.348 E61.21524
G0 F5400 X119.254 Y180.348
G1 F900 X114.65 Y175.744 E61.4318
G0 F5400 X114.65 Y175.178
G1 F900 X119.82 Y180.348 E61.67498
G0 F5400 X120.386 Y180.348
G1 F900 X114.65 Y174.612 E61.94479
G0 F5400 X114.65 Y174.047
G1 F900 X120.952 Y180.348 E62.24119
G0 F5400 X121.517 Y180.348
G1 F900 X114.65 Y173.481 E62.56419
G0 F5400 X114.65 Y172.915
G1 F900 X122.083 Y180.348 E62.91382
G0 F5400 X122.649 Y180.348
G1 F900 X114.65 Y172.35 E63.29004
G0 F5400 X114.65 Y171.784
G1 F900 X123.214 Y180.348 E63.69287
G0 F5400 X123.78 Y180.348
G1 F900 X114.65 Y171.218 E64.12231
G0 F5400 X114.65 Y170.653
G1 F900 X124.346 Y180.348 E64.57836
G0 F5400 X124.911 Y180.348
G1 F900 X114.65 Y170.087 E65.06101
G0 F5400 X114.65 Y169.521
G1 F900 X125.477 Y180.348 E65.57028
G0 F5400 X126.043 Y180.348
G1 F900 X114.65 Y168.956 E66.10614
G0 F5400 X114.65 Y168.39
G1 F900 X126.608 Y180.348 E66.66861
G0 F5400 X127.174 Y180.348
G1 F900 X114.65 Y167.824 E67.2577
G0 F5400 X114.65 Y167.259
G1 F900 X127.74 Y180.348 E67.87339
G0 F5400 X128.305 Y180.348
G1 F900 X114.65 Y166.693 E68.51568
G0 F5400 X114.65 Y166.127
G1 F900 X128.871 Y180.348 E69.18459
G0 F5400 X129.437 Y180.348
G1 F900 X114.65 Y165.561 E69.88013
G0 F5400 X114.65 Y164.996
G1 F900 X130.002 Y180.348 E70.60224
G0 F5400 X130.568 Y180.348
G1 F900 X114.65 Y164.43 E71.35097
G0 F5400 X114.65 Y163.864
G1 F900 X131.134 Y180.348 E72.12633
G0 F5400 X131.7 Y180.348
G1 F900 X114.65 Y163.299 E72.92829
G0 F5400 X114.65 Y162.733
G1 F900 X132.265 Y180.348 E73.75684
G0 F5400 X132.831 Y180.348
G1 F900 X114.65 Y162.167 E74.61202
G0 F5400 X114.65 Y161.602
G1 F900 X133.397 Y180.348 E75.4938
G0 F5400 X133.962 Y180.348
G1 F900 X114.65 Y161.036 E76.40218
G0 F5400 X114.65 Y160.47
G1 F900 X134.528 Y180.348 E77.33718
G0 F5400 X135.094 Y180.348
G1 F900 X114.65 Y159.905 E78.29878
G0 F5400 X114.65 Y159.339
G1 F900 X135.659 Y180.348 E79.28697
G0 F5400 X136.225 Y180.348
G1 F900 X114.65 Y158.773 E80.3018
G0 F5400 X114.65 Y158.208
G1 F900 X136.791 Y180.348 E81.34322
G0 F5400 X137.356 Y180.348
G1 F900 X114.65 Y157.642 E82.41124
G0 F5400 X114.65 Y157.076
G1 F900 X137.922 Y180.348 E83.50588
G0 F5400 X138.488 Y180.348
G1 F900 X114.65 Y156.511 E84.62712
G0 F5400 X114.65 Y155.945
G1 F900 X139.053 Y180.348 E85.77497
G0 F5400 X139.619 Y180.348
G1 F900 X114.65 Y155.379 E86.94943
G0 F5400 X114.65 Y154.813
G1 F900 X140.185 Y180.348 E88.15052
G0 F5400 X140.751 Y180.348
G1 F900 X114.65 Y154.248 E89.37821
G0 F5400 X114.65 Y153.682
G1 F900 X141.316 Y180.348 E90.63249
G0 F5400 X141.882 Y180.348
G1 F900 X114.65 Y153.116 E91.9134
G0 F5400 X114.65 Y152.551
G1 F900 X142.448 Y180.348 E93.22091
G0 F5400 X143.013 Y180.348
G1 F900 X114.65 Y151.985 E94.55502
G0 F5400 X114.65 Y151.419
G1 F900 X143.579 Y180.348 E95.91575
G0 F5400 X144.145 Y180.348
G1 F900 X114.65 Y150.854 E97.30308
G0 F5400 X114.65 Y150.288
G1 F900 X144.71 Y180.348 E98.71701
G0 F5400 X145.276 Y180.348
G1 F900 X114.65 Y149.722 E100.15757
G0 F5400 X114.65 Y149.157
G1 F900 X145.842 Y180.348 E101.62472
G0 F5400 X146.407 Y180.348
G1 F900 X114.65 Y148.591 E103.11847
G0 F5400 X114.65 Y148.025
G1 F900 X146.973 Y180.348 E104.63885
G0 F5400 X147.539 Y180.348
G1 F900 X114.65 Y147.46 E106.18582
G0 F5400 X114.65 Y146.894
G1 F900 X148.104 Y180.348 E107.75939
G0 F5400 X148.67 Y180.348
G1 F900 X114.65 Y146.328 E109.35959
G0 F5400 X114.65 Y145.762
G1 F900 X149.236 Y180.348 E110.98641
G0 F5400 X149.801 Y180.348
G1 F900 X114.65 Y145.197 E112.63981
G0 F5400 X114.65 Y144.631
G1 F900 X150.367 Y180.348 E114.31982
G0 F5400 X150.933 Y180.348
G1 F900 X114.65 Y144.065 E116.02647
G0 F5400 X114.65 Y143.5
G1 F900 X151.499 Y180.348 E117.75971
G0 F5400 X152.064 Y180.348
G1 F900 X114.65 Y142.934 E119.51955
G0 F5400 X114.65 Y142.368
G1 F900 X152.63 Y180.348 E121.30601
G0 F5400 X153.196 Y180.348
G1 F900 X114.65 Y141.803 E123.11907
G0 F5400 X114.65 Y141.237
G1 F900 X153.761 Y180.348 E124.95873
G0 F5400 X154.327 Y180.348
G1 F900 X114.65 Y140.671 E126.82502
G0 F5400 X114.65 Y140.106
G1 F900 X154.893 Y180.348 E128.7179
G0 F5400 X155.458 Y180.348
G1 F900 X114.65 Y139.54 E130.63738
G0 F5400 X114.65 Y138.974
G1 F900 X156.024 Y180.348 E132.58349
G0 F5400 X156.59 Y180.348
G1 F900 X114.65 Y138.409 E134.5562
G0 F5400 X114.65 Y137.843
G1 F900 X157.155 Y180.348 E136.5555
G0 F5400 X157.721 Y180.348
G1 F900 X114.65 Y137.277 E138.58143
G0 F5400 X114.65 Y136.712
G1 F900 X158.287 Y180.348 E140.63395
G0 F5400 X158.852 Y180.348
G1 F900 X114.65 Y136.146 E142.71308
G0 F5400 X114.65 Y135.58
G1 F900 X159.418 Y180.348 E144.81883
G0 F5400 X159.984 Y180.348
G1 F900 X114.65 Y135.014 E146.9512
G0 F5400 X114.65 Y134.449
G1 F900 X160.55 Y180.348 E149.11018
G0 F5400 X161.115 Y180.348
G1 F900 X114.65 Y133.883 E151.29575
G0 F5400 X114.65 Y133.317
G1 F900 X161.681 Y180.348 E153.50794
G0 F5400 X162.247 Y180.348
G1 F900 X114.65 Y132.752 E155.74673
G0 F5400 X114.65 Y132.186
G1 F900 X162.812 Y180.348 E158.01213
G0 F5400 X163.378 Y180.348
G1 F900 X114.65 Y131.62 E160.30414
G0 F5400 X114.65 Y131.055
G1 F900 X163.944 Y180.348 E162.62276
G0 F5400 X164.509 Y180.348
G1 F900 X114.65 Y130.489 E164.96797
G0 F5400 X114.65 Y129.923
G1 F900 X165.075 Y180.348 E167.33981
G0 F5400 X165.641 Y180.348
G1 F900 X114.65 Y129.358 E169.73825
G0 F5400 X114.65 Y128.792
G1 F900 X166.206 Y180.348 E172.16328
G0 F5400 X166.772 Y180.348
G1 F900 X114.65 Y128.226 E174.61494
G0 F5400 X114.65 Y127.661
G1 F900 X167.338 Y180.348 E177.0932
G0 F5400 X167.903 Y180.348
G1 F900 X114.65 Y127.095 E179.59806
G0 F5400 X114.65 Y126.529
G1 F900 X168.469 Y180.348 E182.12954
G0 F5400 X169.035 Y180.348
G1 F900 X114.65 Y125.964 E184.68762
G0 F5400 X114.65 Y125.398
G1 F900 X169.6 Y180.348 E187.2723
G0 F5400 X170.166 Y180.348
G1 F900 X114.65 Y124.832 E189.8836
G0 F5400 X114.65 Y124.266
G1 F900 X170.732 Y180.348 E192.52153
G0 F5400 X171.298 Y180.348
G1 F900 X114.65 Y123.701 E195.18605
G0 F5400 X114.65 Y123.135
G1 F900 X171.863 Y180.348 E197.87717
