;FLAVOR:Marlin
;TIME:538
;Filament used: 0.37626m
;Layer height: 0.24
;MINX:129
;MINY:129
;MINZ:0.2
;MAXX:171
;MAXY:171
;MAXZ:5.96
;Generated with Cura_SteamEngine 4.8.0
M140 S70
M105
M190 S70
M104 S225
M105
M109 S225
M82 ;absolute extrusion mode
M201 X500.00 Y500.00 Z100.00 E5000.00 ;Setup machine max acceleration
M203 X500.00 Y500.00 Z10.00 E50.00 ;Setup machine max feedrate
M204 P500.00 R1000.00 T500.00 ;Setup Print/Retract/Travel acceleration
M205 X8.00 Y8.00 Z0.40 E5.00 ;Setup Jerk
M220 S100 ;Reset Feedrate
M221 S100 ;Reset Flowrate

G28 ;Home

G92 E0 ;Reset Extruder
G1 Z2.0 F3000 ;Move Z Axis up
G1 X10.1 Y20 Z0.28 F5000.0 ;Move to start position
G1 X10.1 Y200.0 Z0.28 F1500.0 E15 ;Draw the first line
G1 X10.4 Y200.0 Z0.28 F5000.0 ;Move to side a little
G1 X10.4 Y20 Z0.28 F1500.0 E30 ;Draw the second line
G92 E0 ;Reset Extruder
G1 Z2.0 F3000 ;Move Z Axis up

G92 E0
G92 E0
G1 F2700 E-5
;LAYER_COUNT:25
;LAYER:0
M107
G0 F6000 X132.198 Y132.264 Z0.2
;TYPE:SKIRT
G1 F2700 E0
G1 F1200 X132.886 Y131.627 E0.03119
G1 X133.626 Y131.051 E0.06237
G1 X134.412 Y130.539 E0.09357
G1 X135.239 Y130.097 E0.12476
G1 X136.101 Y129.727 E0.15596
G1 X136.991 Y129.431 E0.18716
G1 X137.903 Y129.213 E0.21835
G1 X138.83 Y129.072 E0.24953
G1 X139.701 Y129.013 E0.27857
G1 X140.022 Y129.004 E0.28925
G1 X140.33 Y129 E0.29949
G1 X149.293 Y129 E0.59761
G1 X150.152 Y129.011 E0.62618
G1 X151.089 Y129.064 E0.65739
G1 X152.017 Y129.197 E0.68857
G1 X152.931 Y129.409 E0.71978
G1 X153.823 Y129.697 E0.75096
G1 X154.688 Y130.061 E0.78217
G1 X155.518 Y130.497 E0.81335
G1 X156.309 Y131.002 E0.84457
G1 X157.053 Y131.572 E0.87574
G1 X157.746 Y132.204 E0.90693
G1 X158.136 Y132.612 E0.92571
G1 X158.613 Y133.138 E0.94932
G1 X159.563 Y134.218 E0.99716
G1 X161.259 Y136.039 E1.07993
G1 X163.03 Y137.835 E1.16382
G1 X164.835 Y139.565 E1.24698
G1 X166.877 Y141.414 E1.3386
G1 X167.253 Y141.744 E1.35524
G1 X167.93 Y142.392 E1.38641
G1 X168.55 Y143.097 E1.41764
G1 X169.107 Y143.851 E1.44882
G1 X169.598 Y144.65 E1.48001
G1 X170.02 Y145.488 E1.51121
G1 X170.368 Y146.359 E1.54241
G1 X170.641 Y147.256 E1.5736
G1 X170.836 Y148.173 E1.60478
G1 X170.953 Y149.104 E1.63599
G1 X170.985 Y149.667 E1.65474
G1 X170.995 Y149.992 E1.66556
G1 X171 Y150.33 E1.6768
G1 X170.999 Y159.4 E1.97847
G1 X170.99 Y160.127 E2.00265
G1 X170.939 Y161.064 E2.03386
G1 X170.807 Y161.992 E2.06504
G1 X170.598 Y162.906 E2.09622
G1 X170.311 Y163.799 E2.12742
G1 X169.949 Y164.665 E2.15864
G1 X169.515 Y165.496 E2.18982
G1 X169.011 Y166.287 E2.22102
G1 X168.442 Y167.032 E2.25219
G1 X167.811 Y167.727 E2.28342
G1 X167.124 Y168.365 E2.3146
G1 X166.385 Y168.942 E2.34578
G1 X165.599 Y169.454 E2.37698
G1 X164.773 Y169.897 E2.40816
G1 X163.911 Y170.269 E2.43938
G1 X163.022 Y170.565 E2.47055
G1 X162.11 Y170.785 E2.50175
G1 X161.183 Y170.926 E2.53294
G1 X160.299 Y170.987 E2.56241
G1 X159.978 Y170.996 E2.57309
G1 X159.67 Y171 E2.58334
G1 X140.565 Y170.999 E3.21877
G1 X139.867 Y170.99 E3.24199
G1 X138.931 Y170.938 E3.27317
G1 X138.002 Y170.806 E3.30438
G1 X137.088 Y170.596 E3.33557
G1 X136.195 Y170.309 E3.36677
G1 X135.33 Y169.946 E3.39797
G1 X134.499 Y169.512 E3.42915
G1 X133.708 Y169.008 E3.46034
G1 X132.963 Y168.438 E3.49154
G1 X132.269 Y167.807 E3.52274
G1 X131.632 Y167.12 E3.5539
G1 X131.055 Y166.38 E3.58511
G1 X130.543 Y165.594 E3.61631
G1 X130.1 Y164.767 E3.64751
G1 X129.729 Y163.906 E3.6787
G1 X129.433 Y163.016 E3.70989
G1 X129.214 Y162.104 E3.74109
G1 X129.073 Y161.177 E3.77228
G1 X129.013 Y160.288 E3.80191
G1 X129.004 Y159.955 E3.81299
G1 X129 Y159.658 E3.82287
G1 X129.001 Y140.525 E4.45924
G1 X129.01 Y139.86 E4.48136
G1 X129.063 Y138.924 E4.51254
G1 X129.195 Y137.995 E4.54375
G1 X129.406 Y137.081 E4.57495
G1 X129.694 Y136.189 E4.60612
G1 X130.057 Y135.324 E4.63732
G1 X130.492 Y134.493 E4.66852
G1 X130.996 Y133.703 E4.69969
G1 X131.566 Y132.958 E4.73089
G1 X132.198 Y132.264 E4.76211
G0 F6000 X132.589 Y132.439
G1 F1200 X133.274 Y131.823 E4.79275
G1 X134.01 Y131.27 E4.82337
G1 X134.791 Y130.782 E4.854
G1 X135.611 Y130.364 E4.88461
G1 X136.465 Y130.019 E4.91524
G1 X137.345 Y129.749 E4.94586
G1 X138.245 Y129.557 E4.97647
G1 X139.159 Y129.443 E5.0071
G1 X139.712 Y129.413 E5.02552
G1 X140.033 Y129.404 E5.0362
G1 X140.33 Y129.4 E5.04608
G1 X149.293 Y129.4 E5.34419
G1 X150.147 Y129.411 E5.3726
G1 X151.066 Y129.464 E5.40321
G1 X151.977 Y129.597 E5.43384
G1 X152.873 Y129.808 E5.46445
G1 X153.747 Y130.096 E5.49506
G1 X154.594 Y130.459 E5.52571
G1 X155.405 Y130.894 E5.55632
G1 X156.176 Y131.398 E5.58695
G1 X156.9 Y131.966 E5.61756
G1 X157.84 Y132.881 E5.66119
G1 X158.313 Y133.402 E5.6846
G1 X159.254 Y134.471 E5.73196
G1 X160.982 Y136.327 E5.81631
G1 X162.769 Y138.14 E5.90098
G1 X164.57 Y139.866 E5.98394
G1 X166.555 Y141.662 E6.07298
G1 X166.989 Y142.044 E6.09221
G1 X167.653 Y142.681 E6.12281
G1 X168.26 Y143.374 E6.15345
G1 X168.804 Y144.117 E6.18408
G1 X169.282 Y144.904 E6.21471
G1 X169.689 Y145.729 E6.2453
G1 X170.024 Y146.587 E6.27594
G1 X170.283 Y147.471 E6.30658
G1 X170.464 Y148.373 E6.33718
G1 X170.585 Y149.679 E6.3808
G1 X170.595 Y150.004 E6.39161
G1 X170.6 Y150.33 E6.40246
G1 X170.599 Y159.395 E6.70396
G1 X170.59 Y160.122 E6.72814
G1 X170.539 Y161.041 E6.75876
G1 X170.408 Y161.953 E6.7894
G1 X170.198 Y162.849 E6.82001
G1 X169.912 Y163.724 E6.85063
G1 X169.551 Y164.571 E6.88125
G1 X169.117 Y165.383 E6.91187
G1 X168.615 Y166.155 E6.9425
G1 X168.047 Y166.88 E6.97314
G1 X167.419 Y167.553 E7.00375
G1 X166.735 Y168.169 E7.03437
G1 X166 Y168.723 E7.06498
G1 X165.22 Y169.212 E7.0956
G1 X164.4 Y169.631 E7.12623
G1 X163.547 Y169.977 E7.15684
G1 X162.667 Y170.248 E7.18747
G1 X161.767 Y170.441 E7.21808
G1 X160.853 Y170.556 E7.24872
G1 X160.288 Y170.587 E7.26754
G1 X159.967 Y170.596 E7.27822
G1 X159.67 Y170.6 E7.2881
G1 X140.57 Y170.599 E7.92337
G1 X139.872 Y170.59 E7.94659
G1 X138.953 Y170.538 E7.9772
G1 X138.042 Y170.407 E8.00781
G1 X137.146 Y170.197 E8.03842
G1 X136.271 Y169.91 E8.06905
G1 X135.424 Y169.548 E8.09969
G1 X134.612 Y169.114 E8.13031
G1 X133.841 Y168.612 E8.16091
G1 X133.116 Y168.044 E8.19154
G1 X132.443 Y167.415 E8.22218
G1 X131.828 Y166.731 E8.25278
G1 X131.274 Y165.996 E8.28339
G1 X130.786 Y165.215 E8.31402
G1 X130.367 Y164.395 E8.34465
G1 X130.021 Y163.542 E8.37526
G1 X129.751 Y162.662 E8.40588
G1 X129.558 Y161.761 E8.43652
G1 X129.444 Y160.848 E8.46713
G1 X129.413 Y160.277 E8.48615
G1 X129.404 Y159.944 E8.49723
G1 X129.4 Y159.658 E8.50674
G1 X129.401 Y140.531 E9.14291
G1 X129.41 Y139.866 E9.16503
G1 X129.462 Y138.946 E9.19567
G1 X129.594 Y138.035 E9.22629
G1 X129.805 Y137.139 E9.25691
G1 X130.092 Y136.264 E9.28754
G1 X130.455 Y135.418 E9.31815
G1 X130.889 Y134.606 E9.34878
G1 X131.392 Y133.835 E9.3794
G1 X131.961 Y133.111 E9.41002
G1 X132.589 Y132.439 E9.44061
G0 F6000 X132.981 Y132.617
G1 F1200 X133.662 Y132.024 E9.47065
G1 X134.394 Y131.494 E9.50071
G1 X135.169 Y131.031 E9.53073
G1 X135.982 Y130.638 E9.56077
G1 X136.827 Y130.318 E9.59082
G1 X137.696 Y130.075 E9.62083
G1 X138.584 Y129.909 E9.65088
G1 X139.723 Y129.813 E9.6889
G1 X140.044 Y129.804 E9.69958
G1 X140.33 Y129.8 E9.70909
G1 X149.293 Y129.8 E10.0072
G1 X150.141 Y129.811 E10.03541
G1 X151.043 Y129.864 E10.06546
G1 X151.936 Y129.996 E10.09548
G1 X152.814 Y130.207 E10.12552
G1 X153.67 Y130.495 E10.15556
G1 X154.497 Y130.857 E10.18558
G1 X155.289 Y131.291 E10.21562
G1 X156.04 Y131.793 E10.24566
G1 X156.743 Y132.36 E10.2757
G1 X157.544 Y133.15 E10.31312
G1 X158.012 Y133.667 E10.33632
G1 X158.94 Y134.722 E10.38305
G1 X160.687 Y136.598 E10.46831
G1 X162.473 Y138.409 E10.55291
G1 X164.31 Y140.17 E10.63755
G1 X166.305 Y141.976 E10.72705
G1 X166.725 Y142.345 E10.74565
G1 X167.376 Y142.97 E10.77566
G1 X167.969 Y143.651 E10.8057
G1 X168.5 Y144.382 E10.83575
G1 X168.964 Y145.157 E10.86579
G1 X169.358 Y145.969 E10.89581
G1 X169.678 Y146.814 E10.92586
G1 X169.922 Y147.683 E10.95588
G1 X170.089 Y148.571 E10.98593
G1 X170.185 Y149.691 E11.02332
G1 X170.195 Y150.016 E11.03414
G1 X170.2 Y150.33 E11.04458
G1 X170.199 Y159.39 E11.34592
G1 X170.19 Y160.117 E11.3701
G1 X170.139 Y161.019 E11.40015
G1 X170.008 Y161.913 E11.4302
G1 X169.799 Y162.791 E11.46022
G1 X169.513 Y163.648 E11.49027
G1 X169.152 Y164.476 E11.52031
G1 X168.72 Y165.268 E11.55032
G1 X168.219 Y166.02 E11.58037
G1 X167.653 Y166.724 E11.61042
G1 X167.028 Y167.375 E11.64043
G1 X166.347 Y167.969 E11.67049
G1 X165.616 Y168.5 E11.70054
G1 X164.842 Y168.964 E11.73055
G1 X164.029 Y169.358 E11.7606
G1 X163.185 Y169.678 E11.79062
G1 X162.315 Y169.923 E11.82069
G1 X161.428 Y170.089 E11.8507
G1 X160.277 Y170.187 E11.88912
G1 X159.956 Y170.196 E11.8998
G1 X159.67 Y170.2 E11.90931
G1 X140.575 Y170.199 E12.54442
G1 X139.877 Y170.19 E12.56763
G1 X138.976 Y170.139 E12.59765
G1 X138.082 Y170.007 E12.62771
G1 X137.204 Y169.798 E12.65772
G1 X136.347 Y169.511 E12.68778
G1 X135.52 Y169.15 E12.7178
G1 X134.727 Y168.717 E12.74785
G1 X133.976 Y168.216 E12.77787
G1 X133.272 Y167.65 E12.80792
G1 X132.621 Y167.024 E12.83796
G1 X132.028 Y166.343 E12.86799
G1 X131.498 Y165.612 E12.89802
G1 X131.034 Y164.837 E12.92807
G1 X130.64 Y164.024 E12.95811
G1 X130.32 Y163.18 E12.98814
G1 X130.076 Y162.31 E13.01819
G1 X129.91 Y161.422 E13.04824
G1 X129.813 Y160.267 E13.08679
G1 X129.804 Y159.934 E13.09787
G1 X129.8 Y159.658 E13.10705
G1 X129.801 Y140.536 E13.74305
G1 X129.81 Y139.871 E13.76517
G1 X129.862 Y138.969 E13.79522
G1 X129.994 Y138.076 E13.82524
G1 X130.204 Y137.198 E13.85527
G1 X130.491 Y136.341 E13.88533
G1 X130.853 Y135.514 E13.91535
G1 X131.286 Y134.722 E13.94538
G1 X131.788 Y133.971 E13.97542
G1 X132.355 Y133.267 E14.00549
G1 X132.981 Y132.617 E14.0355
G1 F2700 E9.0355
;MESH:MirroHolder.stl
G0 F6000 X143.713 Y144.37
G0 X142.423 Y143.685
G0 X142.526 Y145.574
G0 X142.869 Y146.385
G0 X143.474 Y147.031
G0 X144.11 Y147.355
G0 X145.14 Y147.698
;TYPE:WALL-INNER
G1 F2700 E14.0355
G1 F1200 X145.496 Y147.656 E14.04742
G1 X146.054 Y147.488 E14.0668
G1 X146.374 Y147.327 E14.07872
G1 X146.842 Y146.976 E14.09818
G1 X147.087 Y146.716 E14.11006
G1 X147.408 Y146.225 E14.12957
G1 X147.547 Y145.899 E14.14136
G1 X147.682 Y145.331 E14.16077
G1 X147.702 Y144.973 E14.1727
G1 X147.632 Y144.392 E14.19216
G1 X147.529 Y144.053 E14.20395
G1 X147.268 Y143.529 E14.22342
G1 X147.053 Y143.242 E14.23535
G1 X146.626 Y142.842 E14.25481
G1 X146.328 Y142.647 E14.26665
G1 X145.79 Y142.415 E14.28614
G1 X145.442 Y142.335 E14.29801
G1 X144.86 Y142.302 E14.3174
G1 X144.504 Y142.344 E14.32933
G1 X143.946 Y142.512 E14.34871
G1 X143.626 Y142.673 E14.36062
G1 X143.158 Y143.024 E14.38008
G1 X142.913 Y143.284 E14.39196
G1 X142.592 Y143.775 E14.41147
G1 X142.453 Y144.101 E14.42326
G1 X142.318 Y144.669 E14.44268
G1 X142.298 Y145.027 E14.4546
G1 X142.368 Y145.608 E14.47407
G1 X142.471 Y145.947 E14.48585
G1 X142.732 Y146.471 E14.50532
G1 X142.947 Y146.758 E14.51725
G1 X143.374 Y147.158 E14.53671
G1 X143.672 Y147.353 E14.54855
G1 X144.21 Y147.585 E14.56804
G1 X144.558 Y147.665 E14.57992
G1 X145.14 Y147.698 E14.59931
G0 F6000 X145.128 Y147.297
;TYPE:WALL-OUTER
G1 F1200 X145.414 Y147.263 E14.60889
G1 X145.906 Y147.115 E14.62597
G1 X146.163 Y146.986 E14.63554
G1 X146.575 Y146.677 E14.65267
G1 X146.772 Y146.468 E14.66222
G1 X147.054 Y146.036 E14.67938
G1 X147.166 Y145.773 E14.68889
G1 X147.285 Y145.273 E14.70598
G1 X147.301 Y144.986 E14.71554
G1 X147.239 Y144.475 E14.73266
G1 X147.156 Y144.201 E14.74218
G1 X146.926 Y143.74 E14.75932
G1 X146.754 Y143.51 E14.76887
G1 X146.378 Y143.158 E14.786
G1 X146.138 Y143.001 E14.79554
G1 X145.665 Y142.797 E14.81267
G1 X145.385 Y142.732 E14.82223
G1 X144.872 Y142.703 E14.83932
G1 X144.586 Y142.737 E14.8489
G1 X144.094 Y142.885 E14.86599
G1 X143.837 Y143.014 E14.87556
G1 X143.425 Y143.323 E14.89268
G1 X143.228 Y143.532 E14.90224
G1 X142.946 Y143.964 E14.9194
G1 X142.834 Y144.227 E14.9289
G1 X142.715 Y144.727 E14.946
G1 X142.699 Y145.014 E14.95556
G1 X142.761 Y145.525 E14.97268
G1 X142.844 Y145.799 E14.9822
G1 X143.074 Y146.26 E14.99934
G1 X143.246 Y146.49 E15.00889
G1 X143.622 Y146.842 E15.02602
G1 X143.862 Y146.999 E15.03556
G1 X144.335 Y147.203 E15.05269
G1 X144.615 Y147.268 E15.06225
G1 X145.128 Y147.297 E15.07934
G0 F6000 X145.141 Y147.736
G1 F2700 E10.07934
G0 F6000 X146.125 Y147.666
G0 X145.585 Y146.308
G0 X153.91 Y154.067
G0 X152.762 Y153.166
G0 X152.459 Y155.022
G0 X152.62 Y155.887
G0 X153.067 Y156.65
G0 X153.749 Y157.211
G0 X154.22 Y157.377
G0 X155.14 Y157.698
;TYPE:WALL-INNER
G1 F2700 E15.07934
G1 F1200 X155.496 Y157.656 E15.09126
G1 X156.054 Y157.488 E15.11065
G1 X156.374 Y157.327 E15.12256
G1 X156.842 Y156.976 E15.14202
G1 X157.087 Y156.716 E15.1539
G1 X157.408 Y156.225 E15.17341
G1 X157.547 Y155.899 E15.1852
G1 X157.682 Y155.331 E15.20462
G1 X157.702 Y154.973 E15.21654
G1 X157.632 Y154.392 E15.23601
G1 X157.529 Y154.053 E15.24779
G1 X157.268 Y153.529 E15.26726
G1 X157.053 Y153.242 E15.27919
G1 X156.626 Y152.842 E15.29865
G1 X156.328 Y152.647 E15.31049
G1 X155.79 Y152.415 E15.32998
G1 X155.442 Y152.335 E15.34186
G1 X154.86 Y152.302 E15.36124
G1 X154.504 Y152.344 E15.37317
G1 X153.946 Y152.512 E15.39255
G1 X153.626 Y152.673 E15.40446
G1 X153.158 Y153.024 E15.42392
G1 X152.913 Y153.284 E15.4358
G1 X152.592 Y153.775 E15.45531
G1 X152.453 Y154.101 E15.4671
G1 X152.318 Y154.669 E15.48652
G1 X152.298 Y155.027 E15.49845
G1 X152.368 Y155.608 E15.51791
G1 X152.471 Y155.947 E15.52969
G1 X152.732 Y156.471 E15.54916
G1 X152.947 Y156.758 E15.56109
G1 X153.374 Y157.158 E15.58055
G1 X153.672 Y157.353 E15.5924
G1 X154.21 Y157.585 E15.61188
G1 X154.558 Y157.665 E15.62376
G1 X155.14 Y157.698 E15.64315
G0 F6000 X155.128 Y157.297
;TYPE:WALL-OUTER
G1 F1200 X155.414 Y157.263 E15.65273
G1 X155.906 Y157.115 E15.66982
G1 X156.163 Y156.986 E15.67938
G1 X156.575 Y156.677 E15.69651
G1 X156.772 Y156.468 E15.70606
G1 X157.054 Y156.036 E15.72322
G1 X157.166 Y155.773 E15.73273
G1 X157.285 Y155.273 E15.74982
G1 X157.301 Y154.986 E15.75938
G1 X157.239 Y154.475 E15.7765
G1 X157.156 Y154.201 E15.78603
G1 X156.926 Y153.74 E15.80316
G1 X156.754 Y153.51 E15.81271
G1 X156.378 Y153.158 E15.82984
G1 X156.138 Y153.001 E15.83938
G1 X155.665 Y152.797 E15.85652
G1 X155.385 Y152.732 E15.86608
G1 X154.872 Y152.703 E15.88317
G1 X154.586 Y152.737 E15.89274
G1 X154.094 Y152.885 E15.90983
G1 X153.837 Y153.014 E15.9194
G1 X153.425 Y153.323 E15.93653
G1 X153.228 Y153.532 E15.94608
G1 X152.946 Y153.964 E15.96324
G1 X152.834 Y154.227 E15.97275
G1 X152.715 Y154.727 E15.98984
G1 X152.699 Y155.014 E15.9994
G1 X152.761 Y155.525 E16.01652
G1 X152.844 Y155.799 E16.02604
G1 X153.074 Y156.26 E16.04318
G1 X153.246 Y156.49 E16.05273
G1 X153.622 Y156.842 E16.06986
G1 X153.862 Y156.999 E16.0794
G1 X154.335 Y157.203 E16.09653
G1 X154.615 Y157.268 E16.10609
G1 X155.128 Y157.297 E16.12318
G0 F6000 X155.141 Y157.736
G1 F2700 E11.12318
G0 F6000 X156.475 Y157.49
G0 X156.475 Y159.19
G0 X159.4 Y159.4
;TYPE:WALL-INNER
G1 F2700 E16.12318
G1 F1200 X140.6 Y159.4 E16.74847
G1 X140.6 Y140.6 E17.37376
G1 X149.4 Y140.6 E17.66645
G1 X149.4 Y150.6 E17.99905
G1 X159.4 Y150.6 E18.33166
G1 X159.4 Y159.4 E18.62435
G0 F6000 X159.8 Y159.8
;TYPE:WALL-OUTER
G1 F1200 X140.2 Y159.8 E19.27624
G1 X140.2 Y140.2 E19.92814
G1 X149.8 Y140.2 E20.24744
G1 X149.8 Y150.2 E20.58004
G1 X159.8 Y150.2 E20.91264
G1 X159.8 Y159.8 E21.23194
G0 F6000 X159.53 Y159.53
G0 X159.29 Y159.01
G0 X159.01 Y159.01
;TYPE:SKIN
G1 F1200 X140.99 Y159.01 E21.83129
G1 X140.99 Y140.99 E22.43064
G1 X149.01 Y140.99 E22.69738
G1 X149.01 Y150.99 E23.02998
G1 X159.01 Y150.99 E23.36258
G1 X159.01 Y159.01 E23.62933
G1 F2700 E18.62933
G0 F6000 X159.29 Y159.01
G0 X156.916 Y159.19
G0 X156.475 Y157.49
G0 X156.916 Y157.058
G0 X157.103 Y157.268
G1 F2700 E23.62933
G1 F1200 X157.395 Y156.958 E23.6435
G1 X157.753 Y156.41 E23.66527
G1 X157.919 Y156.022 E23.6793
G1 X158.07 Y155.387 E23.70101
G1 X158.094 Y154.961 E23.7152
G1 X158.015 Y154.312 E23.73695
G1 X157.892 Y153.909 E23.75096
G1 X157.601 Y153.324 E23.77269
G1 X157.345 Y152.981 E23.78693
G1 X156.868 Y152.534 E23.80867
G1 X156.513 Y152.302 E23.82278
G1 X155.912 Y152.043 E23.84454
G1 X155.497 Y151.947 E23.85871
G1 X154.848 Y151.91 E23.88033
G1 X154.424 Y151.96 E23.89453
G1 X153.801 Y152.149 E23.91619
