;FLAVOR:Marlin
;TIME:637
;Filament used: 0.642834m
;Layer height: 0.24
;MINX:116.925
;MINY:120.3
;MINZ:0.2
;MAXX:183.075
;MAXY:179.7
;MAXZ:0.92
;Generated with Cura_SteamEngine 4.6.1
M140 S70
M105
M190 S70
M104 S225
M105
M109 S225
M82 ;absolute extrusion mode
M201 X500.00 Y500.00 Z100.00 E5000.00 ;Setup machine max acceleration
M203 X500.00 Y500.00 Z10.00 E50.00 ;Setup machine max feedrate
M204 P500.00 R1000.00 T500.00 ;Setup Print/Retract/Travel acceleration
M205 X8.00 Y8.00 Z0.40 E5.00 ;Setup Jerk
M220 S100 ;Reset Feedrate
M221 S100 ;Reset Flowrate

G28 ;Home

G92 E0 ;Reset Extruder
G1 Z2.0 F3000 ;Move Z Axis up
G1 X10.1 Y20 Z0.28 F5000.0 ;Move to start position
G1 X10.1 Y200.0 Z0.28 F1500.0 E15 ;Draw the first line
G1 X10.4 Y200.0 Z0.28 F5000.0 ;Move to side a little
G1 X10.4 Y20 Z0.28 F1500.0 E30 ;Draw the second line
G92 E0 ;Reset Extruder
G1 Z2.0 F3000 ;Move Z Axis up

G92 E0
G92 E0
G1 F2700 E-5
;LAYER_COUNT:4
;LAYER:0
M107
G0 F6000 X172.212 Y121.111 Z0.2
;TYPE:SKIRT
G1 F2700 E0
G1 F1200 X173.114 Y121.164 E0.03005
G1 X174.007 Y121.296 E0.06008
G1 X174.885 Y121.507 E0.09011
G1 X175.741 Y121.795 E0.12015
G1 X176.568 Y122.157 E0.15018
G1 X177.36 Y122.592 E0.18023
G1 X178.111 Y123.094 E0.21027
G1 X178.814 Y123.661 E0.24031
G1 X179.464 Y124.288 E0.27035
G1 X180.056 Y124.97 E0.30039
G1 X180.586 Y125.701 E0.33042
G1 X181.048 Y126.477 E0.36046
G1 X181.441 Y127.29 E0.39049
G1 X181.759 Y128.135 E0.42052
G1 X182.002 Y129.005 E0.45056
G1 X182.167 Y129.893 E0.4806
G1 X182.262 Y131.023 E0.51832
G1 X182.275 Y131.63 E0.53851
G1 X182.274 Y168.09 E1.75118
G1 X182.265 Y168.817 E1.77536
G1 X182.214 Y169.719 E1.80541
G1 X182.083 Y170.613 E1.83546
G1 X181.874 Y171.491 E1.86548
G1 X181.588 Y172.348 E1.89553
G1 X181.227 Y173.176 E1.92557
G1 X180.795 Y173.968 E1.95558
G1 X180.294 Y174.72 E1.98563
G1 X179.728 Y175.424 E2.01568
G1 X179.103 Y176.075 E2.04569
G1 X178.422 Y176.669 E2.07575
G1 X177.691 Y177.2 E2.1058
G1 X176.917 Y177.664 E2.13581
G1 X176.104 Y178.058 E2.16586
G1 X175.26 Y178.378 E2.19588
G1 X174.39 Y178.623 E2.22595
G1 X173.503 Y178.789 E2.25596
G1 X172.352 Y178.887 E2.29438
G1 X171.745 Y178.9 E2.31457
G1 X128.5 Y178.899 E3.75291
G1 X127.802 Y178.89 E3.77613
G1 X126.901 Y178.839 E3.80614
G1 X126.007 Y178.707 E3.8362
G1 X125.129 Y178.498 E3.86622
G1 X124.272 Y178.211 E3.89628
G1 X123.445 Y177.85 E3.92629
G1 X122.652 Y177.417 E3.95634
G1 X121.901 Y176.916 E3.98637
G1 X121.197 Y176.35 E4.01641
G1 X120.546 Y175.724 E4.04645
G1 X119.953 Y175.043 E4.07648
G1 X119.423 Y174.312 E4.10651
G1 X118.959 Y173.537 E4.13656
G1 X118.565 Y172.724 E4.16661
G1 X118.245 Y171.88 E4.19663
G1 X118.001 Y171.01 E4.22668
G1 X117.835 Y170.122 E4.25673
G1 X117.738 Y168.967 E4.29528
G1 X117.725 Y168.358 E4.31554
G1 X117.726 Y131.836 E5.53026
G1 X117.735 Y131.171 E5.55238
G1 X117.787 Y130.269 E5.58244
G1 X117.919 Y129.376 E5.61246
G1 X118.129 Y128.498 E5.64249
G1 X118.416 Y127.641 E5.67255
G1 X118.778 Y126.814 E5.70257
G1 X119.211 Y126.022 E5.73259
G1 X119.713 Y125.271 E5.76264
G1 X120.28 Y124.567 E5.7927
G1 X120.906 Y123.917 E5.82272
G1 X121.587 Y123.324 E5.85275
G1 X122.319 Y122.794 E5.88281
G1 X123.094 Y122.331 E5.91284
G1 X123.907 Y121.938 E5.94287
G1 X124.752 Y121.618 E5.97292
G1 X125.621 Y121.375 E6.00293
G1 X126.509 Y121.209 E6.03298
G1 X127.648 Y121.113 E6.071
G1 X128.255 Y121.1 E6.09119
G1 X171.514 Y121.101 E7.52999
G1 X172.212 Y121.111 E7.55321
G0 F6000 X172.218 Y120.711
G1 F1200 X173.137 Y120.764 E7.58383
G1 X174.048 Y120.897 E7.61445
G1 X174.944 Y121.108 E7.64506
G1 X175.818 Y121.396 E7.67567
G1 X176.665 Y121.759 E7.70632
G1 X177.476 Y122.194 E7.73693
G1 X178.246 Y122.698 E7.76754
G1 X178.97 Y123.267 E7.79817
G1 X179.642 Y123.897 E7.8288
G1 X180.257 Y124.582 E7.85942
G1 X180.81 Y125.318 E7.89004
G1 X181.297 Y126.099 E7.92065
G1 X181.714 Y126.92 E7.95128
G1 X182.059 Y127.774 E7.98191
G1 X182.328 Y128.654 E8.01252
G1 X182.52 Y129.555 E8.04316
G1 X182.633 Y130.468 E8.07376
G1 X182.662 Y131.012 E8.09188
G1 X182.675 Y131.63 E8.11244
G1 X182.674 Y168.095 E9.32527
G1 X182.665 Y168.822 E9.34945
G1 X182.614 Y169.741 E9.38006
G1 X182.483 Y170.653 E9.41071
G1 X182.273 Y171.549 E9.44132
G1 X181.987 Y172.424 E9.47193
G1 X181.626 Y173.271 E9.50256
G1 X181.192 Y174.083 E9.53318
G1 X180.69 Y174.855 E9.56381
G1 X180.122 Y175.58 E9.59444
G1 X179.494 Y176.253 E9.62506
G1 X178.81 Y176.869 E9.65567
G1 X178.075 Y177.423 E9.68629
G1 X177.295 Y177.912 E9.71691
G1 X176.475 Y178.331 E9.74753
G1 X175.622 Y178.677 E9.77815
G1 X174.742 Y178.948 E9.80877
G1 X173.842 Y179.141 E9.83939
G1 X172.928 Y179.256 E9.87003
G1 X172.363 Y179.287 E9.88885
G1 X171.745 Y179.3 E9.90941
G1 X128.495 Y179.299 E11.34791
G1 X127.797 Y179.29 E11.37113
G1 X126.878 Y179.238 E11.40174
G1 X125.967 Y179.107 E11.43235
G1 X125.071 Y178.897 E11.46296
G1 X124.196 Y178.61 E11.49359
G1 X123.349 Y178.248 E11.52423
G1 X122.537 Y177.814 E11.55485
G1 X121.766 Y177.312 E11.58545
G1 X121.041 Y176.744 E11.61608
G1 X120.368 Y176.115 E11.64672
G1 X119.753 Y175.431 E11.67731
G1 X119.199 Y174.696 E11.70793
G1 X118.711 Y173.915 E11.73856
G1 X118.292 Y173.095 E11.76918
G1 X117.946 Y172.242 E11.7998
G1 X117.676 Y171.362 E11.83042
G1 X117.483 Y170.461 E11.86106
G1 X117.369 Y169.548 E11.89167
G1 X117.338 Y168.977 E11.91068
G1 X117.325 Y168.358 E11.93128
G1 X117.326 Y131.831 E13.14617
G1 X117.335 Y131.166 E13.16829
G1 X117.387 Y130.246 E13.19894
G1 X117.519 Y129.335 E13.22955
G1 X117.73 Y128.439 E13.26017
G1 X118.017 Y127.564 E13.2908
G1 X118.38 Y126.718 E13.32142
G1 X118.814 Y125.906 E13.35204
G1 X119.317 Y125.135 E13.38266
G1 X119.886 Y124.411 E13.41329
G1 X120.514 Y123.739 E13.44388
G1 X121.199 Y123.123 E13.47452
G1 X121.935 Y122.57 E13.50514
G1 X122.716 Y122.082 E13.53577
G1 X123.536 Y121.664 E13.56638
G1 X124.39 Y121.319 E13.59701
G1 X125.27 Y121.049 E13.62763
G1 X126.17 Y120.857 E13.65824
G1 X127.084 Y120.743 E13.68887
G1 X127.637 Y120.713 E13.70729
G1 X128.255 Y120.7 E13.72785
G1 X171.52 Y120.701 E15.16685
G1 X172.218 Y120.711 E15.19007
G0 F6000 X172.224 Y120.311
G1 F1200 X173.16 Y120.365 E15.22125
G1 X174.088 Y120.497 E15.25243
G1 X175.002 Y120.709 E15.28364
G1 X175.894 Y120.998 E15.31482
G1 X176.759 Y121.361 E15.34602
G1 X177.589 Y121.797 E15.37721
G1 X178.38 Y122.302 E15.40842
G1 X179.124 Y122.873 E15.43961
G1 X179.817 Y123.505 E15.47081
G1 X180.454 Y124.193 E15.50199
G1 X181.029 Y124.934 E15.53319
G1 X181.54 Y125.72 E15.56437
G1 X181.982 Y126.548 E15.59559
G1 X182.351 Y127.41 E15.62677
G1 X182.646 Y128.3 E15.65796
G1 X182.864 Y129.212 E15.68915
G1 X183.004 Y130.14 E15.72036
G1 X183.062 Y131.001 E15.74906
G1 X183.075 Y131.63 E15.76999
G1 X183.074 Y168.1 E16.98299
G1 X183.065 Y168.827 E17.00717
G1 X183.014 Y169.764 E17.03838
G1 X182.882 Y170.692 E17.06955
G1 X182.673 Y171.606 E17.10074
G1 X182.386 Y172.499 E17.13194
G1 X182.024 Y173.365 E17.16316
G1 X181.59 Y174.196 E17.19434
G1 X181.086 Y174.987 E17.22553
G1 X180.517 Y175.732 E17.25671
G1 X179.886 Y176.427 E17.28793
G1 X179.199 Y177.065 E17.31912
G1 X178.46 Y177.642 E17.3503
G1 X177.674 Y178.154 E17.3815
G1 X176.848 Y178.597 E17.41267
G1 X175.986 Y178.969 E17.4439
G1 X175.097 Y179.265 E17.47507
G1 X174.185 Y179.485 E17.50627
G1 X173.258 Y179.626 E17.53746
G1 X172.374 Y179.687 E17.56693
G1 X171.745 Y179.7 E17.58785
G1 X128.49 Y179.699 E19.02652
G1 X127.792 Y179.69 E19.04974
G1 X126.856 Y179.638 E19.08092
G1 X125.927 Y179.506 E19.11213
G1 X125.013 Y179.296 E19.14332
G1 X124.12 Y179.009 E19.17451
G1 X123.255 Y178.646 E19.20572
G1 X122.424 Y178.212 E19.2369
G1 X121.633 Y177.708 E19.26809
G1 X120.888 Y177.138 E19.29929
G1 X120.194 Y176.507 E19.33049
G1 X119.557 Y175.82 E19.36165
G1 X118.98 Y175.08 E19.39286
G1 X118.468 Y174.294 E19.42406
G1 X118.025 Y173.467 E19.45526
G1 X117.654 Y172.606 E19.48645
G1 X117.358 Y171.716 E19.51764
G1 X117.139 Y170.804 E19.54884
G1 X116.998 Y169.877 E19.58002
G1 X116.938 Y168.988 E19.60966
G1 X116.925 Y168.358 E19.63062
G1 X116.926 Y131.825 E20.84571
G1 X116.935 Y131.16 E20.86783
G1 X116.988 Y130.224 E20.89901
G1 X117.12 Y129.295 E20.93022
G1 X117.331 Y128.381 E20.96142
G1 X117.619 Y127.489 E20.9926
G1 X117.982 Y126.624 E21.0238
G1 X118.417 Y125.793 E21.05499
G1 X118.921 Y125.003 E21.08616
G1 X119.491 Y124.258 E21.11736
G1 X120.123 Y123.564 E21.14858
G1 X120.811 Y122.927 E21.17976
G1 X121.551 Y122.351 E21.21095
G1 X122.337 Y121.839 E21.24215
G1 X123.164 Y121.397 E21.27334
G1 X124.026 Y121.027 E21.30454
G1 X124.916 Y120.731 E21.33574
G1 X125.828 Y120.513 E21.36693
G1 X126.755 Y120.372 E21.39811
G1 X127.626 Y120.313 E21.42715
G1 X128.255 Y120.3 E21.44807
G1 X171.526 Y120.301 E22.88727
G1 X172.224 Y120.311 E22.91049
G1 F2700 E17.91049
;MESH:Case4LEDString_Top.stl
G0 F6000 X143.577 Y163.165
G0 X143.577 Y161.73
G0 X141.822 Y162.072
G0 X141.65 Y165.7
;TYPE:WALL-INNER
G1 F2700 E22.91049
G1 F1200 X158.35 Y165.7 E23.46594
G1 X158.35 Y161.9 E23.59232
G1 X141.65 Y161.9 E24.14777
G1 X141.65 Y165.7 E24.27416
G0 F6000 X142.05 Y165.3
;TYPE:WALL-OUTER
G1 F1200 X157.95 Y165.3 E24.80299
G1 X157.95 Y162.3 E24.90277
G1 X142.05 Y162.3 E25.43161
G1 X142.05 Y165.3 E25.53139
G1 F2700 E20.53139
G0 F6000 X141.75 Y165.3
G0 X141.454 Y165.896
G0 X141.454 Y167.89
G0 X128.525 Y168.1
;TYPE:WALL-INNER
G1 F2700 E25.53139
G1 F1200 X128.525 Y131.9 E26.73541
G1 X171.475 Y131.9 E28.16393
G1 X171.475 Y168.1 E29.36795
G1 X128.525 Y168.1 E30.79647
G0 F6000 X128.125 Y168.5
;TYPE:WALL-OUTER
G1 F1200 X128.125 Y131.5 E32.02709
G1 X171.875 Y131.5 E33.48222
G1 X171.875 Y168.5 E34.71285
G1 X128.125 Y168.5 E36.16798
G0 F6000 X128.395 Y168.23
G0 X128.635 Y167.71
G0 X128.915 Y167.71
;TYPE:SKIN
G1 F1200 X128.915 Y132.29 E37.34605
G1 X171.085 Y132.29 E38.74863
G1 X171.085 Y167.71 E39.92671
G1 X128.915 Y167.71 E41.32929
G1 F2700 E36.32929
G0 F6000 X128.635 Y167.71
G0 X141.54 Y167.89
G0 X141.54 Y165.89
G0 X141.26 Y166.09
G1 F2700 E41.32929
G1 F1200 X158.74 Y166.09 E41.91068
G1 X158.74 Y161.51 E42.06301
G1 X141.26 Y161.51 E42.64439
G1 X141.26 Y166.09 E42.79673
G1 F2700 E37.79673
G0 F6000 X141.54 Y165.84
G0 X141.454 Y165.896
G0 X141.454 Y167.89
G0 X129.648 Y167.99
G0 X129.648 Y167.548
G1 F2700 E42.79673
G1 F1200 X129.075 Y166.976 E42.82365
G0 F6000 X129.075 Y166.41
G1 F1200 X130.213 Y167.548 E42.87718
G0 F6000 X130.779 Y167.548
G1 F1200 X129.075 Y165.844 E42.95733
G0 F6000 X129.075 Y165.279
G1 F1200 X131.345 Y167.548 E43.06408
G0 F6000 X131.91 Y167.548
G1 F1200 X129.075 Y164.713 E43.19743
G0 F6000 X129.075 Y164.147
G1 F1200 X132.476 Y167.548 E43.35741
G0 F6000 X133.042 Y167.548
G1 F1200 X129.075 Y163.582 E43.54398
G0 F6000 X129.075 Y163.016
G1 F1200 X133.607 Y167.548 E43.75715
G0 F6000 X134.173 Y167.548
G1 F1200 X129.075 Y162.45 E43.99694
G0 F6000 X129.075 Y161.885
G1 F1200 X134.739 Y167.548 E44.26334
G0 F6000 X135.304 Y167.548
G1 F1200 X129.075 Y161.319 E44.55633
G0 F6000 X129.075 Y160.753
G1 F1200 X135.87 Y167.548 E44.87595
G0 F6000 X136.436 Y167.548
G1 F1200 X129.075 Y160.187 E45.22219
G0 F6000 X129.075 Y159.622
G1 F1200 X137.001 Y167.548 E45.595
G0 F6000 X137.567 Y167.548
G1 F1200 X129.075 Y159.056 E45.99444
G0 F6000 X129.075 Y158.49
G1 F1200 X138.133 Y167.548 E46.4205
G0 F6000 X138.698 Y167.548
G1 F1200 X129.075 Y157.925 E46.87313
G0 F6000 X129.075 Y157.359
G1 F1200 X139.264 Y167.548 E47.35239
G0 F6000 X139.83 Y167.548
G1 F1200 X129.075 Y156.793 E47.85828
G0 F6000 X129.075 Y156.228
G1 F1200 X140.396 Y167.548 E48.39076
G0 F6000 X140.961 Y167.548
G1 F1200 X129.075 Y155.662 E48.94984
G0 F6000 X129.075 Y155.096
G1 F1200 X141.527 Y167.548 E49.53554
G0 F6000 X142.093 Y167.548
G1 F1200 X129.075 Y154.531 E50.14785
G0 F6000 X129.075 Y153.965
G1 F1200 X141.1 Y165.99 E50.71347
G0 F6000 X141.359 Y166.249
G1 F1200 X142.658 Y167.548 E50.77457
G0 F6000 X143.224 Y167.548
G1 F1200 X141.924 Y166.249 E50.83569
G0 F6000 X142.49 Y166.249
G1 F1200 X143.79 Y167.548 E50.89682
G0 F6000 X144.355 Y167.548
G1 F1200 X143.056 Y166.249 E50.95792
G0 F6000 X143.621 Y166.249
G1 F1200 X144.921 Y167.548 E51.01904
G0 F6000 X145.487 Y167.548
G1 F1200 X144.187 Y166.249 E51.08017
G0 F6000 X144.753 Y166.249
G1 F1200 X146.052 Y167.548 E51.14127
G0 F6000 X146.618 Y167.548
G1 F1200 X145.318 Y166.249 E51.20239
G0 F6000 X145.884 Y166.249
G1 F1200 X147.184 Y167.548 E51.26352
G0 F6000 X147.749 Y167.548
G1 F1200 X146.45 Y166.249 E51.32462
G0 F6000 X147.015 Y166.249
G1 F1200 X148.315 Y167.548 E51.38574
G0 F6000 X148.881 Y167.548
G1 F1200 X147.581 Y166.249 E51.44687
G0 F6000 X148.147 Y166.249
G1 F1200 X149.447 Y167.548 E51.50799
G0 F6000 X150.012 Y167.548
G1 F1200 X148.713 Y166.249 E51.56909
G0 F6000 X149.278 Y166.249
G1 F1200 X150.578 Y167.548 E51.63022
G0 F6000 X151.144 Y167.548
G1 F1200 X149.844 Y166.249 E51.69134
G0 F6000 X150.41 Y166.249
G1 F1200 X151.709 Y167.548 E51.75244
G0 F6000 X152.275 Y167.548
G1 F1200 X150.975 Y166.249 E51.81356
G0 F6000 X151.541 Y166.249
G1 F1200 X152.841 Y167.548 E51.87469
G0 F6000 X153.406 Y167.548
G1 F1200 X152.107 Y166.249 E51.93579
G0 F6000 X152.672 Y166.249
G1 F1200 X153.972 Y167.548 E51.99691
G0 F6000 X154.538 Y167.548
G1 F1200 X153.238 Y166.249 E52.05804
G0 F6000 X153.804 Y166.249
G1 F1200 X155.103 Y167.548 E52.11914
G0 F6000 X155.669 Y167.548
G1 F1200 X154.369 Y166.249 E52.18026
G0 F6000 X154.935 Y166.249
G1 F1200 X156.235 Y167.548 E52.24139
G0 F6000 X156.8 Y167.548
G1 F1200 X155.501 Y166.249 E52.30249
G0 F6000 X156.066 Y166.249
G1 F1200 X157.366 Y167.548 E52.36361
G0 F6000 X157.932 Y167.548
G1 F1200 X156.632 Y166.249 E52.42474
G0 F6000 X157.198 Y166.249
G1 F1200 X158.497 Y167.548 E52.48584
G0 F6000 X159.063 Y167.548
G1 F1200 X157.764 Y166.249 E52.54694
G0 F6000 X158.329 Y166.249
G1 F1200 X159.629 Y167.548 E52.60807
G0 F6000 X160.195 Y167.548
G1 F1200 X158.895 Y166.249 E52.66919
G0 F6000 X158.899 Y165.687
G1 F1200 X160.76 Y167.548 E52.75673
G0 F6000 X161.326 Y167.548
G1 F1200 X158.899 Y165.122 E52.87086
G0 F6000 X158.899 Y164.556
G1 F1200 X161.892 Y167.548 E53.01162
G0 F6000 X162.457 Y167.548
G1 F1200 X158.899 Y163.99 E53.17898
G0 F6000 X158.899 Y163.425
G1 F1200 X163.023 Y167.548 E53.37293
G0 F6000 X163.589 Y167.548
G1 F1200 X158.899 Y162.859 E53.59351
G0 F6000 X158.899 Y162.293
G1 F1200 X164.154 Y167.548 E53.84069
G0 F6000 X164.72 Y167.548
G1 F1200 X158.899 Y161.728 E54.11447
G0 F6000 X158.52 Y161.349
G1 F1200 X129.621 Y132.45 E55.47379
G0 F6000 X129.075 Y132.469
G1 F1200 X157.954 Y161.349 E56.83219
G0 F6000 X157.389 Y161.349
G1 F1200 X129.075 Y133.035 E58.164
G0 F6000 X129.075 Y133.6
G1 F1200 X156.823 Y161.349 E59.4692
G0 F6000 X156.257 Y161.349
G1 F1200 X129.075 Y134.166 E60.74778
G0 F6000 X129.075 Y134.732
G1 F1200 X155.692 Y161.349 E61.99977
G0 F6000 X155.126 Y161.349
G1 F1200 X129.075 Y135.297 E63.22515
G0 F6000 X129.075 Y135.863
G1 F1200 X154.56 Y161.349 E64.42391
G0 F6000 X153.995 Y161.349
G1 F1200 X129.075 Y136.429 E65.59607
G0 F6000 X129.075 Y136.994
G1 F1200 X153.429 Y161.349 E66.74163
G0 F6000 X152.863 Y161.349
G1 F1200 X129.075 Y137.56 E67.86057
G0 F6000 X129.075 Y138.126
G1 F1200 X152.298 Y161.349 E68.95291
G0 F6000 X151.732 Y161.349
G1 F1200 X129.075 Y138.691 E70.01865
G0 F6000 X129.075 Y139.257
G1 F1200 X151.166 Y161.349 E71.05776
G0 F6000 X150.601 Y161.349
G1 F1200 X129.075 Y139.823 E72.07028
G0 F6000 X129.075 Y140.388
G1 F1200 X150.035 Y161.349 E73.0562
G0 F6000 X149.469 Y161.349
G1 F1200 X129.075 Y140.954 E74.01549
G0 F6000 X129.075 Y141.52
G1 F1200 X148.903 Y161.349 E74.94816
G0 F6000 X148.338 Y161.349
G1 F1200 X129.075 Y142.086 E75.85424
G0 F6000 X129.075 Y142.651
G1 F1200 X147.772 Y161.349 E76.73371
G0 F6000 X147.206 Y161.349
G1 F1200 X129.075 Y143.217 E77.58656
G0 F6000 X129.075 Y143.783
G1 F1200 X146.641 Y161.349 E78.41281
G0 F6000 X146.075 Y161.349
G1 F1200 X129.075 Y144.348 E79.21246
G0 F6000 X129.075 Y144.914
G1 F1200 X145.509 Y161.349 E79.98549
G0 F6000 X144.944 Y161.349
G1 F1200 X129.075 Y145.48 E80.73192
G0 F6000 X129.075 Y146.045
G1 F1200 X144.378 Y161.349 E81.45175
G0 F6000 X143.812 Y161.349
G1 F1200 X129.075 Y146.611 E82.14496
G0 F6000 X129.075 Y147.177
G1 F1200 X143.247 Y161.349 E82.81156
G0 F6000 X142.681 Y161.349
G1 F1200 X129.075 Y147.742 E83.45157
G0 F6000 X129.075 Y148.308
G1 F1200 X142.115 Y161.349 E84.06496
