;FLAVOR:Marlin
;TIME:631
;Filament used: 0.568132m
;Layer height: 0.24
;MINX:122.036
;MINY:122.036
;MINZ:0.2
;MAXX:177.964
;MAXY:177.964
;MAXZ:2.84
;Generated with Cura_SteamEngine 4.6.1
M140 S70
M105
M190 S70
M104 S225
M105
M109 S225
M82 ;absolute extrusion mode
M201 X500.00 Y500.00 Z100.00 E5000.00 ;Setup machine max acceleration
M203 X500.00 Y500.00 Z10.00 E50.00 ;Setup machine max feedrate
M204 P500.00 R1000.00 T500.00 ;Setup Print/Retract/Travel acceleration
M205 X8.00 Y8.00 Z0.40 E5.00 ;Setup Jerk
M220 S100 ;Reset Feedrate
M221 S100 ;Reset Flowrate

G28 ;Home

G92 E0 ;Reset Extruder
G1 Z2.0 F3000 ;Move Z Axis up
G1 X10.1 Y20 Z0.28 F5000.0 ;Move to start position
G1 X10.1 Y200.0 Z0.28 F1500.0 E15 ;Draw the first line
G1 X10.4 Y200.0 Z0.28 F5000.0 ;Move to side a little
G1 X10.4 Y20 Z0.28 F1500.0 E30 ;Draw the second line
G92 E0 ;Reset Extruder
G1 Z2.0 F3000 ;Move Z Axis up

G92 E0
G92 E0
G1 F2700 E-5
;LAYER_COUNT:12
;LAYER:0
M107
G0 F6000 X148.838 Y122.847 Z0.2
;TYPE:SKIRT
G1 F2700 E0
G1 F1200 X149.74 Y122.9 E0.03005
G1 X150.633 Y123.032 E0.06008
G1 X151.511 Y123.243 E0.09011
G1 X152.367 Y123.531 E0.12015
G1 X153.194 Y123.893 E0.15018
G1 X153.986 Y124.328 E0.18023
G1 X154.737 Y124.83 E0.21027
G1 X155.44 Y125.397 E0.24031
G1 X155.833 Y125.763 E0.25817
G1 X156.793 Y126.704 E0.30289
G1 X158.401 Y128.254 E0.37717
G1 X160.302 Y129.991 E0.46282
G1 X162.183 Y131.614 E0.54545
G1 X164.657 Y133.619 E0.65136
G1 X165.364 Y134.229 E0.68242
G1 X166.282 Y135.22 E0.72735
G1 X167.029 Y136.144 E0.76687
G1 X167.379 Y136.591 E0.78575
G1 X168.997 Y138.537 E0.86993
G1 X170.686 Y140.455 E0.95493
G1 X172.391 Y142.287 E1.03817
G1 X174.38 Y144.312 E1.13257
G1 X174.969 Y144.997 E1.16262
G1 X175.496 Y145.73 E1.19265
G1 X175.955 Y146.508 E1.22269
G1 X176.344 Y147.323 E1.25273
G1 X176.66 Y148.169 E1.28277
G1 X176.899 Y149.04 E1.31281
G1 X177.061 Y149.928 E1.34283
G1 X177.149 Y150.99 E1.37827
G1 X177.164 Y151.629 E1.39953
G1 X177.163 Y156.738 E1.56946
G1 X177.153 Y157.436 E1.59267
G1 X177.1 Y158.338 E1.62273
G1 X176.968 Y159.231 E1.65275
G1 X176.757 Y160.109 E1.68278
G1 X176.469 Y160.965 E1.71282
G1 X176.107 Y161.792 E1.74285
G1 X175.672 Y162.584 E1.7729
G1 X175.17 Y163.335 E1.80295
G1 X174.603 Y164.038 E1.83299
G1 X174.241 Y164.427 E1.85066
G1 X173.239 Y165.45 E1.89829
G1 X171.764 Y166.979 E1.96895
G1 X170.011 Y168.898 E2.0554
G1 X168.384 Y170.783 E2.13822
G1 X166.316 Y173.336 E2.24749
G1 X165.72 Y174.015 E2.27754
G1 X165.067 Y174.638 E2.30756
G1 X164.361 Y175.202 E2.33761
G1 X163.608 Y175.7 E2.36764
G1 X162.814 Y176.13 E2.39767
G1 X161.985 Y176.489 E2.42772
G1 X161.127 Y176.772 E2.45777
G1 X160.248 Y176.978 E2.4878
G1 X159.354 Y177.106 E2.51784
G1 X158.643 Y177.151 E2.54153
G1 X158.036 Y177.164 E2.56172
G1 X133.611 Y177.163 E3.3741
G1 X132.913 Y177.154 E3.39732
G1 X132.012 Y177.103 E3.42734
G1 X131.118 Y176.971 E3.45739
G1 X130.24 Y176.762 E3.48741
G1 X129.383 Y176.475 E3.51747
G1 X128.556 Y176.114 E3.54748
G1 X127.763 Y175.681 E3.57754
G1 X127.012 Y175.18 E3.60756
G1 X126.308 Y174.614 E3.63761
G1 X125.657 Y173.988 E3.66764
G1 X125.064 Y173.307 E3.69768
G1 X124.534 Y172.576 E3.72771
G1 X124.07 Y171.801 E3.75775
G1 X123.676 Y170.988 E3.7878
G1 X123.356 Y170.144 E3.81782
G1 X123.112 Y169.274 E3.84788
G1 X122.946 Y168.386 E3.87792
G1 X122.849 Y167.231 E3.91647
G1 X122.836 Y166.622 E3.93673
G1 X122.837 Y142.153 E4.75058
G1 X122.847 Y141.489 E4.77266
G1 X122.901 Y140.588 E4.80268
G1 X123.034 Y139.695 E4.83271
G1 X123.245 Y138.817 E4.86275
G1 X123.534 Y137.961 E4.8928
G1 X123.897 Y137.134 E4.92284
G1 X124.331 Y136.342 E4.95287
G1 X124.835 Y135.592 E4.98293
G1 X125.402 Y134.89 E5.01294
G1 X126.029 Y134.24 E5.04298
G1 X126.612 Y133.728 E5.06879
G1 X127.546 Y132.971 E5.10877
G1 X127.993 Y132.621 E5.12766
G1 X129.939 Y131.003 E5.21183
G1 X131.838 Y129.331 E5.29598
G1 X133.707 Y127.592 E5.38089
G1 X135.435 Y125.886 E5.46166
G1 X135.881 Y125.47 E5.48194
G1 X136.578 Y124.896 E5.51197
G1 X137.323 Y124.385 E5.54202
G1 X138.11 Y123.942 E5.57206
G1 X138.933 Y123.571 E5.60208
G1 X139.786 Y123.274 E5.63213
G1 X140.662 Y123.053 E5.66217
G1 X141.554 Y122.911 E5.69222
G1 X142.424 Y122.849 E5.72123
G1 X143.031 Y122.836 E5.74142
G1 X148.14 Y122.837 E5.91135
G1 X148.838 Y122.847 E5.93456
G0 F6000 X148.844 Y122.447
G1 F1200 X149.763 Y122.5 E5.96518
G1 X150.674 Y122.633 E5.9958
G1 X151.57 Y122.844 E6.02642
G1 X152.444 Y123.132 E6.05702
G1 X153.291 Y123.495 E6.08767
G1 X154.102 Y123.93 E6.11828
G1 X154.872 Y124.434 E6.14889
G1 X155.596 Y125.003 E6.17952
G1 X156.113 Y125.477 E6.20285
G1 X157.071 Y126.416 E6.24746
G1 X158.704 Y127.989 E6.32288
G1 X160.549 Y129.676 E6.40603
G1 X162.446 Y131.313 E6.48937
G1 X164.929 Y133.324 E6.59564
G1 X165.626 Y133.926 E6.62627
G1 X166.268 Y134.586 E6.6569
G1 X166.593 Y134.968 E6.67358
G1 X167.344 Y135.897 E6.71331
G1 X167.703 Y136.355 E6.73267
G1 X169.287 Y138.26 E6.81507
G1 X170.98 Y140.183 E6.90028
G1 X172.686 Y142.016 E6.98357
G1 X174.671 Y144.038 E7.07781
G1 X175.272 Y144.735 E7.10842
G1 X175.811 Y145.482 E7.13906
G1 X176.283 Y146.272 E7.16967
G1 X176.685 Y147.101 E7.20031
G1 X177.013 Y147.961 E7.23092
G1 X177.265 Y148.846 E7.26153
G1 X177.439 Y149.75 E7.29215
G1 X177.549 Y150.978 E7.33316
G1 X177.559 Y151.302 E7.34394
G1 X177.564 Y151.629 E7.35481
G1 X177.563 Y156.744 E7.52494
G1 X177.553 Y157.442 E7.54816
G1 X177.5 Y158.361 E7.57877
G1 X177.367 Y159.272 E7.6094
G1 X177.156 Y160.168 E7.64001
G1 X176.868 Y161.042 E7.67062
G1 X176.505 Y161.889 E7.70127
G1 X176.07 Y162.7 E7.73188
G1 X175.566 Y163.47 E7.76249
G1 X174.997 Y164.194 E7.79311
G1 X174.527 Y164.707 E7.81625
G1 X173.525 Y165.73 E7.86388
G1 X172.047 Y167.263 E7.93471
G1 X170.326 Y169.147 E8.01958
G1 X168.672 Y171.062 E8.10374
G1 X166.628 Y173.586 E8.21176
G1 X166.021 Y174.279 E8.2424
G1 X165.357 Y174.916 E8.27301
G1 X164.639 Y175.493 E8.30364
G1 X163.875 Y176.006 E8.33425
G1 X163.069 Y176.451 E8.36487
G1 X162.227 Y176.824 E8.3955
G1 X161.356 Y177.122 E8.42612
G1 X160.462 Y177.344 E8.45676
G1 X159.553 Y177.487 E8.48737
G1 X158.654 Y177.551 E8.51734
G1 X158.036 Y177.564 E8.5379
G1 X133.606 Y177.563 E9.35045
G1 X132.908 Y177.554 E9.37366
G1 X131.989 Y177.502 E9.40428
G1 X131.078 Y177.371 E9.43489
G1 X130.182 Y177.161 E9.4655
G1 X129.307 Y176.874 E9.49613
G1 X128.46 Y176.512 E9.52676
G1 X127.648 Y176.078 E9.55739
G1 X126.877 Y175.576 E9.58799
G1 X126.152 Y175.008 E9.61862
G1 X125.479 Y174.379 E9.64926
G1 X124.864 Y173.695 E9.67985
G1 X124.31 Y172.96 E9.71046
G1 X123.822 Y172.179 E9.74109
G1 X123.403 Y171.359 E9.77172
G1 X123.057 Y170.506 E9.80234
G1 X122.787 Y169.626 E9.83295
G1 X122.594 Y168.725 E9.8636
G1 X122.48 Y167.812 E9.8942
G1 X122.449 Y167.241 E9.91322
G1 X122.436 Y166.622 E9.93382
G1 X122.437 Y142.147 E10.74786
G1 X122.447 Y141.483 E10.76994
G1 X122.501 Y140.564 E10.80056
G1 X122.634 Y139.653 E10.83118
G1 X122.846 Y138.757 E10.86181
G1 X123.135 Y137.883 E10.89243
G1 X123.499 Y137.037 E10.92306
G1 X123.934 Y136.226 E10.95367
G1 X124.439 Y135.456 E10.98429
G1 X125.008 Y134.733 E11.01489
G1 X125.638 Y134.061 E11.04553
G1 X126.36 Y133.418 E11.07769
G1 X127.299 Y132.656 E11.11791
G1 X127.757 Y132.297 E11.13726
G1 X129.682 Y130.697 E11.22052
G1 X131.566 Y129.037 E11.30403
G1 X133.436 Y127.298 E11.38897
G1 X135.154 Y125.602 E11.46926
G1 X135.613 Y125.173 E11.49016
G1 X136.323 Y124.587 E11.52078
G1 X137.081 Y124.064 E11.55141
G1 X137.882 Y123.61 E11.58203
G1 X138.719 Y123.226 E11.61266
G1 X139.586 Y122.917 E11.64327
G1 X140.476 Y122.683 E11.67388
G1 X141.384 Y122.529 E11.70451
G1 X142.413 Y122.449 E11.73884
G1 X143.031 Y122.436 E11.7594
G1 X148.146 Y122.437 E11.92952
G1 X148.844 Y122.447 E11.95274
G0 F6000 X148.85 Y122.047
G1 F1200 X149.786 Y122.101 E11.98393
G1 X150.714 Y122.233 E12.0151
G1 X151.628 Y122.445 E12.04631
G1 X152.52 Y122.734 E12.07749
G1 X153.385 Y123.097 E12.1087
G1 X154.215 Y123.533 E12.13988
G1 X155.006 Y124.038 E12.17109
G1 X155.75 Y124.609 E12.20228
G1 X156.393 Y125.191 E12.23113
G1 X157.388 Y126.167 E12.27749
G1 X158.969 Y127.69 E12.3505
G1 X160.815 Y129.377 E12.43368
G1 X162.712 Y131.015 E12.51704
G1 X165.177 Y133.01 E12.62251
G1 X165.888 Y133.623 E12.65373
G1 X166.543 Y134.294 E12.68492
G1 X166.903 Y134.716 E12.70337
G1 X167.659 Y135.651 E12.74336
G1 X167.996 Y136.081 E12.76153
G1 X169.596 Y138.006 E12.84479
G1 X171.289 Y139.928 E12.92998
G1 X172.981 Y141.746 E13.01258
G1 X174.962 Y143.764 E13.10663
G1 X175.576 Y144.473 E13.13783
G1 X176.126 Y145.233 E13.16903
G1 X176.61 Y146.036 E13.20022
G1 X177.024 Y146.878 E13.23142
G1 X177.364 Y147.752 E13.26262
G1 X177.629 Y148.651 E13.29379
G1 X177.816 Y149.57 E13.32498
G1 X177.949 Y150.966 E13.37162
G1 X177.959 Y151.29 E13.3824
G1 X177.964 Y151.629 E13.39368
G1 X177.963 Y156.75 E13.564
G1 X177.953 Y157.448 E13.58722
G1 X177.899 Y158.384 E13.61841
G1 X177.767 Y159.312 E13.64958
G1 X177.555 Y160.226 E13.68079
G1 X177.266 Y161.118 E13.71198
G1 X176.903 Y161.983 E13.74318
G1 X176.467 Y162.813 E13.77436
G1 X175.962 Y163.604 E13.80557
G1 X175.391 Y164.348 E13.83677
G1 X174.812 Y164.987 E13.86545
G1 X173.81 Y166.01 E13.91307
G1 X172.329 Y167.546 E13.98404
G1 X170.622 Y169.414 E14.0682
G1 X168.986 Y171.31 E14.1515
G1 X166.94 Y173.837 E14.25964
G1 X166.322 Y174.543 E14.29085
G1 X165.647 Y175.193 E14.32201
G1 X164.919 Y175.784 E14.3532
G1 X164.143 Y176.311 E14.3844
G1 X163.325 Y176.77 E14.4156
G1 X162.471 Y177.157 E14.44678
G1 X161.587 Y177.471 E14.47798
G1 X160.679 Y177.707 E14.50919
G1 X159.755 Y177.866 E14.54037
G1 X158.665 Y177.951 E14.57674
G1 X158.036 Y177.964 E14.59766
G1 X133.601 Y177.963 E15.41037
G1 X132.903 Y177.954 E15.43359
G1 X131.967 Y177.902 E15.46477
G1 X131.038 Y177.77 E15.49598
G1 X130.124 Y177.56 E15.52717
G1 X129.231 Y177.273 E15.55837
G1 X128.366 Y176.91 E15.58957
G1 X127.535 Y176.476 E15.62075
G1 X126.744 Y175.972 E15.65195
G1 X125.999 Y175.402 E15.68314
G1 X125.305 Y174.771 E15.71434
G1 X124.668 Y174.084 E15.7455
G1 X124.091 Y173.344 E15.77671
G1 X123.579 Y172.558 E15.80791
G1 X123.136 Y171.731 E15.83912
G1 X122.765 Y170.87 E15.8703
G1 X122.469 Y169.98 E15.90149
G1 X122.25 Y169.068 E15.93269
G1 X122.109 Y168.141 E15.96388
G1 X122.049 Y167.252 E15.99351
G1 X122.036 Y166.622 E16.01447
G1 X122.037 Y142.141 E16.82871
G1 X122.047 Y141.477 E16.8508
G1 X122.101 Y140.541 E16.88198
G1 X122.235 Y139.613 E16.91317
G1 X122.447 Y138.699 E16.94437
G1 X122.737 Y137.807 E16.97557
G1 X123.101 Y136.943 E17.00675
G1 X123.537 Y136.113 E17.03794
G1 X124.043 Y135.323 E17.06914
G1 X124.614 Y134.579 E17.10033
G1 X125.246 Y133.886 E17.13153
G1 X126.107 Y133.107 E17.17015
G1 X127.053 Y132.341 E17.21063
G1 X127.483 Y132.004 E17.2288
G1 X129.428 Y130.388 E17.31291
G1 X131.311 Y128.729 E17.39638
G1 X133.148 Y127.019 E17.47985
G1 X134.873 Y125.317 E17.56045
G1 X135.345 Y124.876 E17.58194
G1 X136.068 Y124.278 E17.61314
G1 X136.839 Y123.744 E17.64434
G1 X137.653 Y123.278 E17.67553
G1 X138.503 Y122.882 E17.70672
G1 X139.384 Y122.561 E17.73791
G1 X140.289 Y122.315 E17.7691
G1 X141.212 Y122.148 E17.8003
G1 X142.402 Y122.049 E17.84001
G1 X143.031 Y122.036 E17.86094
G1 X148.152 Y122.037 E18.03126
G1 X148.85 Y122.047 E18.05448
G1 F2700 E13.05448
;MESH:FrameHangerBack.stl
G0 F6000 X148.387 Y132.371
G0 X148.387 Y133.35
G0 X148.101 Y135.338
;TYPE:WALL-INNER
G1 F2700 E18.05448
G1 F1200 X148.038 Y135.145 E18.06123
G1 X147.985 Y135.018 E18.06581
G1 X147.874 Y134.798 E18.07401
G1 X147.81 Y134.693 E18.0781
G1 X147.722 Y134.564 E18.08329
G1 X147.705 Y134.543 E18.08419
G1 X147.562 Y134.366 E18.09176
G1 X147.393 Y134.195 E18.09975
G1 X147.198 Y134.035 E18.10814
G1 X147.08 Y133.951 E18.11296
G1 X146.861 Y133.821 E18.12143
G1 X146.63 Y133.716 E18.12987
G1 X146.491 Y133.665 E18.1348
G1 X146.385 Y133.636 E18.13845
G1 X146.491 Y133.636 E18.13856
G1 X146.63 Y133.636 E18.13914
G1 X146.861 Y133.636 E18.14157
G1 X147.08 Y133.636 E18.14602
G1 X147.198 Y133.636 E18.14862
G1 X148.101 Y133.636 E18.17865
G1 X148.101 Y134.536 E18.20859
G1 X148.101 Y134.564 E18.20913
G1 X148.101 Y134.693 E18.21226
G1 X148.101 Y134.798 E18.21361
G1 X148.101 Y135.018 E18.21663
G1 X148.101 Y135.145 E18.21751
G1 X148.101 Y135.338 E18.21794
G0 F6000 X148.101 Y136.732
G1 F1200 X148.101 Y136.935 E18.22469
G1 X148.101 Y137.169 E18.23248
G1 X148.101 Y137.314 E18.2373
G1 X148.101 Y137.508 E18.24375
G1 X148.101 Y137.538 E18.24475
G1 X148.101 Y142.234 E18.40094
G1 X157.766 Y142.234 E18.7224
G1 X157.766 Y151.899 E19.04386
G1 X162.462 Y151.899 E19.20005
G1 X162.513 Y151.899 E19.20174
G1 X162.718 Y151.899 E19.20856
G1 X162.943 Y151.899 E19.21604
G1 X163.08 Y151.899 E19.2206
G1 X163.267 Y151.899 E19.22682
G1 X163.08 Y151.959 E19.22753
G1 X162.943 Y152.015 E19.22883
G1 X162.718 Y152.13 E19.23287
G1 X162.513 Y152.262 E19.23914
G1 X162.473 Y152.293 E19.24075
G1 X162.309 Y152.424 E19.24773
G1 X162.128 Y152.602 E19.25618
G1 X162.022 Y152.723 E19.26153
G1 X161.936 Y152.835 E19.26622
G1 X161.81 Y153.028 E19.27389
G1 X161.694 Y153.251 E19.28225
G1 X161.628 Y153.407 E19.28788
G1 X161.548 Y153.651 E19.29642
G1 X161.495 Y153.904 E19.30502
G1 X161.466 Y154.166 E19.31379
G1 X161.466 Y154.42 E19.32224
G1 X161.475 Y154.536 E19.32611
G1 X161.493 Y154.69 E19.33126
G1 X161.54 Y154.913 E19.33884
G1 X161.579 Y155.053 E19.34368
G1 X161.666 Y155.287 E19.35198
G1 X161.737 Y155.436 E19.35747
G1 X161.849 Y155.633 E19.36501
G1 X161.943 Y155.773 E19.37062
G1 X162.086 Y155.948 E19.37813
G1 X162.177 Y156.047 E19.3826
G1 X162.291 Y156.158 E19.3879
G1 X162.468 Y156.302 E19.39549
G1 X162.475 Y156.307 E19.39577
G1 X162.684 Y156.446 E19.40412
G1 X162.832 Y156.527 E19.40973
G1 X163.065 Y156.632 E19.41823
G1 X163.271 Y156.699 E19.42544
G1 X163.065 Y156.699 E19.42594
G1 X162.832 Y156.699 E19.42813
G1 X162.684 Y156.699 E19.43067
G1 X162.475 Y156.699 E19.43622
G1 X162.466 Y156.699 E19.43652
G1 X157.766 Y156.699 E19.59284
G1 X157.766 Y166.364 E19.9143
G1 X133.636 Y166.364 E20.71687
G1 X133.636 Y142.234 E21.51943
G1 X143.301 Y142.234 E21.84089
G1 X143.301 Y137.537 E21.99712
G1 X143.301 Y137.488 E21.99875
G1 X143.301 Y137.282 E22.0056
G1 X143.301 Y137.055 E22.01315
G1 X143.301 Y136.903 E22.0182
G1 X143.301 Y136.73 E22.02396
G1 X143.355 Y136.903 E22.02455
G1 X143.418 Y137.055 E22.02596
G1 X143.532 Y137.282 E22.03002
G1 X143.665 Y137.488 E22.03635
G1 X143.695 Y137.526 E22.03789
G1 X143.822 Y137.684 E22.04463
G1 X143.928 Y137.799 E22.04983
G1 X144.017 Y137.885 E22.05395
G1 X144.231 Y138.06 E22.06314
G1 X144.448 Y138.2 E22.07173
G1 X144.656 Y138.306 E22.0795
G1 X144.809 Y138.372 E22.08504
G1 X145.054 Y138.452 E22.09361
G1 X145.279 Y138.5 E22.10126
G1 X145.413 Y138.519 E22.10577
G1 X145.575 Y138.534 E22.11118
G1 X145.822 Y138.534 E22.11939
G1 X145.965 Y138.524 E22.12416
G1 X146.188 Y138.489 E22.13167
G1 X146.342 Y138.455 E22.13691
G1 X146.479 Y138.414 E22.14167
G1 X146.691 Y138.333 E22.14922
G1 X146.84 Y138.262 E22.15471
G1 X147.058 Y138.137 E22.16307
G1 X147.251 Y137.999 E22.17096
G1 X147.37 Y137.898 E22.17615
G1 X147.459 Y137.814 E22.18022
G1 X147.621 Y137.637 E22.1882
G1 X147.705 Y137.531 E22.1927
G1 X147.723 Y137.508 E22.19364
G1 X147.85 Y137.314 E22.19991
G1 X147.93 Y137.169 E22.20306
G1 X148.035 Y136.935 E22.20598
G1 X148.101 Y136.732 E22.2068
G0 F6000 X147.794 Y135.238
G0 X147.368 Y134.54
G0 X146.739 Y134.052
G0 X146.112 Y133.859
G0 X145.005 Y133.636
G1 F1200 X144.835 Y133.691 E22.21274
G1 X144.701 Y133.745 E22.21755
G1 X144.463 Y133.864 E22.2264
G1 X144.361 Y133.926 E22.23037
G1 X144.23 Y134.014 E22.23562
G1 X144.208 Y134.032 E22.23656
G1 X144.053 Y134.158 E22.24321
G1 X143.954 Y134.249 E22.24768
G1 X143.839 Y134.366 E22.25314
G1 X143.699 Y134.541 E22.26059
G1 X143.697 Y134.544 E22.26071
G1 X143.603 Y134.678 E22.26615
G1 X143.484 Y134.88 E22.27395
G1 X143.38 Y135.111 E22.28238
G1 X143.333 Y135.24 E22.28694
G1 X143.301 Y135.344 E22.29056
G1 X143.301 Y135.24 E22.29067
G1 X143.301 Y135.111 E22.29121
G1 X143.301 Y134.88 E22.29361
G1 X143.301 Y134.678 E22.29758
G1 X143.301 Y134.544 E22.30058
G1 X143.301 Y134.54 E22.30072
G1 X143.301 Y133.636 E22.33078
G1 X144.201 Y133.636 E22.36072
G1 X144.23 Y133.636 E22.3613
G1 X144.361 Y133.636 E22.36449
G1 X144.463 Y133.636 E22.36573
G1 X144.701 Y133.636 E22.36893
