;FLAVOR:Marlin
;TIME:174
;Filament used: 0.181498m
;Layer height: 0.24
;MINX:110.769
;MINY:110.766
;MINZ:0.2
;MAXX:189.243
;MAXY:189.237
;MAXZ:0.92
;Generated with Cura_SteamEngine 4.6.1
M140 S70
M105
M190 S70
M104 S225
M105
M109 S225
M82 ;absolute extrusion mode
M201 X500.00 Y500.00 Z100.00 E5000.00 ;Setup machine max acceleration
M203 X500.00 Y500.00 Z10.00 E50.00 ;Setup machine max feedrate
M204 P500.00 R1000.00 T500.00 ;Setup Print/Retract/Travel acceleration
M205 X8.00 Y8.00 Z0.40 E5.00 ;Setup Jerk
M220 S100 ;Reset Feedrate
M221 S100 ;Reset Flowrate

G28 ;Home

G92 E0 ;Reset Extruder
G1 Z2.0 F3000 ;Move Z Axis up
G1 X10.1 Y20 Z0.28 F5000.0 ;Move to start position
G1 X10.1 Y200.0 Z0.28 F1500.0 E15 ;Draw the first line
G1 X10.4 Y200.0 Z0.28 F5000.0 ;Move to side a little
G1 X10.4 Y20 Z0.28 F1500.0 E30 ;Draw the second line
G92 E0 ;Reset Extruder
G1 Z2.0 F3000 ;Move Z Axis up

G92 E0
G92 E0
G1 F2700 E-5
;LAYER_COUNT:4
;LAYER:0
M107
G0 F6000 X151.814 Y111.605 Z0.2
;TYPE:SKIRT
G1 F2700 E0
G1 F1200 X153.173 Y111.693 E0.0453
G1 X153.769 Y111.746 E0.0652
G1 X154.082 Y111.779 E0.07566
G1 X155.23 Y111.92 E0.11413
G1 X156.011 Y112.034 E0.14039
G1 X156.359 Y112.091 E0.15211
G1 X157.518 Y112.304 E0.19131
G1 X158.254 Y112.457 E0.21631
G1 X158.588 Y112.533 E0.2277
G1 X159.77 Y112.824 E0.26819
G1 X160.566 Y113.041 E0.29563
G1 X160.928 Y113.147 E0.30818
G1 X162.193 Y113.546 E0.3523
G1 X162.73 Y113.728 E0.37115
G1 X163.071 Y113.85 E0.3832
G1 X164.352 Y114.339 E0.42881
G1 X165.146 Y114.669 E0.4574
G1 X166.247 Y115.163 E0.49754
G1 X166.978 Y115.512 E0.52448
G1 X167.302 Y115.674 E0.53653
G1 X168.455 Y116.28 E0.57985
G1 X169.031 Y116.6 E0.60177
G1 X169.31 Y116.761 E0.61248
G1 X170.228 Y117.313 E0.64811
G1 X170.944 Y117.765 E0.67627
G1 X171.236 Y117.957 E0.6879
G1 X172.203 Y118.619 E0.72687
G1 X172.858 Y119.092 E0.75375
G1 X173.145 Y119.307 E0.76567
G1 X174.214 Y120.142 E0.81079
G1 X174.66 Y120.508 E0.82998
G1 X174.899 Y120.711 E0.84041
G1 X175.777 Y121.482 E0.87927
G1 X176.443 Y122.095 E0.90938
G1 X176.682 Y122.323 E0.92036
G1 X177.187 Y122.82 E0.94393
G1 X177.595 Y123.235 E0.96329
G1 X178.022 Y123.681 E0.98382
G1 X178.258 Y123.936 E0.99538
G1 X179.156 Y124.946 E1.04033
G1 X179.73 Y125.629 E1.07
G1 X180.435 Y126.517 E1.10771
G1 X180.915 Y127.151 E1.13416
G1 X181.119 Y127.43 E1.14566
G1 X181.842 Y128.463 E1.1876
G1 X182.436 Y129.366 E1.22355
G1 X183.048 Y130.362 E1.26243
G1 X183.456 Y131.064 E1.28943
G1 X183.63 Y131.377 E1.30134
G1 X184.264 Y132.568 E1.34622
G1 X184.645 Y133.338 E1.37479
G1 X185.161 Y134.458 E1.41581
G1 X185.465 Y135.164 E1.44137
G1 X185.589 Y135.465 E1.4522
G1 X186.024 Y136.581 E1.49204
G1 X186.3 Y137.343 E1.51899
G1 X186.417 Y137.684 E1.53099
G1 X186.823 Y138.955 E1.57536
G1 X186.994 Y139.539 E1.5956
G1 X187.076 Y139.837 E1.60588
G1 X187.35 Y140.902 E1.64246
G1 X187.547 Y141.746 E1.67128
G1 X187.625 Y142.109 E1.68363
G1 X187.886 Y143.467 E1.72963
G1 X188.02 Y144.303 E1.75779
G1 X188.18 Y145.509 E1.79825
G1 X188.267 Y146.314 E1.82518
G1 X188.299 Y146.662 E1.8368
G1 X188.389 Y147.951 E1.87978
G1 X188.42 Y148.631 E1.90242
G1 X188.43 Y148.969 E1.91367
G1 X188.443 Y150.288 E1.95754
G1 X188.425 Y151.19 E1.98755
G1 X188.372 Y152.345 E2.026
G1 X188.314 Y153.165 E2.05334
G1 X188.284 Y153.504 E2.06466
G1 X188.155 Y154.702 E2.10474
G1 X188.05 Y155.49 E2.13118
G1 X187.999 Y155.826 E2.14248
G1 X187.776 Y157.137 E2.18671
G1 X187.656 Y157.748 E2.20742
G1 X187.591 Y158.052 E2.21776
G1 X187.33 Y159.181 E2.25631
G1 X187.137 Y159.937 E2.28226
G1 X187.048 Y160.262 E2.29346
G1 X186.715 Y161.395 E2.33274
G1 X186.485 Y162.115 E2.35788
G1 X186.371 Y162.453 E2.36975
G1 X185.949 Y163.618 E2.41096
G1 X185.669 Y164.339 E2.43668
G1 X185.544 Y164.646 E2.44771
G1 X185.104 Y165.67 E2.48478
G1 X184.756 Y166.429 E2.51255
G1 X184.598 Y166.758 E2.52469
G1 X183.985 Y167.969 E2.56983
G1 X183.545 Y168.778 E2.60046
G1 X182.979 Y169.752 E2.63793
G1 X182.572 Y170.419 E2.66392
G1 X182.383 Y170.717 E2.67565
G1 X181.709 Y171.734 E2.71623
G1 X181.269 Y172.365 E2.74182
G1 X181.065 Y172.647 E2.7534
G1 X180.379 Y173.556 E2.79127
G1 X179.862 Y174.209 E2.81897
G1 X179.629 Y174.493 E2.83119
G1 X178.727 Y175.546 E2.87731
G1 X178.219 Y176.103 E2.90238
G1 X177.124 Y177.241 E2.95491
G1 X176.525 Y177.824 E2.98271
G1 X175.502 Y178.766 E3.02896
G1 X175.053 Y179.158 E3.04879
G1 X174.808 Y179.365 E3.05945
G1 X173.71 Y180.259 E3.10655
G1 X173.039 Y180.772 E3.13464
G1 X172.046 Y181.491 E3.17542
G1 X171.411 Y181.927 E3.20104
G1 X171.134 Y182.11 E3.21208
G1 X170.123 Y182.752 E3.25191
G1 X169.431 Y183.168 E3.27877
G1 X169.12 Y183.348 E3.29072
G1 X167.989 Y183.971 E3.33366
G1 X167.433 Y184.261 E3.35452
G1 X167.144 Y184.406 E3.36528
G1 X166.118 Y184.897 E3.40311
G1 X165.39 Y185.226 E3.42968
G1 X165.047 Y185.373 E3.44209
G1 X163.755 Y185.896 E3.48845
G1 X163.171 Y186.114 E3.50918
G1 X162.869 Y186.221 E3.51984
G1 X161.601 Y186.646 E3.56432
G1 X160.728 Y186.912 E3.59467
G1 X159.608 Y187.218 E3.63329
G1 X158.863 Y187.403 E3.65882
G1 X158.533 Y187.479 E3.67008
G1 X157.324 Y187.733 E3.71117
G1 X156.531 Y187.879 E3.73799
G1 X156.174 Y187.939 E3.75003
G1 X154.885 Y188.126 E3.79335
G1 X154.263 Y188.202 E3.81419
G1 X153.948 Y188.235 E3.82473
G1 X152.865 Y188.33 E3.86089
G1 X152.038 Y188.384 E3.88845
G1 X151.68 Y188.401 E3.90037
G1 X150.483 Y188.434 E3.9402
G1 X149.691 Y188.437 E3.96654
G1 X149.358 Y188.433 E3.97762
G1 X148.242 Y188.397 E4.01476
G1 X147.378 Y188.348 E4.04354
G1 X147.057 Y188.324 E4.05425
G1 X145.942 Y188.221 E4.09149
G1 X144.787 Y188.081 E4.13019
G1 X143.599 Y187.899 E4.17016
G1 X142.785 Y187.753 E4.19767
G1 X142.438 Y187.684 E4.20943
G1 X141.136 Y187.4 E4.25376
G1 X140.289 Y187.189 E4.28279
G1 X139.158 Y186.874 E4.32184
G1 X138.373 Y186.635 E4.34913
G1 X138.02 Y186.52 E4.36148
G1 X136.773 Y186.087 E4.40538
G1 X135.937 Y185.77 E4.43512
G1 X134.799 Y185.301 E4.47606
G1 X134.087 Y184.986 E4.50195
G1 X133.797 Y184.852 E4.51258
G1 X132.737 Y184.339 E4.55175
G1 X132.118 Y184.021 E4.57489
G1 X131.801 Y183.851 E4.58686
G1 X130.502 Y183.12 E4.63643
G1 X130.021 Y182.834 E4.65505
G1 X129.752 Y182.668 E4.66556
G1 X128.796 Y182.055 E4.70333
G1 X128.118 Y181.597 E4.73054
G1 X127.84 Y181.402 E4.74184
G1 X126.864 Y180.689 E4.78204
G1 X126.223 Y180.196 E4.80894
G1 X125.943 Y179.973 E4.82084
G1 X124.93 Y179.132 E4.86463
G1 X124.255 Y178.536 E4.89458
G1 X123.396 Y177.736 E4.93362
G1 X122.818 Y177.171 E4.96051
G1 X122.563 Y176.913 E4.97257
G1 X121.618 Y175.915 E5.01828
G1 X121.215 Y175.467 E5.03833
G1 X121.003 Y175.223 E5.04908
G1 X120.13 Y174.183 E5.09424
G1 X119.733 Y173.685 E5.11542
G1 X119.535 Y173.428 E5.12621
G1 X118.744 Y172.363 E5.17034
G1 X118.41 Y171.89 E5.1896
G1 X118.234 Y171.632 E5.19998
G1 X117.552 Y170.593 E5.24132
G1 X116.975 Y169.657 E5.27789
G1 X116.409 Y168.671 E5.3157
G1 X116.02 Y167.956 E5.34278
G1 X115.859 Y167.647 E5.35437
G1 X115.354 Y166.629 E5.39216
G1 X115 Y165.873 E5.41993
G1 X114.848 Y165.535 E5.43225
G1 X114.333 Y164.312 E5.47639
G1 X113.999 Y163.452 E5.50707
G1 X113.611 Y162.36 E5.54562
G1 X113.363 Y161.606 E5.57202
G1 X113.265 Y161.291 E5.58299
G1 X112.924 Y160.115 E5.62372
G1 X112.724 Y159.356 E5.64982
G1 X112.637 Y159 E5.66201
G1 X112.352 Y157.722 E5.70556
G1 X112.175 Y156.803 E5.73669
G1 X111.981 Y155.616 E5.77669
G1 X111.878 Y154.876 E5.80154
G1 X111.838 Y154.542 E5.81273
G1 X111.715 Y153.345 E5.85275
G1 X111.633 Y152.219 E5.8903
G1 X111.585 Y151.095 E5.92772
G1 X111.57 Y150.283 E5.95473
G1 X111.569 Y149.953 E5.96571
G1 X111.59 Y148.729 E6.00643
G1 X111.623 Y147.954 E6.03223
G1 X111.642 Y147.639 E6.04272
G1 X111.73 Y146.493 E6.08095
G1 X111.813 Y145.672 E6.1084
G1 X111.856 Y145.309 E6.12055
G1 X112.046 Y143.959 E6.1659
G1 X112.145 Y143.365 E6.18593
G1 X112.202 Y143.054 E6.19644
G1 X112.473 Y141.712 E6.24198
G1 X112.683 Y140.812 E6.27272
G1 X112.987 Y139.659 E6.31238
G1 X113.191 Y138.951 E6.33688
G1 X113.29 Y138.627 E6.34815
G1 X113.675 Y137.454 E6.38921
G1 X114.047 Y136.421 E6.42573
G1 X114.469 Y135.355 E6.46386
G1 X114.782 Y134.616 E6.49056
G1 X114.918 Y134.309 E6.50172
G1 X115.401 Y133.272 E6.53977
G1 X115.745 Y132.575 E6.56562
G1 X115.911 Y132.253 E6.57767
G1 X116.471 Y131.219 E6.61678
G1 X116.858 Y130.54 E6.64278
G1 X117.057 Y130.207 E6.65568
G1 X117.773 Y129.061 E6.70063
G1 X118.085 Y128.586 E6.71953
G1 X118.274 Y128.308 E6.73071
G1 X118.99 Y127.299 E6.77186
G1 X119.456 Y126.674 E6.79779
G1 X119.656 Y126.415 E6.80867
G1 X120.368 Y125.526 E6.84655
G1 X120.871 Y124.928 E6.87254
G1 X121.09 Y124.677 E6.88362
G1 X121.883 Y123.799 E6.92297
G1 X122.47 Y123.181 E6.95132
G1 X122.724 Y122.923 E6.96337
G1 X123.644 Y122.026 E7.0061
G1 X124.097 Y121.605 E7.02667
G1 X124.35 Y121.378 E7.03798
G1 X125.417 Y120.456 E7.08488
G1 X125.858 Y120.094 E7.10385
G1 X126.106 Y119.897 E7.11439
G1 X127.194 Y119.064 E7.15996
G1 X127.668 Y118.719 E7.17946
G1 X127.938 Y118.529 E7.19044
G1 X129.1 Y117.745 E7.23707
G1 X129.915 Y117.228 E7.26917
G1 X130.566 Y116.839 E7.29439
G1 X131.008 Y116.586 E7.31133
G1 X131.597 Y116.257 E7.33377
G1 X131.896 Y116.096 E7.34506
G1 X133.094 Y115.483 E7.38982
G1 X133.9 Y115.098 E7.41953
G1 X134.933 Y114.642 E7.45709
G1 X135.714 Y114.318 E7.48521
G1 X136.047 Y114.186 E7.49713
G1 X137.084 Y113.802 E7.5339
G1 X137.899 Y113.52 E7.56259
G1 X138.215 Y113.416 E7.57365
G1 X139.27 Y113.093 E7.61035
G1 X140.376 Y112.789 E7.6485
G1 X141.521 Y112.512 E7.68768
G1 X142.294 Y112.344 E7.71399
G1 X142.634 Y112.276 E7.72552
G1 X143.8 Y112.068 E7.76492
G1 X144.609 Y111.944 E7.79214
G1 X144.959 Y111.896 E7.80389
G1 X146.289 Y111.743 E7.84842
G1 X147.186 Y111.665 E7.87836
G1 X148.337 Y111.6 E7.91671
G1 X149.168 Y111.572 E7.94436
G1 X149.499 Y111.566 E7.95537
G1 X150.642 Y111.568 E7.99339
G1 X151.814 Y111.605 E8.03239
G0 F6000 X151.838 Y111.206
G1 F1200 X153.209 Y111.295 E8.07809
G1 X153.805 Y111.348 E8.09799
G1 X154.13 Y111.382 E8.10886
G1 X155.288 Y111.524 E8.14766
G1 X156.069 Y111.638 E8.17391
G1 X156.43 Y111.697 E8.18608
G1 X157.599 Y111.913 E8.22562
G1 X158.335 Y112.066 E8.25062
G1 X158.682 Y112.144 E8.26245
G1 X159.875 Y112.438 E8.30331
G1 X160.671 Y112.655 E8.33076
G1 X161.047 Y112.765 E8.34379
G1 X162.321 Y113.167 E8.38822
G1 X162.858 Y113.349 E8.40708
G1 X163.213 Y113.476 E8.41962
G1 X164.504 Y113.969 E8.46558
G1 X165.019 Y114.18 E8.48409
G1 X165.308 Y114.304 E8.49455
G1 X166.419 Y114.802 E8.53505
G1 X167.15 Y115.151 E8.56199
G1 X167.487 Y115.319 E8.57451
G1 X168.649 Y115.93 E8.61818
G1 X169.225 Y116.25 E8.64009
G1 X169.515 Y116.417 E8.65122
G1 X170.441 Y116.975 E8.68718
G1 X171.157 Y117.427 E8.71534
G1 X171.461 Y117.626 E8.72743
G1 X172.437 Y118.294 E8.76677
G1 X173.092 Y118.767 E8.79364
G1 X173.39 Y118.991 E8.80604
G1 X174.467 Y119.833 E8.85151
G1 X174.913 Y120.199 E8.8707
G1 X175.162 Y120.41 E8.88155
G1 X176.048 Y121.188 E8.92077
G1 X176.714 Y121.801 E8.95087
G1 X176.963 Y122.037 E8.96229
G1 X177.472 Y122.539 E8.98606
G1 X177.884 Y122.959 E9.00563
G1 X178.311 Y123.405 E9.02617
G1 X178.556 Y123.67 E9.03817
G1 X179.461 Y124.687 E9.08345
G1 X180.043 Y125.38 E9.11355
G1 X180.754 Y126.276 E9.15159
G1 X181.234 Y126.91 E9.17804
G1 X181.446 Y127.199 E9.18996
G1 X182.175 Y128.241 E9.23226
G1 X182.594 Y128.872 E9.25745
G1 X182.776 Y129.156 E9.26867
G1 X183.394 Y130.161 E9.30791
G1 X183.802 Y130.863 E9.33492
G1 X183.983 Y131.188 E9.34729
G1 X184.621 Y132.388 E9.39249
G1 X185.008 Y133.17 E9.42151
G1 X185.529 Y134.3 E9.4629
G1 X185.833 Y135.006 E9.48847
G1 X185.962 Y135.319 E9.49973
G1 X186.4 Y136.445 E9.53991
G1 X186.676 Y137.207 E9.56687
G1 X186.798 Y137.562 E9.57935
G1 X187.207 Y138.842 E9.62405
G1 X187.464 Y139.737 E9.65502
G1 X187.74 Y140.811 E9.6919
G1 X187.937 Y141.655 E9.72072
G1 X188.017 Y142.032 E9.73354
G1 X188.28 Y143.402 E9.77994
G1 X188.416 Y144.249 E9.80847
G1 X188.578 Y145.466 E9.84931
G1 X188.665 Y146.271 E9.87624
G1 X188.697 Y146.632 E9.88829
G1 X188.789 Y147.933 E9.93167
G1 X188.82 Y148.613 E9.95431
G1 X188.83 Y148.964 E9.96599
G1 X188.843 Y150.294 E10.01023
G1 X188.825 Y151.207 E10.0406
G1 X188.771 Y152.373 E10.07942
G1 X188.713 Y153.193 E10.10677
G1 X188.682 Y153.546 E10.11855
G1 X188.551 Y154.755 E10.159
G1 X188.446 Y155.543 E10.18544
G1 X188.394 Y155.892 E10.19717
G1 X188.168 Y157.214 E10.24178
G1 X187.981 Y158.141 E10.27324
G1 X187.718 Y159.28 E10.31212
G1 X187.525 Y160.036 E10.33807
G1 X187.432 Y160.374 E10.34973
G1 X187.096 Y161.517 E10.38935
G1 X186.866 Y162.237 E10.41449
G1 X186.747 Y162.588 E10.42682
G1 X186.322 Y163.763 E10.46838
G1 X186.042 Y164.484 E10.4941
G1 X185.912 Y164.803 E10.50556
G1 X185.467 Y165.837 E10.543
G1 X185.119 Y166.596 E10.57077
G1 X184.955 Y166.938 E10.58339
G1 X184.337 Y168.158 E10.62887
G1 X183.892 Y168.978 E10.6599
G1 X183.32 Y169.96 E10.6977
G1 X182.913 Y170.627 E10.72369
G1 X182.717 Y170.937 E10.73589
G1 X182.037 Y171.963 E10.77683
G1 X181.597 Y172.594 E10.80241
G1 X181.385 Y172.887 E10.81444
G1 X180.693 Y173.805 E10.85268
G1 X180.176 Y174.458 E10.88038
G1 X179.933 Y174.753 E10.89309
G1 X179.024 Y175.814 E10.93956
G1 X178.508 Y176.38 E10.96504
G1 X177.63 Y177.298 E11.00729
G1 X177.405 Y177.526 E11.01794
G1 X176.797 Y178.118 E11.04616
G1 X175.997 Y178.859 E11.08243
G1 X175.765 Y179.067 E11.0928
G1 X175.316 Y179.459 E11.11262
G1 X175.062 Y179.674 E11.12369
G1 X173.955 Y180.576 E11.17118
G1 X173.275 Y181.095 E11.19963
G1 X172.272 Y181.82 E11.2408
G1 X171.35 Y182.447 E11.27788
G1 X170.329 Y183.095 E11.3181
G1 X169.637 Y183.511 E11.34496
G1 X169.314 Y183.697 E11.35735
G1 X168.174 Y184.325 E11.40064
G1 X167.618 Y184.615 E11.4215
G1 X167.317 Y184.766 E11.4327
G1 X166.282 Y185.261 E11.47086
G1 X165.554 Y185.59 E11.49743
G1 X165.198 Y185.744 E11.51033
G1 X163.895 Y186.271 E11.55708
G1 X163.311 Y186.489 E11.57781
G1 X162.997 Y186.6 E11.58889
G1 X161.72 Y187.028 E11.63369
G1 X160.834 Y187.298 E11.66449
G1 X159.705 Y187.607 E11.70342
G1 X158.96 Y187.792 E11.72895
G1 X158.617 Y187.871 E11.74066
G1 X157.396 Y188.127 E11.78216
G1 X156.603 Y188.273 E11.80897
G1 X156.233 Y188.334 E11.82145
G1 X154.934 Y188.523 E11.86511
G1 X153.985 Y188.634 E11.89689
G1 X152.891 Y188.729 E11.93341
G1 X152.064 Y188.783 E11.96097
G1 X151.692 Y188.801 E11.97336
G1 X150.484 Y188.834 E12.01355
G1 X149.692 Y188.837 E12.0399
G1 X149.346 Y188.833 E12.0514
G1 X148.22 Y188.796 E12.08888
G1 X147.356 Y188.747 E12.11766
G1 X147.022 Y188.723 E12.1288
G1 X145.895 Y188.619 E12.16644
G1 X145.06 Y188.521 E12.1944
G1 X144.728 Y188.476 E12.20555
G1 X143.529 Y188.293 E12.24589
G1 X142.715 Y188.147 E12.27339
G1 X142.353 Y188.075 E12.28567
G1 X141.041 Y187.789 E12.33033
G1 X140.183 Y187.575 E12.35974
G1 X139.042 Y187.256 E12.39915
G1 X138.257 Y187.017 E12.42644
G1 X137.89 Y186.898 E12.43927
G1 X136.633 Y186.462 E12.48352
G1 X136.079 Y186.255 E12.50319
G1 X135.786 Y186.14 E12.51366
G1 X134.637 Y185.667 E12.55499
G1 X133.925 Y185.352 E12.58089
G1 X133.624 Y185.213 E12.59191
G1 X132.554 Y184.695 E12.63145
G1 X131.935 Y184.377 E12.6546
G1 X131.605 Y184.2 E12.66705
G1 X130.298 Y183.464 E12.71694
G1 X129.537 Y183.006 E12.74648
G1 X128.572 Y182.387 E12.78462
G1 X127.894 Y181.929 E12.81183
G1 X127.605 Y181.726 E12.82358
G1 X126.62 Y181.006 E12.86416
G1 X125.979 Y180.513 E12.89105
G1 X125.688 Y180.282 E12.90341
G1 X124.667 Y179.433 E12.94757
G1 X123.983 Y178.829 E12.97792
G1 X123.116 Y178.022 E13.01732
G1 X122.538 Y177.457 E13.0442
G1 X122.274 Y177.189 E13.05672
G1 X121.32 Y176.182 E13.10285
G1 X120.917 Y175.734 E13.12289
G1 X120.697 Y175.481 E13.13405
G1 X119.817 Y174.433 E13.17956
G1 X119.42 Y173.935 E13.20074
G1 X119.215 Y173.668 E13.21194
G1 X118.417 Y172.593 E13.25647
G1 X117.9 Y171.853 E13.28649
G1 X117.212 Y170.805 E13.32819
G1 X116.808 Y170.156 E13.35362
G1 X116.629 Y169.857 E13.36521
G1 X116.058 Y168.862 E13.40336
G1 X115.669 Y168.147 E13.43044
G1 X115.502 Y167.826 E13.44247
G1 X114.991 Y166.799 E13.48062
G1 X114.637 Y166.043 E13.50839
G1 X114.48 Y165.691 E13.52121
G1 X113.961 Y164.459 E13.56567
G1 X113.623 Y163.588 E13.59675
G1 X113.231 Y162.485 E13.63568
G1 X112.983 Y161.731 E13.66208
G1 X112.881 Y161.404 E13.67347
G1 X112.537 Y160.217 E13.71458
G1 X112.337 Y159.458 E13.74068
G1 X112.246 Y159.088 E13.75336
G1 X111.96 Y157.8 E13.79724
