;FLAVOR:Marlin
;TIME:4366
;Filament used: 2.66566m
;Layer height: 0.24
;MINX:101.5
;MINY:114
;MINZ:0.2
;MAXX:198.5
;MAXY:186
;MAXZ:58.52
;Generated with Cura_SteamEngine 4.6.1
M140 S70
M105
M190 S70
M104 S225
M105
M109 S225
M82 ;absolute extrusion mode
M201 X500.00 Y500.00 Z100.00 E5000.00 ;Setup machine max acceleration
M203 X500.00 Y500.00 Z10.00 E50.00 ;Setup machine max feedrate
M204 P500.00 R1000.00 T500.00 ;Setup Print/Retract/Travel acceleration
M205 X8.00 Y8.00 Z0.40 E5.00 ;Setup Jerk
M220 S100 ;Reset Feedrate
M221 S100 ;Reset Flowrate

G28 ;Home

G92 E0 ;Reset Extruder
G1 Z2.0 F3000 ;Move Z Axis up
G1 X10.1 Y20 Z0.28 F5000.0 ;Move to start position
G1 X10.1 Y200.0 Z0.28 F1500.0 E15 ;Draw the first line
G1 X10.4 Y200.0 Z0.28 F5000.0 ;Move to side a little
G1 X10.4 Y20 Z0.28 F1500.0 E30 ;Draw the second line
G92 E0 ;Reset Extruder
G1 Z2.0 F3000 ;Move Z Axis up

G92 E0
G92 E0
G1 F2700 E-5
;LAYER_COUNT:244
;LAYER:0
M107
G0 F6000 X187.637 Y114.811 Z0.2
;TYPE:SKIRT
G1 F2700 E0
G1 F1200 X188.539 Y114.864 E0.03005
G1 X189.432 Y114.996 E0.06008
G1 X190.31 Y115.207 E0.09011
G1 X191.166 Y115.495 E0.12015
G1 X191.993 Y115.857 E0.15018
G1 X192.785 Y116.292 E0.18023
G1 X193.536 Y116.794 E0.21027
G1 X194.239 Y117.361 E0.24031
G1 X194.889 Y117.988 E0.27035
G1 X195.481 Y118.67 E0.30039
G1 X196.011 Y119.401 E0.33042
G1 X196.473 Y120.177 E0.36046
G1 X196.866 Y120.99 E0.39049
G1 X197.184 Y121.835 E0.42052
G1 X197.427 Y122.705 E0.45056
G1 X197.592 Y123.593 E0.4806
G1 X197.687 Y124.723 E0.51832
G1 X197.7 Y125.33 E0.53851
G1 X197.699 Y174.39 E2.17026
G1 X197.69 Y175.117 E2.19444
G1 X197.639 Y176.019 E2.22449
G1 X197.508 Y176.913 E2.25454
G1 X197.299 Y177.791 E2.28456
G1 X197.013 Y178.648 E2.31461
G1 X196.652 Y179.476 E2.34465
G1 X196.22 Y180.268 E2.37466
G1 X195.719 Y181.02 E2.40471
G1 X195.153 Y181.724 E2.43475
G1 X194.528 Y182.375 E2.46477
G1 X193.847 Y182.969 E2.49483
G1 X193.116 Y183.5 E2.52488
G1 X192.342 Y183.964 E2.55489
G1 X191.529 Y184.358 E2.58494
G1 X190.685 Y184.678 E2.61496
G1 X189.815 Y184.923 E2.64502
G1 X188.928 Y185.089 E2.67504
G1 X187.777 Y185.187 E2.71346
G1 X187.17 Y185.2 E2.73365
G1 X113.207 Y185.2 E5.19367
G1 X112.377 Y185.19 E5.22128
G1 X111.476 Y185.139 E5.25129
G1 X110.582 Y185.007 E5.28135
G1 X109.704 Y184.798 E5.31137
G1 X108.847 Y184.511 E5.34143
G1 X108.02 Y184.15 E5.37144
G1 X107.227 Y183.717 E5.40149
G1 X106.476 Y183.216 E5.43152
G1 X105.772 Y182.65 E5.46156
G1 X105.121 Y182.024 E5.4916
G1 X104.528 Y181.343 E5.52164
G1 X103.998 Y180.612 E5.55167
G1 X103.534 Y179.837 E5.58171
G1 X103.14 Y179.024 E5.61176
G1 X102.82 Y178.18 E5.64178
G1 X102.576 Y177.31 E5.67183
G1 X102.41 Y176.422 E5.70188
G1 X102.313 Y175.267 E5.74043
G1 X102.3 Y174.658 E5.76069
G1 X102.301 Y125.536 E7.3945
G1 X102.31 Y124.871 E7.41662
G1 X102.362 Y123.969 E7.44667
G1 X102.494 Y123.076 E7.47669
G1 X102.704 Y122.198 E7.50672
G1 X102.991 Y121.341 E7.53678
G1 X103.353 Y120.514 E7.5668
G1 X103.786 Y119.722 E7.59682
G1 X104.288 Y118.971 E7.62687
G1 X104.855 Y118.267 E7.65693
G1 X105.481 Y117.617 E7.68695
G1 X106.162 Y117.024 E7.71698
G1 X106.894 Y116.494 E7.74704
G1 X107.669 Y116.031 E7.77707
G1 X108.482 Y115.638 E7.8071
G1 X109.327 Y115.318 E7.83715
G1 X110.196 Y115.075 E7.86717
G1 X111.084 Y114.909 E7.89721
G1 X112.223 Y114.813 E7.93523
G1 X112.83 Y114.8 E7.95542
G1 X186.793 Y114.8 E10.41544
G1 X186.939 Y114.801 E10.4203
G1 X187.637 Y114.811 E10.44352
G0 F6000 X187.643 Y114.411
G1 F1200 X188.562 Y114.464 E10.47413
G1 X189.473 Y114.597 E10.50475
G1 X190.369 Y114.808 E10.53537
G1 X191.243 Y115.096 E10.56598
G1 X192.09 Y115.459 E10.59663
G1 X192.901 Y115.894 E10.62724
G1 X193.671 Y116.398 E10.65785
G1 X194.395 Y116.967 E10.68847
G1 X195.067 Y117.597 E10.71911
G1 X195.682 Y118.282 E10.74973
G1 X196.235 Y119.018 E10.78035
G1 X196.722 Y119.799 E10.81096
G1 X197.139 Y120.62 E10.84159
G1 X197.484 Y121.474 E10.87222
G1 X197.753 Y122.354 E10.90283
G1 X197.945 Y123.255 E10.93347
G1 X198.058 Y124.168 E10.96406
G1 X198.087 Y124.712 E10.98218
G1 X198.1 Y125.33 E11.00274
G1 X198.099 Y174.395 E12.63465
G1 X198.09 Y175.122 E12.65883
G1 X198.039 Y176.041 E12.68945
G1 X197.908 Y176.953 E12.72009
G1 X197.698 Y177.849 E12.7507
G1 X197.412 Y178.724 E12.78132
G1 X197.051 Y179.571 E12.81194
G1 X196.617 Y180.383 E12.84256
G1 X196.115 Y181.155 E12.87319
G1 X195.547 Y181.88 E12.90382
G1 X194.919 Y182.553 E12.93444
G1 X194.235 Y183.169 E12.96506
G1 X193.5 Y183.723 E12.99567
G1 X192.72 Y184.212 E13.02629
G1 X191.9 Y184.631 E13.05692
G1 X191.047 Y184.977 E13.08753
G1 X190.167 Y185.248 E13.11816
G1 X189.267 Y185.441 E13.14877
G1 X188.353 Y185.556 E13.17941
G1 X187.788 Y185.587 E13.19823
G1 X187.17 Y185.6 E13.21879
G1 X113.207 Y185.6 E15.67881
G1 X112.372 Y185.59 E15.70658
G1 X111.453 Y185.538 E15.7372
G1 X110.542 Y185.407 E15.76781
G1 X109.646 Y185.197 E15.79842
G1 X108.771 Y184.91 E15.82905
G1 X107.924 Y184.548 E15.85968
G1 X107.112 Y184.114 E15.89031
G1 X106.341 Y183.612 E15.92091
G1 X105.616 Y183.044 E15.95154
G1 X104.943 Y182.415 E15.98218
G1 X104.328 Y181.731 E16.01277
G1 X103.774 Y180.996 E16.04339
G1 X103.286 Y180.215 E16.07402
G1 X102.867 Y179.395 E16.10464
G1 X102.521 Y178.542 E16.13526
G1 X102.251 Y177.662 E16.16587
G1 X102.058 Y176.761 E16.19652
G1 X101.944 Y175.848 E16.22712
G1 X101.913 Y175.277 E16.24614
G1 X101.9 Y174.658 E16.26674
G1 X101.901 Y125.531 E17.90071
G1 X101.91 Y124.866 E17.92283
G1 X101.962 Y123.946 E17.95347
G1 X102.094 Y123.035 E17.98409
G1 X102.305 Y122.139 E18.01471
G1 X102.592 Y121.264 E18.04534
G1 X102.955 Y120.418 E18.07595
G1 X103.389 Y119.606 E18.10658
G1 X103.892 Y118.835 E18.1372
G1 X104.461 Y118.111 E18.16782
G1 X105.089 Y117.439 E18.19841
G1 X105.774 Y116.823 E18.22905
G1 X106.51 Y116.27 E18.25967
G1 X107.291 Y115.782 E18.2903
G1 X108.111 Y115.364 E18.32092
G1 X108.965 Y115.019 E18.35155
G1 X109.845 Y114.749 E18.38217
G1 X110.745 Y114.557 E18.41277
G1 X111.659 Y114.443 E18.44341
G1 X112.212 Y114.413 E18.46183
G1 X112.83 Y114.4 E18.48239
G1 X186.793 Y114.4 E20.94241
G1 X186.945 Y114.401 E20.94746
G1 X187.643 Y114.411 E20.97068
G0 F6000 X187.649 Y114.011
G1 F1200 X188.585 Y114.065 E21.00187
G1 X189.513 Y114.197 E21.03304
G1 X190.427 Y114.409 E21.06425
G1 X191.319 Y114.698 E21.09543
G1 X192.184 Y115.061 E21.12664
G1 X193.014 Y115.497 E21.15782
G1 X193.805 Y116.002 E21.18903
G1 X194.549 Y116.573 E21.22022
G1 X195.242 Y117.205 E21.25142
G1 X195.879 Y117.893 E21.2826
G1 X196.454 Y118.634 E21.3138
G1 X196.965 Y119.42 E21.34498
G1 X197.407 Y120.248 E21.3762
G1 X197.776 Y121.11 E21.40739
G1 X198.071 Y122 E21.43857
G1 X198.289 Y122.912 E21.46976
G1 X198.429 Y123.84 E21.50097
G1 X198.487 Y124.701 E21.52968
G1 X198.5 Y125.33 E21.5506
G1 X198.499 Y174.4 E23.18268
G1 X198.49 Y175.127 E23.20686
G1 X198.439 Y176.064 E23.23807
G1 X198.307 Y176.992 E23.26924
G1 X198.098 Y177.906 E23.30043
G1 X197.811 Y178.799 E23.33163
G1 X197.449 Y179.665 E23.36284
G1 X197.015 Y180.496 E23.39403
G1 X196.511 Y181.287 E23.42522
G1 X195.942 Y182.032 E23.4564
G1 X195.311 Y182.727 E23.48762
G1 X194.624 Y183.365 E23.51881
G1 X193.885 Y183.942 E23.54999
G1 X193.099 Y184.454 E23.58119
G1 X192.273 Y184.897 E23.61236
G1 X191.411 Y185.269 E23.64359
G1 X190.522 Y185.565 E23.67475
G1 X189.61 Y185.785 E23.70596
G1 X188.683 Y185.926 E23.73714
G1 X187.799 Y185.987 E23.76662
G1 X187.17 Y186 E23.78754
G1 X113.207 Y186 E26.24756
G1 X112.367 Y185.99 E26.2755
G1 X111.431 Y185.938 E26.30668
G1 X110.502 Y185.806 E26.33789
G1 X109.588 Y185.596 E26.36908
G1 X108.695 Y185.309 E26.40028
G1 X107.83 Y184.946 E26.43148
G1 X106.999 Y184.512 E26.46266
G1 X106.208 Y184.008 E26.49386
G1 X105.463 Y183.438 E26.52506
G1 X104.769 Y182.807 E26.55625
G1 X104.132 Y182.12 E26.58741
G1 X103.555 Y181.38 E26.61862
G1 X103.043 Y180.594 E26.64982
G1 X102.6 Y179.767 E26.68103
G1 X102.229 Y178.906 E26.71221
G1 X101.933 Y178.016 E26.74341
G1 X101.714 Y177.104 E26.7746
G1 X101.573 Y176.177 E26.80579
G1 X101.513 Y175.288 E26.83542
G1 X101.5 Y174.658 E26.85638
G1 X101.501 Y125.525 E28.49055
G1 X101.51 Y124.86 E28.51267
G1 X101.563 Y123.924 E28.54385
G1 X101.695 Y122.995 E28.57506
G1 X101.906 Y122.081 E28.60626
G1 X102.194 Y121.189 E28.63744
G1 X102.557 Y120.324 E28.66864
G1 X102.992 Y119.493 E28.69984
G1 X103.496 Y118.703 E28.731
G1 X104.066 Y117.958 E28.7622
G1 X104.698 Y117.264 E28.79342
G1 X105.386 Y116.627 E28.82461
G1 X106.126 Y116.051 E28.8558
G1 X106.912 Y115.539 E28.887
G1 X107.739 Y115.097 E28.91819
G1 X108.601 Y114.727 E28.94938
G1 X109.491 Y114.431 E28.98058
G1 X110.403 Y114.213 E29.01177
G1 X111.33 Y114.072 E29.04296
G1 X112.201 Y114.013 E29.07199
G1 X112.83 Y114 E29.09292
G1 X186.793 Y114 E31.55294
G1 X186.951 Y114.001 E31.55819
G1 X187.649 Y114.011 E31.58141
G1 F2700 E26.58141
;MESH:PhoneHolder_Base v1.stl
G0 F6000 X157.293 Y140.665
G0 X157.293 Y139.23
G0 X117.072 Y139.572
G0 X117.072 Y165.428
G0 X122.072 Y165.428
G0 X121.9 Y170.6
;TYPE:WALL-INNER
G1 F2700 E31.58141
G1 F1200 X178.1 Y170.6 E33.45063
G1 X178.1 Y165.6 E33.61693
G1 X183.1 Y165.6 E33.78323
G1 X183.1 Y139.4 E34.65465
G1 X116.9 Y139.4 E36.85647
G1 X116.9 Y165.6 E37.72788
G1 X121.9 Y165.6 E37.89418
G1 X121.9 Y170.6 E38.06048
G0 F6000 X122.3 Y170.2
;TYPE:WALL-OUTER
G1 F1200 X177.7 Y170.2 E39.90309
G1 X177.7 Y165.2 E40.0694
G1 X182.7 Y165.2 E40.2357
G1 X182.7 Y139.8 E41.0805
G1 X117.3 Y139.8 E43.25572
G1 X117.3 Y165.2 E44.10052
G1 X122.3 Y165.2 E44.26682
G1 X122.3 Y170.2 E44.43312
G1 F2700 E39.43312
G0 F6000 X122 Y170.2
G0 X121.73 Y168.673
G0 X123.165 Y168.673
G0 X121.704 Y175.665
G0 X121.704 Y174.19
G0 X113.1 Y174.4
;TYPE:WALL-INNER
G1 F2700 E44.43312
G1 F1200 X113.1 Y125.6 E46.05622
G1 X186.9 Y125.6 E48.51082
G1 X186.9 Y174.4 E50.13391
G1 X113.1 Y174.4 E52.58851
G0 F6000 X112.7 Y174.8
;TYPE:WALL-OUTER
G1 F1200 X112.7 Y125.2 E54.23821
G1 X187.3 Y125.2 E56.71942
G1 X187.3 Y174.8 E58.36912
G1 X112.7 Y174.8 E60.85033
G0 F6000 X112.97 Y174.53
G0 X113.21 Y174.01
G0 X113.49 Y174.01
;TYPE:SKIN
G1 F1200 X113.49 Y125.99 E62.44748
G1 X186.51 Y125.99 E64.87613
G1 X186.51 Y174.01 E66.47329
G1 X113.49 Y174.01 E68.90194
G1 F2700 E63.90194
G0 F6000 X113.21 Y174.01
G0 X113.31 Y165.74
G0 X116.71 Y165.74
G0 X116.79 Y165.74
G0 X116.51 Y165.99
G1 F2700 E68.90194
G1 F1200 X121.51 Y165.99 E69.06824
G1 X121.51 Y170.99 E69.23454
G1 X178.49 Y170.99 E71.1297
G1 X178.49 Y165.99 E71.29601
G1 X183.49 Y165.99 E71.46231
G1 X183.49 Y139.01 E72.35966
G1 X116.51 Y139.01 E74.58743
G1 X116.51 Y165.99 E75.48479
G1 F2700 E70.48479
G0 F6000 X116.79 Y165.74
G0 X116.73 Y163.673
G0 X118.165 Y163.673
G0 X116.704 Y175.665
G0 X116.704 Y174.19
G0 X113.886 Y174.29
G0 X113.886 Y173.849
G1 F2700 E75.48479
G1 F1200 X113.65 Y173.613 E75.49589
G0 F6000 X113.65 Y173.047
G1 F1200 X114.452 Y173.849 E75.53361
G0 F6000 X115.017 Y173.849
G1 F1200 X113.65 Y172.481 E75.59793
G0 F6000 X113.65 Y171.916
G1 F1200 X115.583 Y173.849 E75.68886
G0 F6000 X116.149 Y173.849
G1 F1200 X113.65 Y171.35 E75.8064
G0 F6000 X113.65 Y170.784
G1 F1200 X116.715 Y173.849 E75.95057
G0 F6000 X117.28 Y173.849
G1 F1200 X113.65 Y170.218 E76.12134
G0 F6000 X113.65 Y169.653
G1 F1200 X117.846 Y173.849 E76.3187
G0 F6000 X118.412 Y173.849
G1 F1200 X113.65 Y169.087 E76.54269
G0 F6000 X113.65 Y168.521
G1 F1200 X118.977 Y173.849 E76.79328
G0 F6000 X119.543 Y173.849
G1 F1200 X113.65 Y167.956 E77.07047
G0 F6000 X113.65 Y167.39
G1 F1200 X120.109 Y173.849 E77.37428
G0 F6000 X120.674 Y173.849
G1 F1200 X113.65 Y166.824 E77.7047
G0 F6000 X113.65 Y166.259
G1 F1200 X121.24 Y173.849 E78.06171
G0 F6000 X121.806 Y173.849
G1 F1200 X113.65 Y165.693 E78.44534
G0 F6000 X113.65 Y165.127
G1 F1200 X122.371 Y173.849 E78.85557
G0 F6000 X122.937 Y173.849
G1 F1200 X113.65 Y164.562 E79.2924
G0 F6000 X113.65 Y163.996
G1 F1200 X123.503 Y173.849 E79.75586
G0 F6000 X124.068 Y173.849
G1 F1200 X121.369 Y171.149 E79.88283
G0 F6000 X121.35 Y171.13
G1 F1200 X116.369 Y166.149 E80.11713
G0 F6000 X116.35 Y166.13
G1 F1200 X113.65 Y163.43 E80.24413
G0 F6000 X113.65 Y162.865
G1 F1200 X116.35 Y165.564 E80.3711
G0 F6000 X116.35 Y164.999
G1 F1200 X113.65 Y162.299 E80.4981
G0 F6000 X113.65 Y161.733
G1 F1200 X116.35 Y164.433 E80.6251
G0 F6000 X116.35 Y163.867
G1 F1200 X113.65 Y161.168 E80.75208
G0 F6000 X113.65 Y160.602
G1 F1200 X116.35 Y163.302 E80.87908
G0 F6000 X116.35 Y162.736
G1 F1200 X113.65 Y160.036 E81.00608
G0 F6000 X113.65 Y159.47
G1 F1200 X116.35 Y162.17 E81.13308
G0 F6000 X116.35 Y161.605
G1 F1200 X113.65 Y158.905 E81.26008
G0 F6000 X113.65 Y158.339
G1 F1200 X116.35 Y161.039 E81.38708
G0 F6000 X116.35 Y160.473
G1 F1200 X113.65 Y157.773 E81.51408
G0 F6000 X113.65 Y157.208
G1 F1200 X116.35 Y159.907 E81.64105
G0 F6000 X116.35 Y159.342
G1 F1200 X113.65 Y156.642 E81.76805
G0 F6000 X113.65 Y156.076
G1 F1200 X116.35 Y158.776 E81.89505
G0 F6000 X116.35 Y158.21
G1 F1200 X113.65 Y155.511 E82.02203
G0 F6000 X113.65 Y154.945
G1 F1200 X116.35 Y157.645 E82.14903
G0 F6000 X116.35 Y157.079
G1 F1200 X113.65 Y154.379 E82.27603
G0 F6000 X113.65 Y153.814
G1 F1200 X116.35 Y156.513 E82.403
G0 F6000 X116.35 Y155.948
G1 F1200 X113.65 Y153.248 E82.53
G0 F6000 X113.65 Y152.682
G1 F1200 X116.35 Y155.382 E82.657
G0 F6000 X116.35 Y154.816
G1 F1200 X113.65 Y152.117 E82.78398
G0 F6000 X113.65 Y151.551
G1 F1200 X116.35 Y154.251 E82.91098
G0 F6000 X116.35 Y153.685
G1 F1200 X113.65 Y150.985 E83.03798
G0 F6000 X113.65 Y150.419
G1 F1200 X116.35 Y153.119 E83.16498
G0 F6000 X116.35 Y152.554
G1 F1200 X113.65 Y149.854 E83.29198
G0 F6000 X113.65 Y149.288
G1 F1200 X116.35 Y151.988 E83.41898
G0 F6000 X116.35 Y151.422
G1 F1200 X113.65 Y148.722 E83.54598
G0 F6000 X113.65 Y148.157
G1 F1200 X116.35 Y150.856 E83.67295
G0 F6000 X116.35 Y150.291
G1 F1200 X113.65 Y147.591 E83.79995
G0 F6000 X113.65 Y147.025
G1 F1200 X116.35 Y149.725 E83.92695
G0 F6000 X116.35 Y149.159
G1 F1200 X113.65 Y146.46 E84.05393
G0 F6000 X113.65 Y145.894
G1 F1200 X116.35 Y148.594 E84.18093
G0 F6000 X116.35 Y148.028
G1 F1200 X113.65 Y145.328 E84.30793
G0 F6000 X113.65 Y144.763
G1 F1200 X116.35 Y147.462 E84.4349
G0 F6000 X116.35 Y146.897
G1 F1200 X113.65 Y144.197 E84.5619
G0 F6000 X113.65 Y143.631
G1 F1200 X116.35 Y146.331 E84.6889
G0 F6000 X116.35 Y145.765
G1 F1200 X113.65 Y143.066 E84.81588
G0 F6000 X113.65 Y142.5
G1 F1200 X116.35 Y145.2 E84.94288
G0 F6000 X116.35 Y144.634
G1 F1200 X113.65 Y141.934 E85.06988
G0 F6000 X113.65 Y141.369
G1 F1200 X116.35 Y144.068 E85.19686
G0 F6000 X116.35 Y143.503
G1 F1200 X113.65 Y140.803 E85.32386
G0 F6000 X113.65 Y140.237
G1 F1200 X116.35 Y142.937 E85.45086
G0 F6000 X116.35 Y142.371
G1 F1200 X113.65 Y139.671 E85.57785
G0 F6000 X113.65 Y139.106
G1 F1200 X116.35 Y141.806 E85.70485
G0 F6000 X116.35 Y141.24
G1 F1200 X113.65 Y138.54 E85.83185
G0 F6000 X113.65 Y137.974
G1 F1200 X116.35 Y140.674 E85.95885
G0 F6000 X116.35 Y140.108
G1 F1200 X113.65 Y137.409 E86.08583
G0 F6000 X113.65 Y136.843
G1 F1200 X116.35 Y139.543 E86.21283
G0 F6000 X116.35 Y138.977
G1 F1200 X113.65 Y136.277 E86.33983
G0 F6000 X113.65 Y135.712
G1 F1200 X116.787 Y138.848 E86.48736
G0 F6000 X117.352 Y138.848
G1 F1200 X113.65 Y135.146 E86.66149
G0 F6000 X113.65 Y134.58
G1 F1200 X117.918 Y138.848 E86.86225
G0 F6000 X118.484 Y138.848
G1 F1200 X113.65 Y134.015 E87.0896
G0 F6000 X113.65 Y133.449
G1 F1200 X119.049 Y138.848 E87.34355
G0 F6000 X119.615 Y138.848
G1 F1200 X113.65 Y132.883 E87.62413
G0 F6000 X113.65 Y132.318
G1 F1200 X120.181 Y138.848 E87.9313
G0 F6000 X120.746 Y138.848
G1 F1200 X113.65 Y131.752 E88.26507
G0 F6000 X113.65 Y131.186
G1 F1200 X121.312 Y138.848 E88.62547
G0 F6000 X121.878 Y138.848
G1 F1200 X113.65 Y130.621 E89.01247
G0 F6000 X113.65 Y130.055
G1 F1200 X122.444 Y138.848 E89.42609
G0 F6000 X123.009 Y138.848
G1 F1200 X113.65 Y129.489 E89.86631
G0 F6000 X113.65 Y128.923
G1 F1200 X123.575 Y138.848 E90.33315
G0 F6000 X124.141 Y138.848
G1 F1200 X113.65 Y128.358 E90.82659
G0 F6000 X113.65 Y127.792
G1 F1200 X124.706 Y138.848 E91.34663
G0 F6000 X125.272 Y138.848
G1 F1200 X113.65 Y127.226 E91.89329
G0 F6000 X113.65 Y126.661
G1 F1200 X125.838 Y138.848 E92.46655
G0 F6000 X126.403 Y138.848
G1 F1200 X113.704 Y126.149 E93.06388
G0 F6000 X114.27 Y126.149
G1 F1200 X126.969 Y138.848 E93.6612
G0 F6000 X127.535 Y138.848
