;FLAVOR:Marlin
;TIME:3899
;Filament used: 2.59263m
;Layer height: 0.24
;MINX:101.5
;MINY:131.229
;MINZ:0.2
;MAXX:198.5
;MAXY:172.83
;MAXZ:64.52
;Generated with Cura_SteamEngine 4.6.1
M140 S70
M105
M190 S70
M104 S225
M105
M109 S225
M82 ;absolute extrusion mode
M201 X500.00 Y500.00 Z100.00 E5000.00 ;Setup machine max acceleration
M203 X500.00 Y500.00 Z10.00 E50.00 ;Setup machine max feedrate
M204 P500.00 R1000.00 T500.00 ;Setup Print/Retract/Travel acceleration
M205 X8.00 Y8.00 Z0.40 E5.00 ;Setup Jerk
M220 S100 ;Reset Feedrate
M221 S100 ;Reset Flowrate

G28 ;Home

G92 E0 ;Reset Extruder
G1 Z2.0 F3000 ;Move Z Axis up
G1 X10.1 Y20 Z0.28 F5000.0 ;Move to start position
G1 X10.1 Y200.0 Z0.28 F1500.0 E15 ;Draw the first line
G1 X10.4 Y200.0 Z0.28 F5000.0 ;Move to side a little
G1 X10.4 Y20 Z0.28 F1500.0 E30 ;Draw the second line
G92 E0 ;Reset Extruder
G1 Z2.0 F3000 ;Move Z Axis up

G92 E0
G92 E0
G1 F2700 E-5
;LAYER_COUNT:270
;LAYER:0
M107
G0 F6000 X187.637 Y132.041 Z0.2
;TYPE:SKIRT
G1 F2700 E0
G1 F1200 X188.539 Y132.094 E0.03005
G1 X189.432 Y132.227 E0.06008
G1 X190.31 Y132.438 E0.09012
G1 X191.166 Y132.725 E0.12014
G1 X191.993 Y133.088 E0.15018
G1 X192.785 Y133.522 E0.18022
G1 X193.535 Y134.025 E0.21026
G1 X194.238 Y134.592 E0.2403
G1 X194.888 Y135.218 E0.27031
G1 X195.481 Y135.9 E0.30037
G1 X196.01 Y136.632 E0.33041
G1 X196.473 Y137.408 E0.36046
G1 X196.865 Y138.221 E0.39048
G1 X197.184 Y139.066 E0.42052
G1 X197.426 Y139.936 E0.45056
G1 X197.591 Y140.824 E0.4806
G1 X197.685 Y141.922 E0.51725
G1 X197.7 Y142.561 E0.53851
G1 X197.699 Y161.22 E1.15911
G1 X197.69 Y161.947 E1.18329
G1 X197.639 Y162.849 E1.21334
G1 X197.508 Y163.743 E1.24339
G1 X197.299 Y164.621 E1.27341
G1 X197.013 Y165.478 E1.30346
G1 X196.652 Y166.306 E1.33351
G1 X196.22 Y167.098 E1.36351
G1 X195.719 Y167.85 E1.39357
G1 X195.153 Y168.554 E1.42361
G1 X194.528 Y169.205 E1.45363
G1 X193.847 Y169.799 E1.48368
G1 X193.116 Y170.33 E1.51373
G1 X192.342 Y170.794 E1.54375
G1 X191.529 Y171.188 E1.57379
G1 X190.685 Y171.508 E1.60382
G1 X189.815 Y171.753 E1.63388
G1 X188.928 Y171.919 E1.66389
G1 X187.777 Y172.017 E1.70231
G1 X187.17 Y172.03 E1.72251
G1 X113.207 Y172.03 E4.18253
G1 X112.377 Y172.02 E4.21013
G1 X111.476 Y171.969 E4.24015
G1 X110.582 Y171.837 E4.27021
G1 X109.704 Y171.628 E4.30022
G1 X108.847 Y171.341 E4.33028
G1 X108.02 Y170.98 E4.3603
G1 X107.227 Y170.547 E4.39035
G1 X106.476 Y170.046 E4.42037
G1 X105.772 Y169.48 E4.45042
G1 X105.121 Y168.854 E4.48046
G1 X104.528 Y168.173 E4.51049
G1 X103.998 Y167.442 E4.54052
G1 X103.534 Y166.667 E4.57057
G1 X103.14 Y165.854 E4.60061
G1 X102.82 Y165.01 E4.63064
G1 X102.576 Y164.14 E4.66069
G1 X102.41 Y163.252 E4.69074
G1 X102.313 Y162.097 E4.72929
G1 X102.3 Y161.488 E4.74955
G1 X102.301 Y142.786 E5.37158
G1 X102.31 Y142.104 E5.39426
G1 X102.362 Y141.203 E5.42428
G1 X102.493 Y140.309 E5.45433
G1 X102.703 Y139.431 E5.48436
G1 X102.99 Y138.575 E5.51439
G1 X103.351 Y137.747 E5.54443
G1 X103.785 Y136.955 E5.57447
G1 X104.286 Y136.204 E5.60449
G1 X104.852 Y135.5 E5.63454
G1 X105.478 Y134.849 E5.66458
G1 X106.16 Y134.256 E5.69464
G1 X106.891 Y133.726 E5.72467
G1 X107.666 Y133.262 E5.75471
G1 X108.479 Y132.869 E5.78474
G1 X109.323 Y132.549 E5.81477
G1 X110.193 Y132.305 E5.84482
G1 X111.081 Y132.14 E5.87486
G1 X112.207 Y132.043 E5.91245
G1 X112.813 Y132.03 E5.93261
G1 X169.384 Y132.029 E7.81417
G1 X186.797 Y132.03 E8.39333
G1 X187.637 Y132.041 E8.42127
G0 F6000 X187.643 Y131.641
G1 F1200 X188.562 Y131.694 E8.45188
G1 X189.473 Y131.827 E8.48251
G1 X190.369 Y132.038 E8.51312
G1 X191.243 Y132.327 E8.54374
G1 X192.089 Y132.69 E8.57436
G1 X192.901 Y133.125 E8.605
G1 X193.671 Y133.629 E8.63561
G1 X194.395 Y134.198 E8.66623
G1 X195.067 Y134.827 E8.69685
G1 X195.682 Y135.513 E8.72749
G1 X196.234 Y136.249 E8.75809
G1 X196.721 Y137.03 E8.7887
G1 X197.139 Y137.851 E8.81934
G1 X197.483 Y138.705 E8.84997
G1 X197.752 Y139.585 E8.88057
G1 X197.944 Y140.485 E8.91118
G1 X198.057 Y141.399 E8.94181
G1 X198.085 Y141.91 E8.95883
G1 X198.095 Y142.231 E8.96951
G1 X198.1 Y142.561 E8.98049
G1 X198.099 Y161.225 E9.60126
G1 X198.09 Y161.952 E9.62544
G1 X198.039 Y162.871 E9.65605
G1 X197.908 Y163.783 E9.6867
G1 X197.698 Y164.679 E9.71731
G1 X197.412 Y165.554 E9.74792
G1 X197.051 Y166.401 E9.77855
G1 X196.617 Y167.213 E9.80917
G1 X196.115 Y167.985 E9.8398
G1 X195.547 Y168.71 E9.87043
G1 X194.919 Y169.383 E9.90105
G1 X194.235 Y169.999 E9.93166
G1 X193.5 Y170.553 E9.96228
G1 X192.72 Y171.042 E9.99289
G1 X191.9 Y171.461 E10.02352
G1 X191.047 Y171.807 E10.05414
G1 X190.167 Y172.078 E10.08476
G1 X189.267 Y172.271 E10.11538
G1 X188.353 Y172.386 E10.14602
G1 X187.788 Y172.417 E10.16484
G1 X187.17 Y172.43 E10.1854
G1 X113.207 Y172.43 E12.64542
G1 X112.372 Y172.42 E12.67319
G1 X111.453 Y172.368 E12.70381
G1 X110.542 Y172.237 E12.73442
G1 X109.646 Y172.027 E12.76503
G1 X108.771 Y171.74 E12.79565
G1 X107.924 Y171.378 E12.82629
G1 X107.112 Y170.944 E12.85691
G1 X106.341 Y170.442 E12.88751
G1 X105.616 Y169.874 E12.91815
G1 X104.943 Y169.245 E12.94878
G1 X104.328 Y168.561 E12.97938
G1 X103.774 Y167.826 E13.00999
G1 X103.286 Y167.045 E13.04062
G1 X102.867 Y166.225 E13.07125
G1 X102.521 Y165.372 E13.10186
G1 X102.251 Y164.492 E13.13248
G1 X102.058 Y163.591 E13.16313
G1 X101.944 Y162.678 E13.19373
G1 X101.913 Y162.107 E13.21275
G1 X101.9 Y161.488 E13.23334
G1 X101.901 Y142.781 E13.85554
G1 X101.91 Y142.099 E13.87822
G1 X101.962 Y141.18 E13.90884
G1 X102.094 Y140.269 E13.93946
G1 X102.304 Y139.372 E13.9701
G1 X102.591 Y138.498 E14.00069
G1 X102.953 Y137.651 E14.03133
G1 X103.387 Y136.839 E14.06195
G1 X103.89 Y136.068 E14.09257
G1 X104.458 Y135.344 E14.12318
G1 X105.087 Y134.671 E14.15382
G1 X105.772 Y134.056 E14.18443
G1 X106.507 Y133.502 E14.21505
G1 X107.288 Y133.014 E14.24568
G1 X108.108 Y132.596 E14.27629
G1 X108.961 Y132.25 E14.30691
G1 X109.842 Y131.98 E14.33755
G1 X110.742 Y131.787 E14.36817
G1 X111.655 Y131.673 E14.39877
G1 X112.195 Y131.644 E14.41676
G1 X112.813 Y131.63 E14.43732
G1 X169.384 Y131.629 E16.31888
G1 X186.797 Y131.63 E16.89803
G1 X187.643 Y131.641 E16.92617
G0 F6000 X187.648 Y131.241
G1 F1200 X188.585 Y131.295 E16.95739
G1 X189.513 Y131.428 E16.98857
G1 X190.427 Y131.639 E17.01977
G1 X191.319 Y131.928 E17.05096
G1 X192.184 Y132.292 E17.08217
G1 X193.014 Y132.728 E17.11335
G1 X193.804 Y133.233 E17.14454
G1 X194.549 Y133.803 E17.17574
G1 X195.242 Y134.435 E17.20693
G1 X195.878 Y135.124 E17.23812
G1 X196.454 Y135.864 E17.26931
G1 X196.964 Y136.651 E17.3005
G1 X197.406 Y137.479 E17.33172
G1 X197.776 Y138.341 E17.36292
G1 X198.07 Y139.231 E17.39409
G1 X198.288 Y140.143 E17.42528
G1 X198.428 Y141.071 E17.4565
G1 X198.485 Y141.897 E17.48403
G1 X198.495 Y142.218 E17.49472
G1 X198.5 Y142.561 E17.50613
G1 X198.499 Y161.23 E18.12706
G1 X198.49 Y161.957 E18.15124
G1 X198.439 Y162.894 E18.18245
G1 X198.307 Y163.822 E18.21363
G1 X198.098 Y164.736 E18.24481
G1 X197.811 Y165.629 E18.27601
G1 X197.449 Y166.495 E18.30723
G1 X197.015 Y167.326 E18.33841
G1 X196.511 Y168.117 E18.36961
G1 X195.942 Y168.862 E18.40078
G1 X195.311 Y169.557 E18.43201
G1 X194.624 Y170.195 E18.46319
G1 X193.885 Y170.772 E18.49437
G1 X193.099 Y171.284 E18.52557
G1 X192.273 Y171.727 E18.55675
G1 X191.411 Y172.099 E18.58797
G1 X190.522 Y172.395 E18.61914
G1 X189.61 Y172.615 E18.65034
G1 X188.683 Y172.756 E18.68153
G1 X187.799 Y172.817 E18.711
G1 X187.17 Y172.83 E18.73193
G1 X113.207 Y172.83 E21.19194
G1 X112.367 Y172.82 E21.21989
G1 X111.431 Y172.768 E21.25106
G1 X110.502 Y172.636 E21.28227
G1 X109.588 Y172.426 E21.31347
G1 X108.695 Y172.139 E21.34466
G1 X107.83 Y171.776 E21.37586
G1 X106.999 Y171.342 E21.40705
G1 X106.208 Y170.838 E21.43824
G1 X105.463 Y170.268 E21.46944
G1 X104.769 Y169.637 E21.50064
G1 X104.132 Y168.95 E21.5318
G1 X103.555 Y168.21 E21.56301
G1 X103.043 Y167.424 E21.59421
G1 X102.6 Y166.597 E21.62541
G1 X102.229 Y165.736 E21.65659
G1 X101.933 Y164.846 E21.68779
G1 X101.714 Y163.934 E21.71899
G1 X101.573 Y163.007 E21.75017
G1 X101.513 Y162.118 E21.77981
G1 X101.5 Y161.488 E21.80077
G1 X101.501 Y142.776 E22.42313
G1 X101.51 Y142.094 E22.44582
G1 X101.562 Y141.157 E22.47703
G1 X101.694 Y140.229 E22.5082
G1 X101.905 Y139.315 E22.5394
G1 X102.192 Y138.422 E22.5706
G1 X102.555 Y137.557 E22.6018
G1 X102.99 Y136.726 E22.633
G1 X103.494 Y135.936 E22.66417
G1 X104.064 Y135.191 E22.69537
G1 X104.695 Y134.497 E22.72656
G1 X105.383 Y133.859 E22.75777
G1 X106.123 Y133.283 E22.78896
G1 X106.909 Y132.771 E22.82016
G1 X107.736 Y132.329 E22.85135
G1 X108.597 Y131.958 E22.88253
G1 X109.487 Y131.662 E22.91373
G1 X110.399 Y131.443 E22.94492
G1 X111.326 Y131.303 E22.9761
G1 X112.183 Y131.244 E23.00467
G1 X112.813 Y131.23 E23.02563
G1 X169.384 Y131.229 E24.90719
G1 X186.797 Y131.23 E25.48635
G1 X187.648 Y131.241 E25.51466
G1 F2700 E20.51466
;MESH:PhoneHolder_Front v2.stl
G0 F6000 X187.086 Y141.564
G0 X187.086 Y142.644
G0 X186.9 Y161.23
;TYPE:WALL-INNER
G1 F2700 E25.51466
G1 F1200 X113.1 Y161.23 E27.96926
G1 X113.1 Y142.83 E28.58124
G1 X169.384 Y142.829 E30.45326
G1 X186.9 Y142.83 E31.03584
G1 X186.9 Y161.23 E31.64783
G0 F6000 X187.3 Y161.63
;TYPE:WALL-OUTER
G1 F1200 X112.7 Y161.63 E34.12903
G1 X112.7 Y142.43 E34.76763
G1 X169.384 Y142.429 E36.65295
G1 X187.3 Y142.43 E37.24883
G1 X187.3 Y161.63 E37.88743
G0 F6000 X187.03 Y161.36
G0 X186.79 Y160.84
G0 X186.51 Y160.84
;TYPE:SKIN
G1 F1200 X113.49 Y160.84 E40.31608
G1 X113.49 Y143.22 E40.90213
G1 X169.384 Y143.219 E42.76117
G1 X186.51 Y143.22 E43.33078
G1 X186.51 Y160.84 E43.91683
G0 F6000 X186.79 Y160.84
G0 X186.79 Y143.923
G0 X186.349 Y143.923
G1 F1200 X185.806 Y143.38 E43.94237
G0 F6000 X185.24 Y143.38
G1 F1200 X186.349 Y144.488 E43.99451
G0 F6000 X186.349 Y145.054
G1 F1200 X184.675 Y143.38 E44.07325
G0 F6000 X184.109 Y143.38
G1 F1200 X186.349 Y145.62 E44.17861
G0 F6000 X186.349 Y146.185
G1 F1200 X183.543 Y143.38 E44.31057
G0 F6000 X182.978 Y143.38
G1 F1200 X186.349 Y146.751 E44.46913
G0 F6000 X186.349 Y147.317
G1 F1200 X182.412 Y143.38 E44.65432
G0 F6000 X181.846 Y143.38
G1 F1200 X186.349 Y147.882 E44.8661
G0 F6000 X186.349 Y148.448
G1 F1200 X181.28 Y143.38 E45.10451
G0 F6000 X180.715 Y143.38
G1 F1200 X186.349 Y149.014 E45.36951
G0 F6000 X186.349 Y149.579
G1 F1200 X180.149 Y143.38 E45.66112
G0 F6000 X179.583 Y143.38
G1 F1200 X186.349 Y150.145 E45.97935
G0 F6000 X186.349 Y150.711
G1 F1200 X179.018 Y143.38 E46.32418
G0 F6000 X178.452 Y143.38
G1 F1200 X186.349 Y151.277 E46.69563
G0 F6000 X186.349 Y151.842
G1 F1200 X177.886 Y143.38 E47.09368
G0 F6000 X177.32 Y143.379
G1 F1200 X186.349 Y152.408 E47.51837
G0 F6000 X186.349 Y152.974
G1 F1200 X176.754 Y143.379 E47.96969
G0 F6000 X176.189 Y143.379
G1 F1200 X186.349 Y153.539 E48.44759
G0 F6000 X186.349 Y154.105
G1 F1200 X175.623 Y143.379 E48.95211
G0 F6000 X175.057 Y143.379
G1 F1200 X186.349 Y154.671 E49.48325
G0 F6000 X186.349 Y155.236
G1 F1200 X174.492 Y143.379 E50.04096
G0 F6000 X173.926 Y143.379
G1 F1200 X186.349 Y155.802 E50.6253
G0 F6000 X186.349 Y156.368
G1 F1200 X173.36 Y143.379 E51.23627
G0 F6000 X172.794 Y143.379
G1 F1200 X186.349 Y156.933 E51.87383
G0 F6000 X186.349 Y157.499
G1 F1200 X172.229 Y143.379 E52.53799
G0 F6000 X171.663 Y143.379
G1 F1200 X186.349 Y158.065 E53.22877
G0 F6000 X186.349 Y158.63
G1 F1200 X171.097 Y143.379 E53.94616
G0 F6000 X170.532 Y143.379
G1 F1200 X186.349 Y159.196 E54.69014
G0 F6000 X186.349 Y159.762
G1 F1200 X169.966 Y143.379 E55.46075
G0 F6000 X169.4 Y143.379
G1 F1200 X186.349 Y160.327 E56.25795
G0 F6000 X186.135 Y160.679
G1 F1200 X168.835 Y143.379 E57.07169
G0 F6000 X168.269 Y143.379
G1 F1200 X185.569 Y160.679 E57.88543
G0 F6000 X185.003 Y160.679
G1 F1200 X167.703 Y143.379 E58.69917
G0 F6000 X167.138 Y143.379
G1 F1200 X184.438 Y160.679 E59.51291
G0 F6000 X183.872 Y160.679
G1 F1200 X166.572 Y143.379 E60.32665
G0 F6000 X166.006 Y143.379
G1 F1200 X183.306 Y160.679 E61.14039
G0 F6000 X182.741 Y160.679
G1 F1200 X165.441 Y143.379 E61.95413
G0 F6000 X164.875 Y143.379
G1 F1200 X182.175 Y160.679 E62.76786
G0 F6000 X181.609 Y160.679
G1 F1200 X164.309 Y143.379 E63.5816
G0 F6000 X163.744 Y143.379
G1 F1200 X181.044 Y160.679 E64.39534
G0 F6000 X180.478 Y160.679
G1 F1200 X163.178 Y143.379 E65.20908
G0 F6000 X162.612 Y143.379
G1 F1200 X179.912 Y160.679 E66.02282
G0 F6000 X179.347 Y160.679
G1 F1200 X162.046 Y143.379 E66.83658
G0 F6000 X161.481 Y143.379
G1 F1200 X178.781 Y160.679 E67.65032
G0 F6000 X178.215 Y160.679
G1 F1200 X160.915 Y143.379 E68.46406
G0 F6000 X160.349 Y143.379
G1 F1200 X177.649 Y160.679 E69.2778
G0 F6000 X177.084 Y160.679
G1 F1200 X159.784 Y143.379 E70.09154
G0 F6000 X159.218 Y143.379
G1 F1200 X176.518 Y160.679 E70.90528
G0 F6000 X175.952 Y160.679
G1 F1200 X158.652 Y143.379 E71.71902
G0 F6000 X158.087 Y143.379
G1 F1200 X175.387 Y160.679 E72.53276
G0 F6000 X174.821 Y160.679
G1 F1200 X157.521 Y143.379 E73.34649
G0 F6000 X156.955 Y143.379
G1 F1200 X174.255 Y160.679 E74.16023
G0 F6000 X173.69 Y160.679
G1 F1200 X156.39 Y143.379 E74.97397
G0 F6000 X155.824 Y143.379
G1 F1200 X173.124 Y160.679 E75.78771
G0 F6000 X172.558 Y160.679
G1 F1200 X155.258 Y143.379 E76.60145
G0 F6000 X154.693 Y143.379
G1 F1200 X171.993 Y160.679 E77.41519
G0 F6000 X171.427 Y160.679
G1 F1200 X154.127 Y143.379 E78.22893
G0 F6000 X153.561 Y143.379
G1 F1200 X170.861 Y160.679 E79.04267
G0 F6000 X170.296 Y160.679
G1 F1200 X152.995 Y143.379 E79.85643
G0 F6000 X152.43 Y143.379
G1 F1200 X169.73 Y160.679 E80.67017
G0 F6000 X169.164 Y160.679
G1 F1200 X151.864 Y143.379 E81.48391
G0 F6000 X151.298 Y143.379
G1 F1200 X168.599 Y160.679 E82.29767
G0 F6000 X168.033 Y160.679
G1 F1200 X150.733 Y143.379 E83.11141
G0 F6000 X150.167 Y143.379
G1 F1200 X167.467 Y160.679 E83.92515
G0 F6000 X166.901 Y160.679
G1 F1200 X149.601 Y143.379 E84.73889
G0 F6000 X149.036 Y143.379
G1 F1200 X166.336 Y160.679 E85.55263
G0 F6000 X165.77 Y160.679
G1 F1200 X148.47 Y143.379 E86.36637
G0 F6000 X147.904 Y143.379
G1 F1200 X165.204 Y160.679 E87.1801
G0 F6000 X164.639 Y160.679
G1 F1200 X147.339 Y143.379 E87.99384
G0 F6000 X146.773 Y143.379
G1 F1200 X164.073 Y160.679 E88.80758
G0 F6000 X163.507 Y160.679
G1 F1200 X146.207 Y143.379 E89.62132
G0 F6000 X145.642 Y143.379
G1 F1200 X162.942 Y160.679 E90.43506
G0 F6000 X162.376 Y160.679
G1 F1200 X145.076 Y143.379 E91.2488
G0 F6000 X144.51 Y143.379
G1 F1200 X161.81 Y160.679 E92.06254
G0 F6000 X161.245 Y160.679
G1 F1200 X143.945 Y143.379 E92.87628
G0 F6000 X143.379 Y143.379
G1 F1200 X160.679 Y160.679 E93.69002
G0 F6000 X160.113 Y160.679
G1 F1200 X142.813 Y143.379 E94.50375
G0 F6000 X142.247 Y143.379
G1 F1200 X159.548 Y160.679 E95.31752
G0 F6000 X158.982 Y160.679
G1 F1200 X141.682 Y143.379 E96.13126
G0 F6000 X141.116 Y143.379
G1 F1200 X158.416 Y160.679 E96.945
G0 F6000 X157.85 Y160.679
G1 F1200 X140.55 Y143.379 E97.75873
G0 F6000 X139.985 Y143.379
G1 F1200 X157.285 Y160.679 E98.57247
G0 F6000 X156.719 Y160.679
G1 F1200 X139.419 Y143.379 E99.38621
G0 F6000 X138.853 Y143.379
G1 F1200 X156.153 Y160.679 E100.19995
G0 F6000 X155.588 Y160.679
G1 F1200 X138.288 Y143.379 E101.01369
G0 F6000 X137.722 Y143.379
G1 F1200 X155.022 Y160.679 E101.82743
G0 F6000 X154.456 Y160.679
G1 F1200 X137.156 Y143.379 E102.64117
G0 F6000 X136.591 Y143.379
G1 F1200 X153.891 Y160.679 E103.45491
G0 F6000 X153.325 Y160.679
G1 F1200 X136.025 Y143.379 E104.26865
G0 F6000 X135.459 Y143.379
G1 F1200 X152.759 Y160.679 E105.08238
G0 F6000 X152.194 Y160.679
G1 F1200 X134.894 Y143.379 E105.89612
G0 F6000 X134.328 Y143.379
G1 F1200 X151.628 Y160.679 E106.70986
G0 F6000 X151.062 Y160.679
G1 F1200 X133.762 Y143.379 E107.5236
G0 F6000 X133.196 Y143.379
G1 F1200 X150.497 Y160.679 E108.33736
G0 F6000 X149.931 Y160.679
G1 F1200 X132.631 Y143.379 E109.1511
G0 F6000 X132.065 Y143.379
G1 F1200 X149.365 Y160.679 E109.96484
G0 F6000 X148.8 Y160.679
G1 F1200 X131.499 Y143.379 E110.7786
G0 F6000 X130.934 Y143.379
G1 F1200 X148.234 Y160.679 E111.59234
G0 F6000 X147.668 Y160.679
G1 F1200 X130.368 Y143.379 E112.40608
G0 F6000 X129.802 Y143.379
G1 F1200 X147.102 Y160.679 E113.21982
G0 F6000 X146.537 Y160.679
G1 F1200 X129.237 Y143.379 E114.03356
G0 F6000 X128.671 Y143.379
G1 F1200 X145.971 Y160.679 E114.8473
G0 F6000 X145.405 Y160.679
