;FLAVOR:Marlin
;TIME:2961
;Filament used: 4.29838m
;Layer height: 0.24
;MINX:101.5
;MINY:112.189
;MINZ:0.2
;MAXX:198.5
;MAXY:187.811
;MAXZ:7.88
;Generated with Cura_SteamEngine 4.6.1
M140 S70
M105
M190 S70
M104 S225
M105
M109 S225
M82 ;absolute extrusion mode
M201 X500.00 Y500.00 Z100.00 E5000.00 ;Setup machine max acceleration
M203 X500.00 Y500.00 Z10.00 E50.00 ;Setup machine max feedrate
M204 P500.00 R1000.00 T500.00 ;Setup Print/Retract/Travel acceleration
M205 X8.00 Y8.00 Z0.40 E5.00 ;Setup Jerk
M220 S100 ;Reset Feedrate
M221 S100 ;Reset Flowrate

G28 ;Home

G92 E0 ;Reset Extruder
G1 Z2.0 F3000 ;Move Z Axis up
G1 X10.1 Y20 Z0.28 F5000.0 ;Move to start position
G1 X10.1 Y200.0 Z0.28 F1500.0 E15 ;Draw the first line
G1 X10.4 Y200.0 Z0.28 F5000.0 ;Move to side a little
G1 X10.4 Y20 Z0.28 F1500.0 E30 ;Draw the second line
G92 E0 ;Reset Extruder
G1 Z2.0 F3000 ;Move Z Axis up

G92 E0
G92 E0
G1 F2700 E-5
;LAYER_COUNT:33
;LAYER:0
M107
G0 F6000 X187.637 Y113 Z0.2
;TYPE:SKIRT
G1 F2700 E0
G1 F1200 X188.539 Y113.053 E0.03005
G1 X189.432 Y113.185 E0.06008
G1 X190.31 Y113.396 E0.09011
G1 X191.166 Y113.684 E0.12015
G1 X191.993 Y114.046 E0.15018
G1 X192.785 Y114.481 E0.18023
G1 X193.536 Y114.983 E0.21027
G1 X194.239 Y115.55 E0.24031
G1 X194.889 Y116.177 E0.27035
G1 X195.481 Y116.859 E0.30039
G1 X196.011 Y117.59 E0.33042
G1 X196.473 Y118.366 E0.36046
G1 X196.866 Y119.179 E0.39049
G1 X197.184 Y120.024 E0.42052
G1 X197.427 Y120.894 E0.45056
G1 X197.592 Y121.782 E0.4806
G1 X197.687 Y122.912 E0.51832
G1 X197.7 Y123.519 E0.53851
G1 X197.699 Y176.201 E2.29073
G1 X197.69 Y176.928 E2.31491
G1 X197.639 Y177.83 E2.34496
G1 X197.508 Y178.724 E2.37501
G1 X197.299 Y179.602 E2.40503
G1 X197.013 Y180.459 E2.43508
G1 X196.652 Y181.287 E2.46512
G1 X196.22 Y182.079 E2.49512
G1 X195.719 Y182.831 E2.52518
G1 X195.153 Y183.535 E2.55522
G1 X194.528 Y184.186 E2.58524
G1 X193.847 Y184.78 E2.61529
G1 X193.116 Y185.311 E2.64534
G1 X192.342 Y185.775 E2.67536
G1 X191.529 Y186.169 E2.70541
G1 X190.685 Y186.489 E2.73543
G1 X189.815 Y186.734 E2.76549
G1 X188.928 Y186.9 E2.79551
G1 X187.777 Y186.998 E2.83393
G1 X187.17 Y187.011 E2.85412
G1 X113.207 Y187.011 E5.31414
G1 X112.377 Y187.001 E5.34175
G1 X111.476 Y186.95 E5.37176
G1 X110.582 Y186.818 E5.40182
G1 X109.704 Y186.609 E5.43184
G1 X108.847 Y186.322 E5.4619
G1 X108.02 Y185.961 E5.49191
G1 X107.227 Y185.528 E5.52196
G1 X106.476 Y185.027 E5.55199
G1 X105.772 Y184.461 E5.58203
G1 X105.121 Y183.835 E5.61207
G1 X104.528 Y183.154 E5.6421
G1 X103.998 Y182.423 E5.67214
G1 X103.534 Y181.648 E5.70218
G1 X103.14 Y180.835 E5.73223
G1 X102.82 Y179.991 E5.76225
G1 X102.576 Y179.121 E5.7923
G1 X102.41 Y178.233 E5.82235
G1 X102.313 Y177.078 E5.8609
G1 X102.3 Y176.469 E5.88116
G1 X102.301 Y123.725 E7.63543
G1 X102.31 Y123.06 E7.65755
G1 X102.362 Y122.158 E7.6876
G1 X102.494 Y121.265 E7.71763
G1 X102.704 Y120.387 E7.74765
G1 X102.991 Y119.53 E7.77771
G1 X103.353 Y118.703 E7.80774
G1 X103.786 Y117.911 E7.83776
G1 X104.288 Y117.16 E7.8678
G1 X104.855 Y116.456 E7.89787
G1 X105.481 Y115.806 E7.92788
G1 X106.162 Y115.213 E7.95792
G1 X106.894 Y114.683 E7.98798
G1 X107.669 Y114.22 E8.018
G1 X108.482 Y113.827 E8.04804
G1 X109.327 Y113.507 E8.07809
G1 X110.196 Y113.264 E8.1081
G1 X111.084 Y113.098 E8.13815
G1 X112.223 Y113.002 E8.17617
G1 X112.83 Y112.989 E8.19636
G1 X186.793 Y112.989 E10.65638
G1 X186.939 Y112.99 E10.66123
G1 X187.637 Y113 E10.68445
G0 F6000 X187.643 Y112.6
G1 F1200 X188.562 Y112.653 E10.71507
G1 X189.473 Y112.786 E10.74569
G1 X190.369 Y112.997 E10.77631
G1 X191.243 Y113.285 E10.80691
G1 X192.09 Y113.648 E10.83756
G1 X192.901 Y114.083 E10.86817
G1 X193.671 Y114.587 E10.89878
G1 X194.395 Y115.156 E10.92941
G1 X195.067 Y115.786 E10.96005
G1 X195.682 Y116.471 E10.99066
G1 X196.235 Y117.207 E11.02128
G1 X196.722 Y117.988 E11.0519
G1 X197.139 Y118.809 E11.08252
G1 X197.484 Y119.663 E11.11316
G1 X197.753 Y120.543 E11.14376
G1 X197.945 Y121.444 E11.1744
G1 X198.058 Y122.357 E11.205
G1 X198.087 Y122.901 E11.22312
G1 X198.1 Y123.519 E11.24368
G1 X198.099 Y176.206 E12.99606
G1 X198.09 Y176.933 E13.02024
G1 X198.039 Y177.852 E13.05085
G1 X197.908 Y178.764 E13.0815
G1 X197.698 Y179.66 E13.1121
G1 X197.412 Y180.535 E13.14272
G1 X197.051 Y181.382 E13.17335
G1 X196.617 Y182.194 E13.20397
G1 X196.115 Y182.966 E13.2346
G1 X195.547 Y183.691 E13.26523
G1 X194.919 Y184.364 E13.29585
G1 X194.235 Y184.98 E13.32646
G1 X193.5 Y185.534 E13.35707
G1 X192.72 Y186.023 E13.38769
G1 X191.9 Y186.442 E13.41832
G1 X191.047 Y186.788 E13.44894
G1 X190.167 Y187.059 E13.47956
G1 X189.267 Y187.252 E13.51018
G1 X188.353 Y187.367 E13.54082
G1 X187.788 Y187.398 E13.55964
G1 X187.17 Y187.411 E13.5802
G1 X113.207 Y187.411 E16.04022
G1 X112.372 Y187.401 E16.06799
G1 X111.453 Y187.349 E16.0986
G1 X110.542 Y187.218 E16.12922
G1 X109.646 Y187.008 E16.15982
G1 X108.771 Y186.721 E16.19045
G1 X107.924 Y186.359 E16.22109
G1 X107.112 Y185.925 E16.25171
G1 X106.341 Y185.423 E16.28231
G1 X105.616 Y184.855 E16.31295
G1 X104.943 Y184.226 E16.34358
G1 X104.328 Y183.542 E16.37418
G1 X103.774 Y182.807 E16.40479
G1 X103.286 Y182.026 E16.43542
G1 X102.867 Y181.206 E16.46605
G1 X102.521 Y180.353 E16.49666
G1 X102.251 Y179.473 E16.52728
G1 X102.058 Y178.572 E16.55793
G1 X101.944 Y177.659 E16.58853
G1 X101.913 Y177.088 E16.60755
G1 X101.9 Y176.469 E16.62814
G1 X101.901 Y123.72 E18.38258
G1 X101.91 Y123.055 E18.4047
G1 X101.962 Y122.135 E18.43535
G1 X102.094 Y121.224 E18.46596
G1 X102.305 Y120.328 E18.49658
G1 X102.592 Y119.453 E18.52721
G1 X102.955 Y118.607 E18.55783
G1 X103.389 Y117.795 E18.58845
G1 X103.892 Y117.024 E18.61907
G1 X104.461 Y116.3 E18.6497
G1 X105.089 Y115.628 E18.68029
G1 X105.774 Y115.012 E18.71093
G1 X106.51 Y114.459 E18.74155
G1 X107.291 Y113.971 E18.77218
G1 X108.111 Y113.553 E18.80279
G1 X108.965 Y113.208 E18.83342
G1 X109.845 Y112.938 E18.86404
G1 X110.745 Y112.746 E18.89465
G1 X111.659 Y112.632 E18.92528
G1 X112.212 Y112.602 E18.9437
G1 X112.83 Y112.589 E18.96426
G1 X186.793 Y112.589 E21.42428
G1 X186.945 Y112.59 E21.42934
G1 X187.643 Y112.6 E21.45255
G0 F6000 X187.649 Y112.2
G1 F1200 X188.585 Y112.254 E21.48374
G1 X189.513 Y112.386 E21.51491
G1 X190.427 Y112.598 E21.54612
G1 X191.319 Y112.887 E21.57731
G1 X192.184 Y113.25 E21.60851
G1 X193.014 Y113.686 E21.63969
G1 X193.805 Y114.191 E21.6709
G1 X194.549 Y114.762 E21.7021
G1 X195.242 Y115.394 E21.73329
G1 X195.879 Y116.082 E21.76448
G1 X196.454 Y116.823 E21.79567
G1 X196.965 Y117.609 E21.82685
G1 X197.407 Y118.437 E21.85807
G1 X197.776 Y119.299 E21.88926
G1 X198.071 Y120.189 E21.92044
G1 X198.289 Y121.101 E21.95163
G1 X198.429 Y122.029 E21.98285
G1 X198.487 Y122.89 E22.01155
G1 X198.5 Y123.519 E22.03247
G1 X198.499 Y176.211 E23.78502
G1 X198.49 Y176.938 E23.8092
G1 X198.439 Y177.875 E23.84041
G1 X198.307 Y178.803 E23.87159
G1 X198.098 Y179.717 E23.90277
G1 X197.811 Y180.61 E23.93397
G1 X197.449 Y181.476 E23.96519
G1 X197.015 Y182.307 E23.99637
G1 X196.511 Y183.098 E24.02756
G1 X195.942 Y183.843 E24.05874
G1 X195.311 Y184.538 E24.08996
G1 X194.624 Y185.176 E24.12115
G1 X193.885 Y185.753 E24.15233
G1 X193.099 Y186.265 E24.18353
G1 X192.273 Y186.708 E24.21471
G1 X191.411 Y187.08 E24.24593
G1 X190.522 Y187.376 E24.2771
G1 X189.61 Y187.596 E24.3083
G1 X188.683 Y187.737 E24.33949
G1 X187.799 Y187.798 E24.36896
G1 X187.17 Y187.811 E24.38988
G1 X113.207 Y187.811 E26.8499
G1 X112.367 Y187.801 E26.87784
G1 X111.431 Y187.749 E26.90902
G1 X110.502 Y187.617 E26.94023
G1 X109.588 Y187.407 E26.97142
G1 X108.695 Y187.12 E27.00262
G1 X107.83 Y186.757 E27.03382
G1 X106.999 Y186.323 E27.065
G1 X106.208 Y185.819 E27.0962
G1 X105.463 Y185.249 E27.1274
G1 X104.769 Y184.618 E27.15859
G1 X104.132 Y183.931 E27.18976
G1 X103.555 Y183.191 E27.22097
G1 X103.043 Y182.405 E27.25217
G1 X102.6 Y181.578 E27.28337
G1 X102.229 Y180.717 E27.31455
G1 X101.933 Y179.827 E27.34575
G1 X101.714 Y178.915 E27.37694
G1 X101.573 Y177.988 E27.40813
G1 X101.513 Y177.099 E27.43777
G1 X101.5 Y176.469 E27.45872
G1 X101.501 Y123.714 E29.21336
G1 X101.51 Y123.049 E29.23548
G1 X101.563 Y122.113 E29.26666
G1 X101.695 Y121.184 E29.29787
G1 X101.906 Y120.27 E29.32907
G1 X102.194 Y119.378 E29.36025
G1 X102.557 Y118.513 E29.39145
G1 X102.992 Y117.682 E29.42265
G1 X103.496 Y116.892 E29.45381
G1 X104.066 Y116.147 E29.48501
G1 X104.698 Y115.453 E29.51623
G1 X105.386 Y114.816 E29.54742
G1 X106.126 Y114.24 E29.57861
G1 X106.912 Y113.728 E29.60981
G1 X107.739 Y113.286 E29.64099
G1 X108.601 Y112.916 E29.67219
G1 X109.491 Y112.62 E29.70339
G1 X110.403 Y112.402 E29.73458
G1 X111.33 Y112.261 E29.76576
G1 X112.201 Y112.202 E29.7948
G1 X112.83 Y112.189 E29.81573
G1 X186.793 Y112.189 E32.27574
G1 X186.951 Y112.19 E32.281
G1 X187.649 Y112.2 E32.30422
G1 F2700 E27.30422
;MESH:PhoneHolder_BackSupport.stl
G0 F6000 X186.69 Y122.524
G0 X186.69 Y123.999
G0 X186.718 Y176.029
G0 X113.1 Y176.211
;TYPE:WALL-INNER
G1 F2700 E32.30422
G1 F1200 X113.1 Y123.789 E34.04778
G1 X186.9 Y123.789 E36.50238
G1 X186.9 Y176.211 E38.24594
G1 X113.1 Y176.211 E40.70054
G0 F6000 X112.7 Y176.611
;TYPE:WALL-OUTER
G1 F1200 X112.7 Y123.389 E42.47071
G1 X187.3 Y123.389 E44.95192
G1 X187.3 Y176.611 E46.72209
G1 X112.7 Y176.611 E49.20329
G0 F6000 X112.97 Y176.341
G0 X113.21 Y175.821
G0 X113.49 Y175.821
;TYPE:SKIN
G1 F1200 X113.49 Y124.179 E50.92091
G1 X186.51 Y124.179 E53.34957
G1 X186.51 Y175.821 E55.06719
G1 X113.49 Y175.821 E57.49584
G0 F6000 X114 Y175.66
G1 F1200 X113.649 Y175.309 E57.51235
G0 F6000 X113.649 Y174.743
G1 F1200 X114.566 Y175.66 E57.55549
G0 F6000 X115.131 Y175.66
G1 F1200 X113.649 Y174.178 E57.62519
G0 F6000 X113.649 Y173.612
G1 F1200 X115.697 Y175.66 E57.72153
G0 F6000 X116.263 Y175.66
G1 F1200 X113.649 Y173.046 E57.84448
G0 F6000 X113.649 Y172.481
G1 F1200 X116.828 Y175.66 E57.99401
G0 F6000 X117.394 Y175.66
G1 F1200 X113.649 Y171.915 E58.17016
G0 F6000 X113.649 Y171.349
G1 F1200 X117.96 Y175.66 E58.37294
G0 F6000 X118.525 Y175.66
G1 F1200 X113.649 Y170.783 E58.60232
G0 F6000 X113.649 Y170.218
G1 F1200 X119.091 Y175.66 E58.85829
G0 F6000 X119.657 Y175.66
G1 F1200 X113.649 Y169.652 E59.14089
G0 F6000 X113.649 Y169.086
G1 F1200 X120.223 Y175.66 E59.45011
G0 F6000 X120.788 Y175.66
G1 F1200 X113.649 Y168.521 E59.78591
G0 F6000 X113.649 Y167.955
G1 F1200 X121.354 Y175.66 E60.14833
G0 F6000 X121.92 Y175.66
G1 F1200 X113.649 Y167.389 E60.53737
G0 F6000 X113.649 Y166.824
G1 F1200 X122.485 Y175.66 E60.95299
G0 F6000 X123.051 Y175.66
G1 F1200 X113.649 Y166.258 E61.39523
G0 F6000 X113.649 Y165.692
G1 F1200 X123.617 Y175.66 E61.86409
G0 F6000 X124.182 Y175.66
G1 F1200 X113.649 Y165.127 E62.35953
G0 F6000 X113.649 Y164.561
G1 F1200 X124.748 Y175.66 E62.8816
G0 F6000 X125.314 Y175.66
G1 F1200 X113.649 Y163.995 E63.43028
G0 F6000 X113.649 Y163.43
G1 F1200 X125.879 Y175.66 E64.00554
G0 F6000 X126.445 Y175.66
G1 F1200 X113.649 Y162.864 E64.60743
G0 F6000 X113.649 Y162.298
G1 F1200 X127.011 Y175.66 E65.23594
G0 F6000 X127.576 Y175.66
G1 F1200 X113.649 Y161.732 E65.89104
G0 F6000 X113.649 Y161.167
G1 F1200 X128.142 Y175.66 E66.57275
G0 F6000 X128.708 Y175.66
G1 F1200 X113.649 Y160.601 E67.28108
G0 F6000 X113.649 Y160.035
G1 F1200 X129.273 Y175.66 E68.01601
G0 F6000 X129.839 Y175.66
G1 F1200 X113.649 Y159.47 E68.77753
G0 F6000 X113.649 Y158.904
G1 F1200 X130.405 Y175.66 E69.56569
G0 F6000 X130.971 Y175.66
G1 F1200 X113.649 Y158.338 E70.38046
G0 F6000 X113.649 Y157.773
G1 F1200 X131.536 Y175.66 E71.22181
G0 F6000 X132.102 Y175.66
G1 F1200 X113.649 Y157.207 E72.08978
G0 F6000 X113.649 Y156.641
G1 F1200 X132.668 Y175.66 E72.98438
G0 F6000 X133.233 Y175.66
G1 F1200 X113.649 Y156.076 E73.90555
G0 F6000 X113.649 Y155.51
G1 F1200 X133.799 Y175.66 E74.85334
G0 F6000 X134.365 Y175.66
G1 F1200 X113.649 Y154.944 E75.82776
G0 F6000 X113.649 Y154.379
G1 F1200 X134.93 Y175.66 E76.82875
G0 F6000 X135.496 Y175.66
G1 F1200 X113.649 Y153.813 E77.85637
G0 F6000 X113.649 Y153.247
G1 F1200 X136.062 Y175.66 E78.91061
G0 F6000 X136.627 Y175.66
G1 F1200 X113.649 Y152.682 E79.99142
G0 F6000 X113.649 Y152.116
G1 F1200 X137.193 Y175.66 E81.09886
G0 F6000 X137.759 Y175.66
G1 F1200 X113.649 Y151.55 E82.23292
G0 F6000 X113.649 Y150.984
G1 F1200 X138.324 Y175.66 E83.39358
G0 F6000 X138.89 Y175.66
G1 F1200 X113.649 Y150.419 E84.58084
G0 F6000 X113.649 Y149.853
G1 F1200 X139.456 Y175.66 E85.79472
G0 F6000 X140.021 Y175.66
G1 F1200 X113.649 Y149.287 E87.0352
G0 F6000 X113.649 Y148.722
G1 F1200 X140.587 Y175.66 E88.30228
G0 F6000 X141.153 Y175.66
G1 F1200 X113.649 Y148.156 E89.59599
G0 F6000 X113.649 Y147.59
G1 F1200 X141.719 Y175.66 E90.91631
G0 F6000 X142.284 Y175.66
G1 F1200 X113.649 Y147.025 E92.26322
G0 F6000 X113.649 Y146.459
G1 F1200 X142.85 Y175.66 E93.63674
G0 F6000 X143.416 Y175.66
G1 F1200 X113.649 Y145.893 E95.03689
G0 F6000 X113.649 Y145.328
G1 F1200 X143.981 Y175.66 E96.46361
G0 F6000 X144.547 Y175.66
G1 F1200 X113.649 Y144.762 E97.91696
G0 F6000 X113.649 Y144.196
G1 F1200 X145.113 Y175.66 E99.39693
G0 F6000 X145.678 Y175.66
G1 F1200 X113.649 Y143.631 E100.90348
G0 F6000 X113.649 Y143.065
G1 F1200 X146.244 Y175.66 E102.43665
G0 F6000 X146.81 Y175.66
G1 F1200 X113.649 Y142.499 E103.99644
G0 F6000 X113.649 Y141.934
G1 F1200 X147.375 Y175.66 E105.58281
G0 F6000 X147.941 Y175.66
G1 F1200 X113.649 Y141.368 E107.1958
G0 F6000 X113.649 Y140.802
G1 F1200 X148.507 Y175.66 E108.83541
G0 F6000 X149.072 Y175.66
G1 F1200 X113.649 Y140.236 E110.50162
G0 F6000 X113.649 Y139.671
G1 F1200 X149.638 Y175.66 E112.19444
G0 F6000 X150.204 Y175.66
G1 F1200 X113.649 Y139.105 E113.91387
G0 F6000 X113.649 Y138.539
G1 F1200 X150.77 Y175.66 E115.65993
G0 F6000 X151.335 Y175.66
G1 F1200 X113.649 Y137.974 E117.43256
G0 F6000 X113.649 Y137.408
G1 F1200 X151.901 Y175.66 E119.23182
G0 F6000 X152.467 Y175.66
G1 F1200 X113.649 Y136.842 E121.0577
G0 F6000 X113.649 Y136.277
G1 F1200 X153.032 Y175.66 E122.91015
G0 F6000 X153.598 Y175.66
G1 F1200 X113.649 Y135.711 E124.78923
G0 F6000 X113.649 Y135.145
G1 F1200 X154.164 Y175.66 E126.69493
G0 F6000 X154.729 Y175.66
G1 F1200 X113.649 Y134.58 E128.62721
G0 F6000 X113.649 Y134.014
G1 F1200 X155.295 Y175.66 E130.58611
G0 F6000 X155.861 Y175.66
G1 F1200 X113.649 Y133.448 E132.57163
G0 F6000 X113.649 Y132.883
G1 F1200 X156.426 Y175.66 E134.58373
G0 F6000 X156.992 Y175.66
G1 F1200 X113.649 Y132.317 E136.62246
G0 F6000 X113.649 Y131.751
G1 F1200 X157.558 Y175.66 E138.6878
G0 F6000 X158.123 Y175.66
G1 F1200 X113.649 Y131.185 E140.77974
G0 F6000 X113.649 Y130.62
G1 F1200 X158.689 Y175.66 E142.89829
G0 F6000 X159.255 Y175.66
G1 F1200 X113.649 Y130.054 E145.04345
G0 F6000 X113.649 Y129.488
G1 F1200 X159.82 Y175.66 E147.21522
G0 F6000 X160.386 Y175.66
G1 F1200 X113.649 Y128.923 E149.41359
G0 F6000 X113.649 Y128.357
G1 F1200 X160.952 Y175.66 E151.63857
G0 F6000 X161.518 Y175.66
G1 F1200 X113.649 Y127.791 E153.89018
G0 F6000 X113.649 Y127.226
G1 F1200 X162.083 Y175.66 E156.16837
G0 F6000 X162.649 Y175.66
G1 F1200 X113.649 Y126.66 E158.47318
G0 F6000 X113.649 Y126.094
G1 F1200 X163.215 Y175.66 E160.80461
G0 F6000 X163.78 Y175.66
G1 F1200 X113.649 Y125.529 E163.16262
G0 F6000 X113.649 Y124.963
G1 F1200 X164.346 Y175.66 E165.54725
G0 F6000 X164.912 Y175.66
G1 F1200 X113.649 Y124.397 E167.95851
G0 F6000 X114.156 Y124.339
G1 F1200 X165.477 Y175.66 E170.37249
G0 F6000 X166.043 Y175.66
G1 F1200 X114.722 Y124.339 E172.78647
G0 F6000 X115.288 Y124.339
G1 F1200 X166.609 Y175.66 E175.20046
G0 F6000 X167.174 Y175.66
G1 F1200 X115.853 Y124.339 E177.61444
G0 F6000 X116.419 Y124.339
G1 F1200 X167.74 Y175.66 E180.02842
G0 F6000 X168.306 Y175.66
G1 F1200 X116.985 Y124.339 E182.4424
G0 F6000 X117.55 Y124.339
G1 F1200 X168.871 Y175.66 E184.85639
G0 F6000 X169.437 Y175.66
G1 F1200 X118.116 Y124.339 E187.27037
G0 F6000 X118.682 Y124.339
G1 F1200 X170.003 Y175.66 E189.68435
G0 F6000 X170.569 Y175.66
G1 F1200 X119.247 Y124.339 E192.09836
G0 F6000 X119.813 Y124.339
G1 F1200 X171.134 Y175.66 E194.51234
G0 F6000 X171.7 Y175.66
G1 F1200 X120.379 Y124.339 E196.92632
G0 F6000 X120.944 Y124.339
G1 F1200 X172.266 Y175.66 E199.34033
G0 F6000 X172.831 Y175.66
G1 F1200 X121.51 Y124.339 E201.75431
G0 F6000 X122.076 Y124.339
