;FLAVOR:Marlin
;TIME:1450
;Filament used: 1.43465m
;Layer height: 0.24
;MINX:101.5
;MINY:129.537
;MINZ:0.2
;MAXX:198.5
;MAXY:170.521
;MAXZ:6.92
;Generated with Cura_SteamEngine 4.6.1
M140 S70
M105
M190 S70
M104 S225
M105
M109 S225
M82 ;absolute extrusion mode
M201 X500.00 Y500.00 Z100.00 E5000.00 ;Setup machine max acceleration
M203 X500.00 Y500.00 Z10.00 E50.00 ;Setup machine max feedrate
M204 P500.00 R1000.00 T500.00 ;Setup Print/Retract/Travel acceleration
M205 X8.00 Y8.00 Z0.40 E5.00 ;Setup Jerk
M220 S100 ;Reset Feedrate
M221 S100 ;Reset Flowrate

G28 ;Home

G92 E0 ;Reset Extruder
G1 Z2.0 F3000 ;Move Z Axis up
G1 X10.1 Y20 Z0.28 F5000.0 ;Move to start position
G1 X10.1 Y200.0 Z0.28 F1500.0 E15 ;Draw the first line
G1 X10.4 Y200.0 Z0.28 F5000.0 ;Move to side a little
G1 X10.4 Y20 Z0.28 F1500.0 E30 ;Draw the second line
G92 E0 ;Reset Extruder
G1 Z2.0 F3000 ;Move Z Axis up

G92 E0
G92 E0
G1 F2700 E-5
;LAYER_COUNT:29
;LAYER:0
M107
G0 F6000 X187.636 Y130.349 Z0.2
;TYPE:SKIRT
G1 F2700 E0
G1 F1200 X188.538 Y130.402 E0.03005
G1 X189.431 Y130.534 E0.06008
G1 X190.309 Y130.745 E0.09011
G1 X191.165 Y131.033 E0.12015
G1 X191.993 Y131.396 E0.15022
G1 X192.784 Y131.83 E0.18023
G1 X193.535 Y132.332 E0.21027
G1 X194.238 Y132.899 E0.24031
G1 X194.888 Y133.526 E0.27035
G1 X195.48 Y134.208 E0.30039
G1 X196.01 Y134.939 E0.33042
G1 X196.472 Y135.715 E0.36046
G1 X196.865 Y136.528 E0.39049
G1 X197.183 Y137.373 E0.42052
G1 X197.426 Y138.243 E0.45056
G1 X197.591 Y139.131 E0.4806
G1 X197.685 Y140.23 E0.51729
G1 X197.7 Y140.869 E0.53855
G1 X197.699 Y158.911 E1.13863
G1 X197.69 Y159.638 E1.16281
G1 X197.639 Y160.54 E1.19286
G1 X197.508 Y161.434 E1.22291
G1 X197.299 Y162.312 E1.25293
G1 X197.013 Y163.169 E1.28298
G1 X196.652 Y163.997 E1.31302
G1 X196.22 Y164.789 E1.34303
G1 X195.719 Y165.541 E1.37308
G1 X195.153 Y166.245 E1.40313
G1 X194.528 Y166.896 E1.43314
G1 X193.847 Y167.49 E1.4632
G1 X193.116 Y168.021 E1.49325
G1 X192.342 Y168.485 E1.52326
G1 X191.529 Y168.879 E1.55331
G1 X190.685 Y169.199 E1.58333
G1 X189.815 Y169.444 E1.61339
G1 X188.928 Y169.61 E1.64341
G1 X187.777 Y169.708 E1.68183
G1 X187.17 Y169.721 E1.70202
G1 X113.207 Y169.721 E4.16204
G1 X112.377 Y169.711 E4.18965
G1 X111.476 Y169.66 E4.21967
G1 X110.582 Y169.528 E4.24972
G1 X109.704 Y169.319 E4.27974
G1 X108.847 Y169.032 E4.3098
G1 X108.02 Y168.671 E4.33981
G1 X107.227 Y168.238 E4.36986
G1 X106.476 Y167.737 E4.39989
G1 X105.772 Y167.171 E4.42993
G1 X105.121 Y166.545 E4.45997
G1 X104.528 Y165.864 E4.49001
G1 X103.998 Y165.133 E4.52004
G1 X103.534 Y164.358 E4.55008
G1 X103.14 Y163.545 E4.58013
G1 X102.82 Y162.701 E4.61015
G1 X102.576 Y161.831 E4.6402
G1 X102.41 Y160.943 E4.67025
G1 X102.313 Y159.788 E4.7088
G1 X102.3 Y159.179 E4.72906
G1 X102.301 Y141.092 E5.33064
G1 X102.31 Y140.412 E5.35326
G1 X102.362 Y139.51 E5.38331
G1 X102.493 Y138.617 E5.41333
G1 X102.703 Y137.739 E5.44335
G1 X102.99 Y136.882 E5.47341
G1 X103.352 Y136.055 E5.50344
G1 X103.785 Y135.262 E5.53349
G1 X104.286 Y134.511 E5.56352
G1 X104.853 Y133.808 E5.59356
G1 X105.479 Y133.157 E5.62359
G1 X106.16 Y132.564 E5.65363
G1 X106.891 Y132.034 E5.68366
G1 X107.666 Y131.57 E5.7137
G1 X108.479 Y131.177 E5.74374
G1 X109.324 Y130.857 E5.77379
G1 X110.193 Y130.613 E5.80381
G1 X111.081 Y130.447 E5.83386
G1 X112.226 Y130.351 E5.87207
G1 X112.819 Y130.338 E5.8918
G1 X113.557 Y130.337 E5.91635
G1 X186.793 Y130.338 E8.35219
G1 X187.636 Y130.349 E8.38023
G0 F6000 X187.642 Y129.949
G1 F1200 X188.561 Y130.002 E8.41084
G1 X189.472 Y130.135 E8.44147
G1 X190.368 Y130.346 E8.47208
G1 X191.243 Y130.634 E8.50272
G1 X192.089 Y130.998 E8.53335
G1 X192.9 Y131.433 E8.56396
G1 X193.671 Y131.936 E8.59458
G1 X194.395 Y132.505 E8.62521
G1 X195.066 Y133.135 E8.65582
G1 X195.681 Y133.82 E8.68644
G1 X196.234 Y134.556 E8.71706
G1 X196.721 Y135.338 E8.7477
G1 X197.138 Y136.158 E8.77829
G1 X197.483 Y137.012 E8.80893
G1 X197.752 Y137.892 E8.83954
G1 X197.944 Y138.793 E8.87018
G1 X198.057 Y139.707 E8.90081
G1 X198.085 Y140.218 E8.91783
G1 X198.095 Y140.539 E8.92851
G1 X198.1 Y140.869 E8.93949
G1 X198.099 Y158.916 E9.53973
G1 X198.09 Y159.643 E9.56391
G1 X198.039 Y160.562 E9.59453
G1 X197.908 Y161.474 E9.62517
G1 X197.698 Y162.37 E9.65578
G1 X197.412 Y163.245 E9.6864
G1 X197.051 Y164.092 E9.71702
G1 X196.617 Y164.904 E9.74764
G1 X196.115 Y165.676 E9.77827
G1 X195.547 Y166.401 E9.80891
G1 X194.919 Y167.074 E9.83952
G1 X194.235 Y167.69 E9.87014
G1 X193.5 Y168.244 E9.90075
G1 X192.72 Y168.733 E9.93137
G1 X191.9 Y169.152 E9.962
G1 X191.047 Y169.498 E9.99261
G1 X190.167 Y169.769 E10.02324
G1 X189.267 Y169.962 E10.05385
G1 X188.353 Y170.077 E10.08449
G1 X187.788 Y170.108 E10.10331
G1 X187.17 Y170.121 E10.12387
G1 X113.207 Y170.121 E12.58389
G1 X112.372 Y170.111 E12.61167
G1 X111.453 Y170.059 E12.64228
G1 X110.542 Y169.928 E12.67289
G1 X109.646 Y169.718 E12.7035
G1 X108.771 Y169.431 E12.73413
G1 X107.924 Y169.069 E12.76477
G1 X107.112 Y168.635 E12.79539
G1 X106.341 Y168.133 E12.82599
G1 X105.616 Y167.565 E12.85662
G1 X104.943 Y166.936 E12.88726
G1 X104.328 Y166.252 E12.91785
G1 X103.774 Y165.517 E12.94847
G1 X103.286 Y164.736 E12.9791
G1 X102.867 Y163.916 E13.00972
G1 X102.521 Y163.063 E13.04034
G1 X102.251 Y162.183 E13.07096
G1 X102.058 Y161.282 E13.1016
G1 X101.944 Y160.369 E13.1322
G1 X101.913 Y159.798 E13.15122
G1 X101.9 Y159.179 E13.17182
G1 X101.901 Y141.087 E13.77356
G1 X101.91 Y140.407 E13.79618
G1 X101.962 Y139.488 E13.82679
G1 X102.094 Y138.576 E13.85744
G1 X102.304 Y137.68 E13.88805
G1 X102.591 Y136.805 E13.91868
G1 X102.953 Y135.959 E13.94928
G1 X103.388 Y135.147 E13.97992
G1 X103.891 Y134.376 E14.01054
G1 X104.459 Y133.651 E14.04117
G1 X105.087 Y132.979 E14.07177
G1 X105.772 Y132.363 E14.10241
G1 X106.507 Y131.81 E14.133
G1 X107.288 Y131.322 E14.16363
G1 X108.108 Y130.904 E14.19424
G1 X108.962 Y130.558 E14.22489
G1 X109.842 Y130.288 E14.2555
G1 X110.742 Y130.095 E14.28612
G1 X111.656 Y129.981 E14.31675
G1 X112.215 Y129.951 E14.33537
G1 X112.819 Y129.938 E14.35547
G1 X113.557 Y129.937 E14.38001
G1 X186.793 Y129.938 E16.81585
G1 X187.642 Y129.949 E16.84409
G0 F6000 X187.648 Y129.549
G1 F1200 X188.584 Y129.603 E16.87528
G1 X189.513 Y129.736 E16.90649
G1 X190.426 Y129.947 E16.93766
G1 X191.319 Y130.236 E16.96887
G1 X192.183 Y130.599 E17.00004
G1 X193.013 Y131.035 E17.03123
G1 X193.804 Y131.54 E17.06244
G1 X194.548 Y132.111 E17.09363
G1 X195.241 Y132.743 E17.12483
G1 X195.878 Y133.432 E17.15604
G1 X196.454 Y134.172 E17.18723
G1 X196.964 Y134.959 E17.21842
G1 X197.406 Y135.786 E17.24961
G1 X197.775 Y136.648 E17.28079
G1 X198.07 Y137.538 E17.31198
G1 X198.288 Y138.45 E17.34317
G1 X198.428 Y139.378 E17.37438
G1 X198.485 Y140.205 E17.40195
G1 X198.495 Y140.526 E17.41264
G1 X198.5 Y140.869 E17.42404
G1 X198.499 Y158.921 E18.02446
G1 X198.49 Y159.648 E18.04864
G1 X198.439 Y160.585 E18.07985
G1 X198.307 Y161.513 E18.11103
G1 X198.098 Y162.427 E18.14221
G1 X197.811 Y163.32 E18.17341
G1 X197.449 Y164.186 E18.20463
G1 X197.015 Y165.017 E18.23581
G1 X196.511 Y165.808 E18.267
G1 X195.942 Y166.553 E18.29818
G1 X195.311 Y167.248 E18.3294
G1 X194.624 Y167.886 E18.36059
G1 X193.885 Y168.463 E18.39177
G1 X193.099 Y168.975 E18.42297
G1 X192.273 Y169.418 E18.45415
G1 X191.411 Y169.79 E18.48537
G1 X190.522 Y170.086 E18.51654
G1 X189.61 Y170.306 E18.54774
G1 X188.683 Y170.447 E18.57893
G1 X187.799 Y170.508 E18.6084
G1 X187.17 Y170.521 E18.62932
G1 X113.207 Y170.521 E21.08934
G1 X112.367 Y170.511 E21.11728
G1 X111.431 Y170.459 E21.14846
G1 X110.502 Y170.327 E21.17967
G1 X109.588 Y170.117 E21.21086
G1 X108.695 Y169.83 E21.24206
G1 X107.83 Y169.467 E21.27326
G1 X106.999 Y169.033 E21.30444
G1 X106.208 Y168.529 E21.33564
G1 X105.463 Y167.959 E21.36684
G1 X104.769 Y167.328 E21.39803
G1 X104.132 Y166.641 E21.4292
G1 X103.555 Y165.901 E21.46041
G1 X103.043 Y165.115 E21.49161
G1 X102.6 Y164.288 E21.52281
G1 X102.229 Y163.427 E21.55399
G1 X101.933 Y162.537 E21.58519
G1 X101.714 Y161.625 E21.61638
G1 X101.573 Y160.698 E21.64757
G1 X101.513 Y159.809 E21.6772
G1 X101.5 Y159.179 E21.69816
G1 X101.501 Y141.081 E22.30011
G1 X101.51 Y140.401 E22.32272
G1 X101.562 Y139.465 E22.3539
G1 X101.694 Y138.536 E22.38511
G1 X101.905 Y137.623 E22.41628
G1 X102.193 Y136.73 E22.44749
G1 X102.555 Y135.865 E22.47868
G1 X102.99 Y135.034 E22.50987
G1 X103.494 Y134.243 E22.54107
G1 X104.064 Y133.498 E22.57227
G1 X104.695 Y132.805 E22.60344
G1 X105.383 Y132.167 E22.63465
G1 X106.123 Y131.591 E22.66584
G1 X106.909 Y131.079 E22.69704
G1 X107.736 Y130.637 E22.72822
G1 X108.597 Y130.266 E22.75941
G1 X109.487 Y129.97 E22.7906
G1 X110.399 Y129.751 E22.8218
G1 X111.327 Y129.611 E22.85301
G1 X112.204 Y129.551 E22.88225
G1 X112.818 Y129.538 E22.90268
G1 X113.556 Y129.537 E22.92722
G1 X186.793 Y129.538 E25.3631
G1 X187.648 Y129.549 E25.39153
G1 F2700 E20.39153
;MESH:PhoneHolder_Top v2.stl
G0 F6000 X131.649 Y150.186
G0 X131.649 Y148.751
G0 X117.072 Y149.093
G0 X116.9 Y155.121
;TYPE:WALL-INNER
G1 F2700 E25.39153
G1 F1200 X183.1 Y155.121 E27.59336
G1 X183.1 Y148.921 E27.79957
G1 X116.9 Y148.921 E30.00139
G1 X116.9 Y155.121 E30.2076
G0 F6000 X117.3 Y154.721
;TYPE:WALL-OUTER
G1 F1200 X182.7 Y154.721 E32.38282
G1 X182.7 Y149.321 E32.56242
G1 X117.3 Y149.321 E34.73763
G1 X117.3 Y154.721 E34.91724
G1 F2700 E29.91724
G0 F6000 X117 Y154.721
G0 X117.064 Y154.926
G0 X127.748 Y155.291
G0 X127.748 Y153.856
G0 X183.29 Y160.186
G0 X183.29 Y158.711
G0 X186.9 Y158.921
;TYPE:WALL-INNER
G1 F2700 E34.91724
G1 F1200 X113.1 Y158.921 E37.37184
G1 X113.1 Y141.138 E37.9633
G1 X113.571 Y141.137 E37.97897
G1 X186.9 Y141.138 E40.4179
G1 X186.9 Y158.921 E41.00936
G0 F6000 X187.3 Y159.321
;TYPE:WALL-OUTER
G1 F1200 X112.7 Y159.321 E43.49057
G1 X112.7 Y140.738 E44.10864
G1 X113.571 Y140.737 E44.13761
G1 X187.3 Y140.738 E46.58985
G1 X187.3 Y159.321 E47.20792
G0 F6000 X187.03 Y159.051
G0 X186.79 Y158.531
G0 X186.51 Y158.531
;TYPE:SKIN
G1 F1200 X113.49 Y158.531 E49.63658
G1 X113.49 Y141.527 E50.20213
G1 X186.51 Y141.528 E52.63079
G1 X186.51 Y158.531 E53.19631
G1 F2700 E48.19631
G0 F6000 X186.79 Y158.531
G0 X186.69 Y155.261
G0 X183.29 Y155.261
G0 X183.21 Y155.261
G0 X183.49 Y155.511
G1 F2700 E53.19631
G1 F1200 X183.49 Y148.531 E53.42847
G1 X116.51 Y148.531 E55.65623
G1 X116.51 Y155.511 E55.88838
G1 X183.49 Y155.511 E58.11615
G1 F2700 E53.11615
G0 F6000 X183.21 Y155.261
G0 X183.27 Y152.985
G0 X181.835 Y152.985
G0 X188.165 Y148.725
G0 X186.69 Y148.725
G0 X186.79 Y142.226
G0 X186.349 Y142.226
G1 F2700 E58.11615
G1 F1200 X185.811 Y141.687 E58.14148
G0 F6000 X185.245 Y141.687
G1 F1200 X186.349 Y142.791 E58.19341
G0 F6000 X186.349 Y143.357
G1 F1200 X184.68 Y141.687 E58.27193
G0 F6000 X184.114 Y141.687
G1 F1200 X186.349 Y143.923 E58.37709
G0 F6000 X186.349 Y144.488
G1 F1200 X183.548 Y141.687 E58.50884
G0 F6000 X182.982 Y141.687
G1 F1200 X186.349 Y145.054 E58.66721
G0 F6000 X186.349 Y145.62
G1 F1200 X182.417 Y141.687 E58.85218
G0 F6000 X181.851 Y141.687
G1 F1200 X186.349 Y146.185 E59.06375
G0 F6000 X186.349 Y146.751
G1 F1200 X181.285 Y141.687 E59.30195
G0 F6000 X180.72 Y141.687
G1 F1200 X186.349 Y147.317 E59.56674
G0 F6000 X186.349 Y147.882
G1 F1200 X180.154 Y141.687 E59.85814
G0 F6000 X179.588 Y141.687
G1 F1200 X186.349 Y148.448 E60.17615
G0 F6000 X186.349 Y149.014
G1 F1200 X179.023 Y141.687 E60.52077
G0 F6000 X178.457 Y141.687
G1 F1200 X186.349 Y149.579 E60.89199
G0 F6000 X186.349 Y150.145
G1 F1200 X177.891 Y141.687 E61.28982
G0 F6000 X177.326 Y141.687
G1 F1200 X186.349 Y150.711 E61.71426
G0 F6000 X186.349 Y151.277
G1 F1200 X183.649 Y148.577 E61.84126
G0 F6000 X183.443 Y148.37
G1 F1200 X176.76 Y141.687 E62.15561
G0 F6000 X176.194 Y141.687
G1 F1200 X182.877 Y148.37 E62.46996
G0 F6000 X182.311 Y148.37
G1 F1200 X175.629 Y141.687 E62.78428
G0 F6000 X175.063 Y141.687
G1 F1200 X181.746 Y148.37 E63.09863
G0 F6000 X181.18 Y148.37
G1 F1200 X174.497 Y141.687 E63.41298
G0 F6000 X173.932 Y141.687
G1 F1200 X180.614 Y148.37 E63.7273
G0 F6000 X180.049 Y148.37
G1 F1200 X173.366 Y141.687 E64.04165
G0 F6000 X172.8 Y141.687
G1 F1200 X179.483 Y148.37 E64.356
G0 F6000 X178.917 Y148.37
G1 F1200 X172.234 Y141.687 E64.67035
G0 F6000 X171.669 Y141.687
G1 F1200 X178.352 Y148.37 E64.98469
G0 F6000 X177.786 Y148.37
G1 F1200 X171.103 Y141.687 E65.29904
G0 F6000 X170.537 Y141.687
G1 F1200 X177.22 Y148.37 E65.61339
G0 F6000 X176.655 Y148.37
G1 F1200 X169.972 Y141.687 E65.92774
G0 F6000 X169.406 Y141.687
G1 F1200 X176.089 Y148.37 E66.24208
G0 F6000 X175.523 Y148.37
G1 F1200 X168.84 Y141.687 E66.55643
G0 F6000 X168.275 Y141.687
G1 F1200 X174.958 Y148.37 E66.87078
G0 F6000 X174.392 Y148.37
G1 F1200 X167.709 Y141.687 E67.18513
G0 F6000 X167.143 Y141.687
G1 F1200 X173.826 Y148.37 E67.49948
G0 F6000 X173.26 Y148.37
G1 F1200 X166.578 Y141.687 E67.8138
G0 F6000 X166.012 Y141.687
G1 F1200 X172.695 Y148.37 E68.12815
G0 F6000 X172.129 Y148.37
G1 F1200 X165.446 Y141.687 E68.4425
G0 F6000 X164.881 Y141.687
G1 F1200 X171.563 Y148.37 E68.75682
G0 F6000 X170.998 Y148.37
G1 F1200 X164.315 Y141.687 E69.07117
G0 F6000 X163.749 Y141.687
G1 F1200 X170.432 Y148.37 E69.38552
G0 F6000 X169.866 Y148.37
G1 F1200 X163.183 Y141.687 E69.69986
G0 F6000 X162.618 Y141.687
G1 F1200 X169.301 Y148.37 E70.01421
G0 F6000 X168.735 Y148.37
G1 F1200 X162.052 Y141.687 E70.32856
G0 F6000 X161.486 Y141.687
G1 F1200 X168.169 Y148.37 E70.64291
G0 F6000 X167.604 Y148.37
G1 F1200 X160.921 Y141.687 E70.95726
G0 F6000 X160.355 Y141.687
G1 F1200 X167.038 Y148.37 E71.2716
G0 F6000 X166.472 Y148.37
G1 F1200 X159.789 Y141.687 E71.58595
G0 F6000 X159.224 Y141.687
G1 F1200 X165.907 Y148.37 E71.9003
G0 F6000 X165.341 Y148.37
G1 F1200 X158.658 Y141.687 E72.21465
G0 F6000 X158.092 Y141.687
G1 F1200 X164.775 Y148.37 E72.52899
G0 F6000 X164.209 Y148.37
G1 F1200 X157.527 Y141.687 E72.84332
G0 F6000 X156.961 Y141.687
G1 F1200 X163.644 Y148.37 E73.15767
G0 F6000 X163.078 Y148.37
G1 F1200 X156.395 Y141.687 E73.47201
G0 F6000 X155.83 Y141.687
G1 F1200 X162.512 Y148.37 E73.78634
G0 F6000 X161.947 Y148.37
G1 F1200 X155.264 Y141.687 E74.10069
G0 F6000 X154.698 Y141.687
G1 F1200 X161.381 Y148.37 E74.41503
G0 F6000 X160.815 Y148.37
G1 F1200 X154.133 Y141.687 E74.72936
G0 F6000 X153.567 Y141.687
G1 F1200 X160.25 Y148.37 E75.04371
G0 F6000 X159.684 Y148.37
G1 F1200 X153.001 Y141.687 E75.35805
G0 F6000 X152.435 Y141.687
G1 F1200 X159.118 Y148.37 E75.6724
G0 F6000 X158.553 Y148.37
G1 F1200 X151.87 Y141.687 E75.98675
G0 F6000 X151.304 Y141.687
G1 F1200 X157.987 Y148.37 E76.3011
G0 F6000 X157.421 Y148.37
G1 F1200 X150.738 Y141.687 E76.61545
G0 F6000 X150.173 Y141.687
G1 F1200 X156.856 Y148.37 E76.92979
G0 F6000 X156.29 Y148.37
G1 F1200 X149.606 Y141.687 E77.24416
G0 F6000 X149.041 Y141.687
G1 F1200 X155.724 Y148.37 E77.55851
G0 F6000 X155.159 Y148.37
G1 F1200 X148.475 Y141.687 E77.87288
G0 F6000 X147.909 Y141.687
G1 F1200 X154.593 Y148.37 E78.18726
G0 F6000 X154.027 Y148.37
G1 F1200 X147.344 Y141.687 E78.5016
G0 F6000 X146.778 Y141.687
G1 F1200 X153.461 Y148.37 E78.81595
G0 F6000 X152.896 Y148.37
G1 F1200 X146.212 Y141.687 E79.13032
G0 F6000 X145.647 Y141.687
G1 F1200 X152.33 Y148.37 E79.44467
G0 F6000 X151.764 Y148.37
G1 F1200 X145.081 Y141.687 E79.75902
G0 F6000 X144.515 Y141.687
G1 F1200 X151.199 Y148.37 E80.07339
G0 F6000 X150.633 Y148.37
G1 F1200 X143.949 Y141.687 E80.38776
G0 F6000 X143.384 Y141.687
G1 F1200 X150.067 Y148.37 E80.70211
G0 F6000 X149.502 Y148.37
G1 F1200 X142.818 Y141.687 E81.01648
G0 F6000 X142.252 Y141.687
G1 F1200 X148.936 Y148.37 E81.33085
G0 F6000 X148.37 Y148.37
G1 F1200 X141.687 Y141.687 E81.6452
G0 F6000 X141.121 Y141.687
G1 F1200 X147.805 Y148.37 E81.95957
G0 F6000 X147.239 Y148.37
G1 F1200 X140.555 Y141.687 E82.27394
G0 F6000 X139.99 Y141.687
G1 F1200 X146.673 Y148.37 E82.58829
G0 F6000 X146.108 Y148.37
G1 F1200 X139.424 Y141.687 E82.90266
G0 F6000 X138.858 Y141.687
G1 F1200 X145.542 Y148.37 E83.21703
G0 F6000 X144.976 Y148.37
G1 F1200 X138.293 Y141.687 E83.53138
G0 F6000 X137.727 Y141.687
G1 F1200 X144.411 Y148.37 E83.84575
G0 F6000 X143.845 Y148.37
G1 F1200 X137.161 Y141.687 E84.16012
G0 F6000 X136.596 Y141.687
G1 F1200 X143.279 Y148.37 E84.47447
G0 F6000 X142.713 Y148.37
