;FLAVOR:Marlin
;TIME:7700
;Filament used: 5.78617m
;Layer height: 0.24
;MINX:76.985
;MINY:108
;MINZ:0.2
;MAXX:223.015
;MAXY:192
;MAXZ:44.84
;Generated with Cura_SteamEngine 4.8.0
M140 S70
M105
M190 S70
M104 S225
M105
M109 S225
M82 ;absolute extrusion mode
M201 X500.00 Y500.00 Z100.00 E5000.00 ;Setup machine max acceleration
M203 X500.00 Y500.00 Z10.00 E50.00 ;Setup machine max feedrate
M204 P500.00 R1000.00 T500.00 ;Setup Print/Retract/Travel acceleration
M205 X8.00 Y8.00 Z0.40 E5.00 ;Setup Jerk
M220 S100 ;Reset Feedrate
M221 S100 ;Reset Flowrate

G28 ;Home

G92 E0 ;Reset Extruder
G1 Z2.0 F3000 ;Move Z Axis up
G1 X10.1 Y20 Z0.28 F5000.0 ;Move to start position
G1 X10.1 Y200.0 Z0.28 F1500.0 E15 ;Draw the first line
G1 X10.4 Y200.0 Z0.28 F5000.0 ;Move to side a little
G1 X10.4 Y20 Z0.28 F1500.0 E30 ;Draw the second line
G92 E0 ;Reset Extruder
G1 Z2.0 F3000 ;Move Z Axis up

G92 E0
G92 E0
G1 F2700 E-5
;LAYER_COUNT:187
;LAYER:0
M107
G0 F6000 X109.83 Y132.475 Z0.2
;TYPE:SKIRT
G1 F2700 E0
G1 F1200 X110.275 Y132.105 E0.01925
G1 X110.527 Y131.901 E0.03003
G1 X111.144 Y131.418 E0.05609
G1 X112.69 Y130.245 E0.12064
G1 X113.218 Y129.857 E0.14243
G1 X113.461 Y129.684 E0.15235
G1 X114.268 Y129.125 E0.18501
G1 X115.698 Y128.168 E0.24224
G1 X116.22 Y127.827 E0.26297
G1 X116.514 Y127.641 E0.27454
G1 X119.61 Y125.756 E0.3951
G1 X121.697 Y124.401 E0.47786
G1 X123.786 Y122.958 E0.56231
G1 X125.822 Y121.468 E0.64622
G1 X127.809 Y119.924 E0.72992
G1 X129.734 Y118.339 E0.81285
G1 X131.629 Y116.686 E0.89649
G1 X133.501 Y114.959 E0.9812
G1 X135.26 Y113.242 E1.06296
G1 X136.565 Y111.887 E1.12553
G1 X137.152 Y111.291 E1.15335
G1 X137.838 Y110.652 E1.18453
G1 X138.576 Y110.073 E1.21573
G1 X139.36 Y109.559 E1.24691
G1 X140.186 Y109.114 E1.27812
G1 X141.046 Y108.741 E1.3093
G1 X141.936 Y108.442 E1.34052
G1 X142.847 Y108.221 E1.3717
G1 X143.774 Y108.077 E1.40291
G1 X144.652 Y108.015 E1.43218
G1 X144.978 Y108.005 E1.44303
G1 X145.315 Y108 E1.45424
G1 X154.278 Y108 E1.75235
G1 X155.137 Y108.011 E1.78092
G1 X156.073 Y108.064 E1.8121
G1 X157.001 Y108.197 E1.84328
G1 X157.915 Y108.409 E1.87449
G1 X158.808 Y108.697 E1.9057
G1 X159.672 Y109.061 E1.93688
G1 X160.503 Y109.497 E1.96809
G1 X161.293 Y110.002 E1.99928
G1 X162.034 Y110.57 E2.03033
G1 X162.934 Y111.409 E2.07126
G1 X163.48 Y111.979 E2.09751
G1 X165.313 Y113.837 E2.18432
G1 X167.142 Y115.588 E2.26853
G1 X169.014 Y117.281 E2.35248
G1 X170.906 Y118.897 E2.43524
G1 X172.884 Y120.494 E2.51979
G1 X174.887 Y122.017 E2.60349
G1 X176.932 Y123.484 E2.68719
G1 X178.994 Y124.877 E2.76996
G1 X181.175 Y126.261 E2.85587
G1 X182.702 Y127.18 E2.91515
G1 X183.367 Y127.584 E2.94103
G1 X183.627 Y127.748 E2.95125
G1 X184.456 Y128.288 E2.98416
G1 X185.915 Y129.268 E3.04262
G1 X186.451 Y129.64 E3.06432
G1 X186.69 Y129.811 E3.07409
G1 X187.3 Y130.259 E3.09926
G1 X188.698 Y131.319 E3.15762
G1 X189.372 Y131.844 E3.18603
G1 X189.617 Y132.042 E3.19651
G1 X190.329 Y132.633 E3.22729
G1 X191.695 Y133.804 E3.28713
G1 X192.159 Y134.214 E3.30772
G1 X192.377 Y134.412 E3.31752
G1 X193.093 Y135.082 E3.35013
G1 X194.354 Y136.296 E3.40835
G1 X194.796 Y136.733 E3.42902
G1 X195.017 Y136.958 E3.43951
G1 X195.694 Y137.668 E3.47214
G1 X196.75 Y138.811 E3.5239
G1 X197.315 Y139.438 E3.55197
G1 X197.532 Y139.686 E3.56293
G1 X198.12 Y140.381 E3.59321
G1 X199.198 Y141.693 E3.64969
G1 X199.654 Y142.263 E3.67397
G1 X199.854 Y142.521 E3.68483
G1 X200.415 Y143.269 E3.71592
G1 X201.062 Y144.157 E3.75247
G1 X202.603 Y146.209 E3.83782
G1 X204.161 Y148.165 E3.92099
G1 X205.796 Y150.103 E4.00532
G1 X207.476 Y151.982 E4.08916
G1 X209.209 Y153.817 E4.17311
G1 X210.978 Y155.584 E4.25627
G1 X212.806 Y157.311 E4.33991
G1 X214.689 Y158.991 E4.42384
G1 X216.639 Y160.636 E4.50869
G1 X218.167 Y161.859 E4.57379
G1 X218.794 Y162.351 E4.6003
G1 X219.507 Y162.961 E4.63151
G1 X220.165 Y163.629 E4.66269
G1 X220.764 Y164.351 E4.69389
G1 X221.299 Y165.121 E4.72508
G1 X221.766 Y165.934 E4.75626
G1 X222.163 Y166.784 E4.78747
G1 X222.485 Y167.665 E4.81866
G1 X222.732 Y168.57 E4.84987
G1 X222.9 Y169.492 E4.88104
G1 X223 Y170.667 E4.92026
G1 X223.01 Y170.991 E4.93104
G1 X223.015 Y171.33 E4.94232
G1 X223.014 Y180.4 E5.24399
G1 X223.005 Y181.127 E5.26817
G1 X222.954 Y182.064 E5.29938
G1 X222.822 Y182.992 E5.33055
G1 X222.613 Y183.906 E5.36174
G1 X222.326 Y184.799 E5.39294
G1 X221.964 Y185.665 E5.42416
G1 X221.53 Y186.496 E5.45534
G1 X221.026 Y187.287 E5.48653
G1 X220.457 Y188.032 E5.51771
G1 X219.826 Y188.727 E5.54893
G1 X219.139 Y189.365 E5.58012
G1 X218.4 Y189.942 E5.6113
G1 X217.614 Y190.454 E5.6425
G1 X216.788 Y190.897 E5.67367
G1 X215.926 Y191.269 E5.7049
G1 X215.037 Y191.565 E5.73607
G1 X214.125 Y191.785 E5.76727
G1 X213.198 Y191.926 E5.79846
G1 X212.314 Y191.987 E5.82793
G1 X211.993 Y191.996 E5.83861
G1 X211.685 Y192 E5.84885
G1 X200.536 Y191.999 E6.21967
G1 X199.833 Y191.989 E6.24305
G1 X198.896 Y191.936 E6.27427
G1 X197.968 Y191.803 E6.30545
G1 X197.054 Y191.591 E6.33666
G1 X196.162 Y191.303 E6.36783
G1 X195.297 Y190.939 E6.39905
G1 X194.627 Y190.595 E6.4241
G1 X192.286 Y189.288 E6.51327
G1 X190.046 Y188.119 E6.59731
G1 X187.779 Y187.016 E6.68116
G1 X185.482 Y185.978 E6.765
G1 X183.173 Y185.013 E6.84823
G1 X180.817 Y184.104 E6.93222
G1 X178.435 Y183.263 E7.01624
G1 X176.052 Y182.497 E7.0995
G1 X173.636 Y181.794 E7.18318
G1 X171.203 Y181.16 E7.26681
G1 X168.752 Y180.595 E7.35047
G1 X166.241 Y180.09 E7.43566
G1 X163.809 Y179.675 E7.51771
G1 X161.293 Y179.316 E7.60224
G1 X158.803 Y179.033 E7.68559
G1 X156.297 Y178.819 E7.76925
G1 X153.78 Y178.677 E7.8531
G1 X151.285 Y178.605 E7.93612
G1 X148.76 Y178.605 E8.0201
G1 X146.21 Y178.676 E8.10494
G1 X143.749 Y178.816 E8.18693
G1 X141.207 Y179.031 E8.27178
G1 X138.72 Y179.314 E8.35503
G1 X136.187 Y179.674 E8.44012
G1 X133.736 Y180.093 E8.52283
G1 X131.321 Y180.576 E8.60474
G1 X128.787 Y181.159 E8.69122
G1 X126.417 Y181.776 E8.77268
G1 X123.957 Y182.49 E8.85788
G1 X121.569 Y183.258 E8.94131
G1 X119.163 Y184.106 E9.02616
G1 X116.887 Y184.983 E9.10728
G1 X114.527 Y185.969 E9.19235
G1 X112.221 Y187.01 E9.2765
G1 X109.961 Y188.107 E9.36006
G1 X107.752 Y189.26 E9.44293
G1 X106.546 Y189.932 E9.48885
G1 X105.324 Y190.607 E9.53528
G1 X104.484 Y191.025 E9.56649
G1 X103.612 Y191.37 E9.59768
G1 X102.714 Y191.639 E9.62886
G1 X101.796 Y191.831 E9.66005
G1 X100.865 Y191.944 E9.69125
G1 X100.232 Y191.976 E9.71233
G1 X99.165 Y191.998 E9.74782
G1 X98.938 Y192 E9.75537
G1 X88.534 Y191.999 E10.10141
G1 X87.836 Y191.989 E10.12463
G1 X86.9 Y191.935 E10.15581
G1 X85.972 Y191.803 E10.18699
G1 X85.058 Y191.591 E10.2182
G1 X84.166 Y191.302 E10.24938
G1 X83.301 Y190.939 E10.28058
G1 X82.471 Y190.503 E10.31177
G1 X81.68 Y189.998 E10.34298
G1 X80.936 Y189.427 E10.37417
G1 X80.243 Y188.795 E10.40537
G1 X79.606 Y188.107 E10.43655
G1 X79.031 Y187.366 E10.46775
G1 X78.52 Y186.58 E10.49893
G1 X78.078 Y185.752 E10.53015
G1 X77.709 Y184.89 E10.56133
G1 X77.414 Y184 E10.59252
G1 X77.196 Y183.088 E10.62371
G1 X77.056 Y182.16 E10.65492
G1 X76.998 Y181.288 E10.68399
G1 X76.989 Y180.956 E10.69503
G1 X76.985 Y180.658 E10.70495
G1 X76.986 Y171.55 E11.00788
G1 X76.996 Y170.848 E11.03123
G1 X77.049 Y169.912 E11.06241
G1 X77.182 Y168.984 E11.09359
G1 X77.394 Y168.07 E11.1248
G1 X77.682 Y167.177 E11.15601
G1 X78.046 Y166.313 E11.18719
G1 X78.482 Y165.482 E11.2184
G1 X78.987 Y164.692 E11.24959
G1 X79.557 Y163.948 E11.28076
G1 X80.189 Y163.255 E11.31196
G1 X81.083 Y162.448 E11.35201
G1 X81.621 Y162.014 E11.375
G1 X82.871 Y161.033 E11.42785
G1 X84.773 Y159.451 E11.51014
G1 X86.698 Y157.755 E11.59547
G1 X88.51 Y156.068 E11.67781
G1 X90.299 Y154.303 E11.7614
G1 X92.058 Y152.467 E11.84597
G1 X93.743 Y150.606 E11.92947
G1 X95.379 Y148.693 E12.01319
G1 X96.947 Y146.752 E12.09618
G1 X98.878 Y144.199 E12.20264
G1 X99.708 Y143.064 E12.24941
G1 X100.086 Y142.561 E12.27034
G1 X100.283 Y142.306 E12.28106
G1 X100.746 Y141.726 E12.30574
G1 X101.981 Y140.225 E12.37039
G1 X102.396 Y139.736 E12.39172
G1 X102.593 Y139.511 E12.40167
G1 X103.264 Y138.764 E12.43507
G1 X104.414 Y137.523 E12.49134
G1 X104.879 Y137.035 E12.51376
G1 X105.099 Y136.811 E12.5242
G1 X105.801 Y136.117 E12.55703
G1 X107.047 Y134.921 E12.61448
G1 X107.499 Y134.498 E12.63507
G1 X107.736 Y134.283 E12.64571
G1 X108.471 Y133.636 E12.67828
G1 X109.83 Y132.475 E12.73773
G0 F6000 X110.086 Y132.782
G1 F1200 X110.531 Y132.412 E12.75698
G1 X110.774 Y132.216 E12.76736
G1 X111.515 Y131.637 E12.79864
G1 X112.794 Y130.666 E12.85205
G1 X113.455 Y130.179 E12.87935
G1 X113.689 Y130.012 E12.88892
G1 X114.349 Y129.554 E12.91564
G1 X115.917 Y128.503 E12.97842
G1 X116.439 Y128.162 E12.99916
G1 X116.723 Y127.983 E13.01032
G1 X119.79 Y126.115 E13.12976
G1 X121.945 Y124.716 E13.21522
G1 X124.021 Y123.283 E13.29912
G1 X126.041 Y121.804 E13.38239
G1 X128.041 Y120.25 E13.46663
G1 X130.006 Y118.632 E13.55129
G1 X131.899 Y116.981 E13.63483
G1 X133.786 Y115.24 E13.72023
G1 X135.545 Y113.523 E13.80198
G1 X136.85 Y112.168 E13.86455
G1 X137.437 Y111.572 E13.89238
G1 X138.111 Y110.945 E13.92299
G1 X138.837 Y110.378 E13.95363
G1 X139.609 Y109.877 E13.98424
G1 X140.422 Y109.445 E14.01486
G1 X141.269 Y109.084 E14.04549
G1 X142.144 Y108.799 E14.07609
G1 X143.041 Y108.591 E14.10672
G1 X143.952 Y108.461 E14.13733
G1 X144.664 Y108.415 E14.16106
G1 X144.99 Y108.405 E14.1719
G1 X145.315 Y108.4 E14.18272
G1 X154.278 Y108.4 E14.48083
G1 X155.131 Y108.411 E14.5092
G1 X156.05 Y108.464 E14.53982
G1 X156.961 Y108.597 E14.57044
G1 X157.857 Y108.808 E14.60105
G1 X158.732 Y109.096 E14.63169
G1 X159.578 Y109.459 E14.66231
G1 X160.389 Y109.894 E14.69292
G1 X161.16 Y110.398 E14.72356
G1 X161.778 Y110.877 E14.74956
G1 X162.645 Y111.686 E14.789
G1 X163.191 Y112.256 E14.81526
G1 X165.034 Y114.124 E14.90253
G1 X166.88 Y115.891 E14.98753
G1 X168.714 Y117.55 E15.06978
G1 X170.68 Y119.229 E15.15577
G1 X172.631 Y120.804 E15.23917
G1 X174.64 Y122.332 E15.32312
G1 X176.72 Y123.825 E15.40827
G1 X178.777 Y125.214 E15.49083
G1 X180.947 Y126.591 E15.57631
G1 X182.633 Y127.605 E15.64174
G1 X183.159 Y127.926 E15.66224
G1 X183.409 Y128.084 E15.67208
G1 X184.233 Y128.62 E15.70477
G1 X185.687 Y129.597 E15.76303
G1 X186.223 Y129.969 E15.78473
G1 X186.454 Y130.134 E15.79418
G1 X187.198 Y130.682 E15.82491
G1 X188.576 Y131.729 E15.88247
G1 X189.126 Y132.159 E15.90569
G1 X189.362 Y132.35 E15.91579
G1 X190.068 Y132.937 E15.94633
G1 X191.43 Y134.104 E16.00598
G1 X191.894 Y134.514 E16.02658
G1 X192.104 Y134.705 E16.03602
G1 X192.816 Y135.37 E16.06842
G1 X194.073 Y136.58 E16.12645
G1 X194.515 Y137.017 E16.14713
G1 X194.728 Y137.234 E16.15724
G1 X195.4 Y137.94 E16.18966
G1 X196.545 Y139.181 E16.24582
G1 X197.018 Y139.706 E16.26932
G1 X197.227 Y139.945 E16.27988
G1 X197.811 Y140.635 E16.30995
G1 X198.885 Y141.943 E16.36624
G1 X199.341 Y142.513 E16.39052
G1 X199.534 Y142.762 E16.40099
G1 X200.091 Y143.505 E16.43188
G1 X200.68 Y144.313 E16.46514
G1 X202.303 Y146.474 E16.55502
G1 X203.841 Y148.405 E16.63713
G1 X205.51 Y150.384 E16.72324
G1 X207.169 Y152.239 E16.80601
G1 X208.918 Y154.091 E16.89073
G1 X210.704 Y155.875 E16.97469
G1 X212.548 Y157.618 E17.05909
G1 X214.429 Y159.294 E17.14288
G1 X216.372 Y160.934 E17.22745
G1 X217.956 Y162.203 E17.29496
G1 X218.547 Y162.666 E17.31993
G1 X219.246 Y163.265 E17.35054
G1 X219.891 Y163.923 E17.38119
G1 X220.476 Y164.633 E17.41179
G1 X220.997 Y165.393 E17.44244
G1 X221.45 Y166.194 E17.47304
G1 X221.832 Y167.032 E17.50367
G1 X222.14 Y167.899 E17.53428
G1 X222.371 Y168.79 E17.56489
G1 X222.524 Y169.698 E17.59552
G1 X222.6 Y170.679 E17.62824
G1 X222.61 Y171.003 E17.63902
G1 X222.615 Y171.33 E17.6499
G1 X222.614 Y180.395 E17.9514
G1 X222.605 Y181.122 E17.97559
G1 X222.554 Y182.041 E18.0062
G1 X222.423 Y182.953 E18.03684
G1 X222.213 Y183.849 E18.06745
G1 X221.927 Y184.724 E18.09807
G1 X221.566 Y185.571 E18.12869
G1 X221.132 Y186.383 E18.15932
G1 X220.63 Y187.155 E18.18994
G1 X220.062 Y187.88 E18.22058
G1 X219.434 Y188.553 E18.25119
G1 X218.75 Y189.169 E18.28181
G1 X218.015 Y189.723 E18.31242
G1 X217.235 Y190.212 E18.34304
G1 X216.415 Y190.631 E18.37367
G1 X215.562 Y190.977 E18.40428
G1 X214.682 Y191.248 E18.43491
G1 X213.782 Y191.441 E18.46552
G1 X212.868 Y191.556 E18.49616
G1 X212.303 Y191.587 E18.51498
G1 X211.982 Y191.596 E18.52566
G1 X211.685 Y191.6 E18.53554
G1 X200.541 Y191.599 E18.90619
G1 X199.838 Y191.589 E18.92958
G1 X198.919 Y191.536 E18.9602
G1 X198.008 Y191.403 E18.99082
G1 X197.112 Y191.192 E19.02143
G1 X196.238 Y190.904 E19.05204
G1 X195.391 Y190.541 E19.08269
G1 X194.822 Y190.245 E19.10402
G1 X192.488 Y188.942 E19.19293
G1 X190.228 Y187.762 E19.27773
G1 X187.94 Y186.65 E19.36234
G1 X185.652 Y185.615 E19.44586
G1 X183.335 Y184.647 E19.52938
G1 X180.927 Y183.718 E19.61522
G1 X178.586 Y182.891 E19.6978
G1 X176.18 Y182.118 E19.78185
G1 X173.734 Y181.406 E19.86658
G1 X171.288 Y180.769 E19.95065
G1 X168.815 Y180.199 E20.03506
G1 X166.354 Y179.704 E20.11855
G1 X163.855 Y179.277 E20.20288
G1 X161.359 Y178.921 E20.28673
G1 X158.853 Y178.636 E20.37062
G1 X156.316 Y178.42 E20.45531
G1 X153.813 Y178.278 E20.53869
G1 X151.261 Y178.205 E20.6236
G1 X148.749 Y178.205 E20.70715
G1 X146.212 Y178.276 E20.79157
G1 X143.691 Y178.419 E20.87555
G1 X141.164 Y178.633 E20.9599
G1 X138.69 Y178.914 E21.04272
G1 X136.135 Y179.277 E21.12855
G1 X133.662 Y179.7 E21.212
G1 X131.218 Y180.189 E21.29489
G1 X128.71 Y180.766 E21.38049
G1 X126.267 Y181.402 E21.46445
G1 X123.871 Y182.098 E21.54744
G1 X121.419 Y182.886 E21.6331
G1 X119.053 Y183.72 E21.71654
G1 X116.725 Y184.617 E21.79952
G1 X114.356 Y185.606 E21.8849
G1 X112.075 Y186.636 E21.96814
G1 X109.795 Y187.744 E22.05246
G1 X107.523 Y188.928 E22.13767
G1 X106.352 Y189.582 E22.18228
G1 X105.13 Y190.257 E22.22871
G1 X104.306 Y190.666 E22.25931
G1 X103.449 Y191.003 E22.28994
G1 X102.566 Y191.264 E22.32056
G1 X101.664 Y191.447 E22.35117
G1 X100.749 Y191.552 E22.38181
G1 X100.224 Y191.576 E22.39929
G1 X99.157 Y191.598 E22.43478
G1 X98.938 Y191.6 E22.44207
G1 X88.54 Y191.599 E22.78791
G1 X87.842 Y191.589 E22.81112
G1 X86.923 Y191.536 E22.84174
G1 X86.012 Y191.403 E22.87236
G1 X85.116 Y191.192 E22.90298
G1 X84.242 Y190.904 E22.93359
G1 X83.395 Y190.541 E22.96424
G1 X82.584 Y190.106 E22.99484
G1 X81.814 Y189.602 E23.02545
G1 X81.09 Y189.033 E23.05608
G1 X80.418 Y188.403 E23.08672
G1 X79.803 Y187.718 E23.11734
G1 X79.25 Y186.982 E23.14795
G1 X78.763 Y186.201 E23.17857
G1 X78.346 Y185.38 E23.20919
G1 X78.001 Y184.526 E23.23983
G1 X77.732 Y183.646 E23.27043
G1 X77.54 Y182.745 E23.30107
G1 X77.427 Y181.832 E23.33167
G1 X77.398 Y181.277 E23.35016
G1 X77.389 Y180.945 E23.3612
G1 X77.385 Y180.658 E23.37075
G1 X77.386 Y171.556 E23.67348
G1 X77.396 Y170.854 E23.69683
G1 X77.449 Y169.935 E23.72745
G1 X77.582 Y169.024 E23.75807
G1 X77.793 Y168.128 E23.78869
G1 X78.081 Y167.253 E23.81933
G1 X78.444 Y166.407 E23.84995
G1 X78.879 Y165.596 E23.88056
G1 X79.383 Y164.825 E23.91119
G1 X79.951 Y164.101 E23.9418
G1 X80.581 Y163.429 E23.97244
G1 X81.335 Y162.759 E24.00598
G1 X81.868 Y162.329 E24.02876
G1 X83.107 Y161.357 E24.08114
G1 X85.048 Y159.743 E24.1651
G1 X86.952 Y158.065 E24.24951
G1 X88.799 Y156.344 E24.33348
G1 X90.586 Y154.582 E24.41695
G1 X92.343 Y152.749 E24.5014
G1 X94.045 Y150.869 E24.58574
G1 X95.678 Y148.959 E24.66932
G1 X97.264 Y146.995 E24.75329
G1 X99.201 Y144.435 E24.86006
G1 X100.028 Y143.304 E24.90666
G1 X100.406 Y142.801 E24.92759
G1 X100.596 Y142.556 E24.9379
G1 X101.157 Y141.855 E24.96776
G1 X102.286 Y140.484 E25.02683
G1 X102.701 Y139.995 E25.04816
G1 X102.891 Y139.778 E25.05776
G1 X103.558 Y139.036 E25.09094
G1 X104.704 Y137.799 E25.14703
G1 X105.169 Y137.311 E25.16945
G1 X105.38 Y137.095 E25.17949
G1 X105.958 Y136.522 E25.20656
G1 X107.32 Y135.214 E25.26937
G1 X107.772 Y134.791 E25.28996
G1 X108.001 Y134.583 E25.30025
G1 X108.731 Y133.94 E25.3326
G1 X110.086 Y132.782 E25.39189
G0 F6000 X110.342 Y133.09
G1 F1200 X110.787 Y132.72 E25.41113
G1 X111.021 Y132.531 E25.42114
G1 X111.757 Y131.956 E25.4522
G1 X113.036 Y130.985 E25.50561
G1 X113.692 Y130.502 E25.53271
G1 X113.917 Y130.341 E25.54191
G1 X114.713 Y129.79 E25.57411
G1 X116.136 Y128.838 E25.63105
G1 X116.658 Y128.497 E25.65179
G1 X116.931 Y128.324 E25.66254
