;FLAVOR:Marlin
;TIME:8449
;Filament used: 4.64761m
;Layer height: 0.24
;MINX:87.867
;MINY:100.439
;MINZ:0.2
;MAXX:212.123
;MAXY:199.414
;MAXZ:9.8
;Generated with Cura_SteamEngine 4.8.0
M140 S70
M105
M190 S70
M104 S225
M105
M109 S225
M82 ;absolute extrusion mode
M201 X500.00 Y500.00 Z100.00 E5000.00 ;Setup machine max acceleration
M203 X500.00 Y500.00 Z10.00 E50.00 ;Setup machine max feedrate
M204 P500.00 R1000.00 T500.00 ;Setup Print/Retract/Travel acceleration
M205 X8.00 Y8.00 Z0.40 E5.00 ;Setup Jerk
M220 S100 ;Reset Feedrate
M221 S100 ;Reset Flowrate

G28 ;Home

G92 E0 ;Reset Extruder
G1 Z2.0 F3000 ;Move Z Axis up
G1 X10.1 Y20 Z0.28 F5000.0 ;Move to start position
G1 X10.1 Y200.0 Z0.28 F1500.0 E15 ;Draw the first line
G1 X10.4 Y200.0 Z0.28 F5000.0 ;Move to side a little
G1 X10.4 Y20 Z0.28 F1500.0 E30 ;Draw the second line
G92 E0 ;Reset Extruder
G1 Z2.0 F3000 ;Move Z Axis up

G92 E0
G92 E0
G1 F2700 E-5
;LAYER_COUNT:41
;LAYER:0
M107
G0 F5400 X120.329 Y106.161 Z0.2
;TYPE:SKIRT
G1 F2700 E0
G1 F900 X120.966 Y105.473 E0.03119
G1 X121.66 Y104.843 E0.06236
G1 X122.406 Y104.273 E0.09359
G1 X123.197 Y103.769 E0.12478
G1 X124.028 Y103.335 E0.15596
G1 X124.893 Y102.973 E0.18715
G1 X125.786 Y102.685 E0.21836
G1 X126.629 Y102.489 E0.24714
G1 X127.554 Y102.312 E0.27847
G1 X131.13 Y101.688 E0.3992
G1 X131.892 Y101.566 E0.42487
G1 X132.201 Y101.521 E0.43526
G1 X132.673 Y101.462 E0.45108
G1 X132.971 Y101.43 E0.46105
G1 X136.907 Y101.037 E0.59261
G1 X137.591 Y100.979 E0.61544
G1 X138.208 Y100.944 E0.63599
G1 X138.56 Y100.934 E0.64771
G1 X138.872 Y100.93 E0.65809
G1 X140.856 Y100.93 E0.72407
G1 X143.464 Y100.893 E0.81082
G1 X145.986 Y100.786 E0.89478
G1 X148.46 Y100.611 E0.97727
G1 X148.989 Y100.561 E0.99495
G1 X149.743 Y100.499 E1.02011
G1 X150.424 Y100.464 E1.04279
G1 X151.576 Y100.441 E1.08111
G1 X151.796 Y100.439 E1.08843
G1 X156.23 Y100.439 E1.23591
G1 X156.949 Y100.448 E1.25982
G1 X157.292 Y100.458 E1.27123
G1 X158.466 Y100.513 E1.31032
G1 X162.838 Y100.786 E1.45602
G1 X163.672 Y100.85 E1.48384
G1 X164.604 Y100.962 E1.51506
G1 X165.522 Y101.153 E1.54625
G1 X166.42 Y101.421 E1.57742
G1 X167.293 Y101.765 E1.60863
G1 X168.133 Y102.182 E1.63982
G1 X168.934 Y102.67 E1.67102
G1 X169.691 Y103.223 E1.7022
G1 X170.398 Y103.839 E1.73338
G1 X171.05 Y104.513 E1.76457
G1 X171.643 Y105.241 E1.7958
G1 X172.299 Y106.227 E1.83519
G1 X172.713 Y106.932 E1.86239
G1 X173.394 Y108.125 E1.90808
G1 X174.689 Y110.251 E1.99087
G1 X176.065 Y112.377 E2.0751
G1 X177.506 Y114.465 E2.15948
G1 X178.966 Y116.461 E2.24173
G1 X180.545 Y118.495 E2.32738
G1 X182.13 Y120.422 E2.41036
G1 X183.763 Y122.296 E2.49304
G1 X185.5 Y124.181 E2.57829
G1 X187.242 Y125.964 E2.6612
G1 X189.062 Y127.726 E2.74545
G1 X190.908 Y129.415 E2.82867
G1 X192.599 Y130.878 E2.90305
G1 X192.912 Y131.156 E2.91697
G1 X193.122 Y131.348 E2.92643
G1 X193.666 Y131.861 E2.9513
G1 X196.513 Y134.614 E3.08302
G1 X196.968 Y135.066 E3.10436
G1 X197.605 Y135.755 E3.13557
G1 X198.181 Y136.495 E3.16676
G1 X198.518 Y136.999 E3.18692
G1 X198.681 Y137.258 E3.1971
G1 X200.098 Y139.44 E3.28363
G1 X201.536 Y141.519 E3.36771
G1 X203.037 Y143.567 E3.45216
G1 X204.554 Y145.519 E3.53439
G1 X206.151 Y147.456 E3.61788
G1 X208.553 Y150.178 E3.73863
G1 X209.114 Y150.79 E3.76624
G1 X209.718 Y151.507 E3.79742
G1 X210.258 Y152.274 E3.82862
G1 X210.732 Y153.083 E3.85981
G1 X211.134 Y153.93 E3.89099
G1 X211.464 Y154.808 E3.92219
G1 X211.717 Y155.711 E3.95338
G1 X211.833 Y156.274 E3.9725
G1 X211.897 Y156.629 E3.98449
G1 X211.957 Y156.993 E3.99676
G1 X212.012 Y157.37 E4.00944
G1 X212.107 Y158.303 E4.04063
G1 X212.123 Y159.241 E4.07183
G1 X212.059 Y160.176 E4.103
G1 X211.916 Y161.103 E4.1342
G1 X211.694 Y162.014 E4.16539
G1 X211.395 Y162.903 E4.19658
G1 X211.022 Y163.764 E4.22779
G1 X210.518 Y164.686 E4.26274
G1 X210.457 Y164.786 E4.26663
G1 X210.138 Y165.279 E4.28617
G1 X209.97 Y165.524 E4.29605
G1 X209.407 Y166.274 E4.32724
G1 X208.782 Y166.973 E4.35842
G1 X208.1 Y167.617 E4.38962
G1 X207.366 Y168.201 E4.42082
G1 X206.584 Y168.719 E4.45202
G1 X205.996 Y169.05 E4.47446
G1 X205.453 Y169.334 E4.49484
G1 X205.127 Y169.498 E4.50698
G1 X204.938 Y169.589 E4.51396
G1 X204.405 Y169.828 E4.53338
G1 X204.061 Y169.97 E4.54576
G1 X201.91 Y170.825 E4.62275
G1 X199.602 Y171.821 E4.70636
G1 X197.301 Y172.89 E4.79074
G1 X195.068 Y174.006 E4.87377
G1 X192.835 Y175.202 E4.95803
G1 X190.656 Y176.45 E5.04154
G1 X188.521 Y177.755 E5.12477
G1 X186.383 Y179.144 E5.20957
G1 X184.355 Y180.547 E5.29159
G1 X182.284 Y182.066 E5.37701
G1 X180.301 Y183.61 E5.4606
G1 X178.371 Y185.202 E5.54381
G1 X176.475 Y186.86 E5.62759
G1 X174.643 Y188.553 E5.71055
G1 X172.856 Y190.3 E5.79367
G1 X171.677 Y191.536 E5.85049
G1 X170.697 Y192.539 E5.89713
G1 X170.298 Y192.927 E5.91564
G1 X170.178 Y193.038 E5.92107
G1 X169.947 Y193.246 E5.93141
G1 X169.547 Y193.595 E5.94907
G1 X168.727 Y194.296 E5.98495
G1 X168.149 Y194.778 E6.00998
G1 X167.404 Y195.347 E6.04116
G1 X166.613 Y195.851 E6.07236
G1 X165.553 Y196.39 E6.11191
G1 X164.836 Y196.706 E6.13797
G1 X162.886 Y197.531 E6.20839
G1 X162.123 Y197.842 E6.2358
G1 X161.24 Y198.159 E6.267
G1 X160.278 Y198.41 E6.30007
G1 X158.985 Y198.685 E6.34403
G1 X157.338 Y199.001 E6.39981
G1 X156.662 Y199.121 E6.42265
G1 X155.466 Y199.266 E6.46272
G1 X155.149 Y199.287 E6.47329
G1 X154.793 Y199.305 E6.48514
G1 X151.975 Y199.399 E6.57892
G1 X151.232 Y199.414 E6.60364
G1 X150.57 Y199.407 E6.62566
G1 X150.47 Y199.403 E6.62899
G1 X149.589 Y199.332 E6.65838
G1 X148.677 Y199.221 E6.68894
G1 X147.44 Y199.052 E6.73047
G1 X146.566 Y198.92 E6.75986
G1 X146.268 Y198.871 E6.76991
G1 X144.947 Y198.633 E6.81455
G1 X144.097 Y198.465 E6.84337
G1 X143.452 Y198.316 E6.86539
G1 X142.586 Y198.088 E6.89517
G1 X141.582 Y197.817 E6.92976
G1 X141.066 Y197.664 E6.94766
G1 X139.652 Y197.207 E6.99709
G1 X138.494 Y196.845 E7.03744
G1 X138.076 Y196.705 E7.0521
G1 X137.978 Y196.67 E7.05556
G1 X137.334 Y196.417 E7.07858
G1 X136.827 Y196.198 E7.09695
G1 X136.526 Y196.063 E7.10792
G1 X136.296 Y195.956 E7.11636
G1 X135.018 Y195.347 E7.16344
G1 X134.831 Y195.256 E7.17036
G1 X134.272 Y194.976 E7.19115
G1 X132.925 Y194.291 E7.24141
G1 X132.156 Y193.86 E7.27073
G1 X131.338 Y193.358 E7.30266
G1 X129.109 Y192.035 E7.38887
G1 X126.416 Y190.533 E7.49143
G1 X125.617 Y190.042 E7.52262
G1 X125.158 Y189.715 E7.54136
G1 X124.823 Y189.463 E7.55531
G1 X122.717 Y187.916 E7.64222
G1 X120.673 Y186.505 E7.72483
G1 X118.53 Y185.111 E7.80986
G1 X116.392 Y183.806 E7.89317
G1 X114.204 Y182.552 E7.97705
G1 X111.997 Y181.37 E8.06032
G1 X109.753 Y180.249 E8.14375
G1 X107.454 Y179.18 E8.22807
G1 X105.155 Y178.189 E8.31134
G1 X102.76 Y177.235 E8.39708
G1 X100.491 Y176.408 E8.47741
G1 X97.042 Y175.278 E8.59812
G1 X96.504 Y175.113 E8.61684
G1 X95.62 Y174.8 E8.64803
G1 X94.765 Y174.413 E8.67924
G1 X93.947 Y173.955 E8.71043
G1 X93.171 Y173.429 E8.74161
G1 X92.683 Y173.045 E8.76226
G1 X92.227 Y172.665 E8.782
G1 X92.02 Y172.488 E8.79106
G1 X91.624 Y172.141 E8.80857
G1 X90.945 Y171.494 E8.83977
G1 X90.324 Y170.791 E8.87097
G1 X89.766 Y170.037 E8.90216
G1 X89.273 Y169.239 E8.93336
G1 X88.851 Y168.402 E8.96454
G1 X88.501 Y167.531 E8.99576
G1 X88.227 Y166.635 E9.02692
G1 X88.03 Y165.718 E9.05812
G1 X87.887 Y164.424 E9.10142
G1 X87.879 Y164.266 E9.10668
G1 X87.867 Y163.511 E9.1318
G1 X87.873 Y163.18 E9.14281
G1 X87.93 Y162.243 E9.17403
G1 X88.066 Y161.316 E9.20519
G1 X88.281 Y160.403 E9.23639
G1 X88.573 Y159.511 E9.26761
G1 X88.94 Y158.648 E9.2988
G1 X89.379 Y157.82 E9.32997
G1 X90.112 Y156.725 E9.37379
G1 X90.289 Y156.492 E9.38353
G1 X90.558 Y156.152 E9.39795
G1 X90.862 Y155.783 E9.41385
G1 X91.485 Y155.088 E9.44489
G1 X91.969 Y154.593 E9.46792
G1 X93.722 Y152.745 E9.55264
G1 X95.402 Y150.873 E9.6363
G1 X97.684 Y148.15 E9.75446
G1 X99.286 Y146.106 E9.84084
G1 X100.755 Y144.119 E9.92303
G1 X102.009 Y142.304 E9.9964
G1 X102.521 Y141.578 E10.02595
G1 X102.704 Y141.326 E10.03631
G1 X103.442 Y140.341 E10.07724
G1 X104.946 Y138.27 E10.16237
G1 X106.383 Y136.17 E10.24701
G1 X107.745 Y134.052 E10.33076
G1 X109.047 Y131.897 E10.4145
G1 X110.285 Y129.712 E10.49803
G1 X111.466 Y127.481 E10.58199
G1 X112.581 Y125.223 E10.66575
G1 X113.626 Y122.945 E10.7491
G1 X114.611 Y120.628 E10.83284
G1 X115.534 Y118.279 E10.91679
G1 X116.388 Y115.901 E11.00082
G1 X117.172 Y113.511 E11.08448
G1 X117.814 Y111.367 E11.15892
G1 X118.13 Y110.264 E11.19708
G1 X118.426 Y109.374 E11.22828
G1 X118.797 Y108.513 E11.25946
G1 X119.24 Y107.686 E11.29067
G1 X119.752 Y106.901 E11.32184
G1 X120.329 Y106.161 E11.35305
G0 F5400 X120.688 Y106.356
G1 F900 X121.32 Y105.687 E11.38366
G1 X122.008 Y105.075 E11.41428
G1 X122.746 Y104.525 E11.4449
G1 X123.529 Y104.041 E11.47551
G1 X124.351 Y103.626 E11.50614
G1 X125.207 Y103.285 E11.53679
G1 X126.088 Y103.019 E11.56739
G1 X126.704 Y102.882 E11.58838
G1 X127.623 Y102.706 E11.6195
G1 X131.193 Y102.083 E11.74004
G1 X131.955 Y101.961 E11.76571
G1 X132.253 Y101.918 E11.77572
G1 X132.717 Y101.859 E11.79128
G1 X133.011 Y101.828 E11.80111
G1 X136.94 Y101.436 E11.93244
G1 X137.624 Y101.378 E11.95527
G1 X138.219 Y101.344 E11.97509
G1 X138.571 Y101.334 E11.9868
G1 X138.872 Y101.33 E11.99681
G1 X140.862 Y101.33 E12.063
G1 X143.487 Y101.293 E12.15032
G1 X145.995 Y101.186 E12.23381
G1 X148.529 Y101.007 E12.3183
G1 X149.021 Y100.96 E12.33474
G1 X149.775 Y100.898 E12.3599
G1 X150.432 Y100.864 E12.38178
G1 X151.584 Y100.841 E12.42011
G1 X151.796 Y100.839 E12.42716
G1 X156.23 Y100.839 E12.57464
G1 X156.943 Y100.848 E12.59835
G1 X157.274 Y100.858 E12.60937
G1 X158.262 Y100.903 E12.64226
G1 X162.813 Y101.186 E12.79392
G1 X163.642 Y101.249 E12.82157
G1 X164.556 Y101.359 E12.85219
G1 X165.456 Y101.549 E12.88279
G1 X166.338 Y101.816 E12.91344
G1 X167.192 Y102.158 E12.94403
G1 X168.014 Y102.574 E12.97467
G1 X168.796 Y103.059 E13.00528
G1 X169.534 Y103.61 E13.03591
G1 X170.22 Y104.223 E13.06651
G1 X170.852 Y104.893 E13.09715
G1 X171.422 Y105.616 E13.12777
G1 X171.954 Y106.43 E13.16011
G1 X172.366 Y107.13 E13.18713
G1 X173.048 Y108.326 E13.23292
G1 X174.361 Y110.481 E13.31685
G1 X175.743 Y112.615 E13.40141
G1 X177.175 Y114.691 E13.48529
G1 X178.656 Y116.714 E13.56868
G1 X180.222 Y118.732 E13.65364
G1 X181.818 Y120.672 E13.73719
G1 X183.468 Y122.566 E13.82074
G1 X185.203 Y124.449 E13.9059
G1 X186.979 Y126.266 E13.99041
G1 X188.778 Y128.008 E14.0737
G1 X190.639 Y129.711 E14.1576
G1 X192.337 Y131.18 E14.23228
G1 X192.646 Y131.455 E14.24603
G1 X192.848 Y131.64 E14.25514
G1 X193.388 Y132.149 E14.27983
G1 X196.231 Y134.898 E14.41136
G1 X196.686 Y135.35 E14.43269
G1 X197.311 Y136.027 E14.46334
G1 X197.874 Y136.755 E14.49395
G1 X198.18 Y137.213 E14.51227
G1 X198.314 Y137.426 E14.52064
G1 X199.766 Y139.663 E14.60934
G1 X201.217 Y141.761 E14.69418
G1 X202.697 Y143.78 E14.77744
G1 X204.26 Y145.79 E14.86213
G1 X205.855 Y147.725 E14.94553
G1 X208.26 Y150.451 E15.06644
G1 X208.819 Y151.06 E15.09394
G1 X209.411 Y151.765 E15.12456
G1 X209.94 Y152.518 E15.15516
G1 X210.402 Y153.315 E15.1858
G1 X210.792 Y154.149 E15.21643
G1 X211.109 Y155.013 E15.24704
G1 X211.44 Y156.345 E15.29269
G1 X211.504 Y156.7 E15.30468
G1 X211.561 Y157.051 E15.31651
G1 X211.616 Y157.428 E15.32918
G1 X211.709 Y158.344 E15.35981
G1 X211.723 Y159.264 E15.39041
G1 X211.656 Y160.182 E15.42102
G1 X211.51 Y161.092 E15.45168
G1 X211.286 Y161.984 E15.48227
G1 X210.985 Y162.855 E15.51292
G1 X210.61 Y163.695 E15.54351
G1 X210.176 Y164.478 E15.57329
G1 X210.115 Y164.578 E15.57718
G1 X209.808 Y165.053 E15.596
G1 X209.64 Y165.298 E15.60588
G1 X209.087 Y166.034 E15.6365
G1 X208.472 Y166.719 E15.66711
G1 X207.8 Y167.348 E15.69773
G1 X207.076 Y167.917 E15.72835
G1 X206.305 Y168.42 E15.75897
G1 X205.811 Y168.696 E15.77779
G1 X205.268 Y168.98 E15.79818
G1 X204.953 Y169.138 E15.8099
G1 X204.764 Y169.229 E15.81687
G1 X204.251 Y169.459 E15.83557
G1 X203.913 Y169.599 E15.84774
G1 X201.74 Y170.463 E15.92552
G1 X199.423 Y171.462 E16.00944
G1 X197.161 Y172.514 E16.09241
G1 X194.879 Y173.654 E16.17726
G1 X192.627 Y174.861 E16.26224
G1 X190.47 Y176.096 E16.34491
G1 X188.274 Y177.437 E16.43049
G1 X186.191 Y178.791 E16.51312
G1 X184.089 Y180.245 E16.59813
G1 X182.047 Y181.744 E16.68238
G1 X180.067 Y183.284 E16.76581
G1 X178.115 Y184.895 E16.84999
G1 X176.205 Y186.564 E16.93435
G1 X174.355 Y188.274 E17.01814
G1 X172.583 Y190.007 E17.10058
G1 X171.391 Y191.257 E17.15803
G1 X170.411 Y192.26 E17.20467
G1 X170.027 Y192.633 E17.22247
G1 X169.684 Y192.945 E17.2379
G1 X169.287 Y193.291 E17.25541
G1 X168.471 Y193.989 E17.29113
G1 X167.893 Y194.471 E17.31616
G1 X167.161 Y195.029 E17.34677
G1 X166.383 Y195.522 E17.3774
G1 X165.391 Y196.024 E17.41438
G1 X164.68 Y196.337 E17.44022
G1 X162.596 Y197.218 E17.51547
G1 X161.972 Y197.472 E17.53788
G1 X161.105 Y197.782 E17.56851
G1 X160.194 Y198.019 E17.59982
G1 X159.124 Y198.248 E17.63621
G1 X158.91 Y198.292 E17.64348
G1 X157.268 Y198.607 E17.69908
G1 X156.592 Y198.727 E17.72192
G1 X155.44 Y198.867 E17.76052
G1 X155.123 Y198.888 E17.77108
G1 X154.779 Y198.905 E17.78254
G1 X151.967 Y198.999 E17.87612
G1 X151.224 Y199.014 E17.90084
G1 X150.586 Y199.008 E17.92206
G1 X150.486 Y199.004 E17.92539
G1 X149.637 Y198.935 E17.95372
G1 X148.731 Y198.824 E17.98408
G1 X147.337 Y198.633 E18.03087
G1 X146.626 Y198.525 E18.05479
G1 X146.338 Y198.477 E18.0645
G1 X145.017 Y198.239 E18.10915
G1 X144.821 Y198.202 E18.11578
G1 X144.175 Y198.073 E18.13769
G1 X143.553 Y197.929 E18.15893
G1 X142.691 Y197.702 E18.18858
G1 X141.687 Y197.431 E18.22316
G1 X141.189 Y197.283 E18.24044
G1 X139.77 Y196.824 E18.29005
G1 X138.614 Y196.463 E18.33033
G1 X138.211 Y196.328 E18.34446
G1 X138.113 Y196.293 E18.34792
G1 X137.492 Y196.05 E18.3701
G1 X136.991 Y195.833 E18.38826
G1 X136.69 Y195.698 E18.39924
G1 X136.468 Y195.595 E18.40737
G1 X135.19 Y194.986 E18.45446
G1 X134.518 Y194.652 E18.47942
G1 X133.106 Y193.934 E18.53211
G1 X132.365 Y193.519 E18.56035
G1 X131.545 Y193.016 E18.59235
G1 X129.314 Y191.691 E18.67865
G1 X126.61 Y190.184 E18.78161
G1 X125.827 Y189.701 E18.81221
G1 X125.399 Y189.395 E18.82971
G1 X125.061 Y189.141 E18.84377
G1 X122.959 Y187.597 E18.93052
G1 X120.889 Y186.168 E19.01418
G1 X118.76 Y184.782 E19.09867
G1 X116.594 Y183.46 E19.18307
G1 X114.413 Y182.211 E19.26667
G1 X112.158 Y181.003 E19.35175
G1 X109.922 Y179.886 E19.43489
G1 X107.645 Y178.827 E19.51841
G1 X105.282 Y177.808 E19.604
G1 X102.938 Y176.875 E19.68791
G1 X100.599 Y176.023 E19.77071
G1 X97.142 Y174.889 E19.89171
G1 X96.621 Y174.73 E19.90983
G1 X95.753 Y174.423 E19.94045
G1 X94.915 Y174.041 E19.97109
G1 X94.114 Y173.588 E20.00169
G1 X93.355 Y173.067 E20.03231
G1 X92.939 Y172.738 E20.04995
G1 X92.483 Y172.358 E20.06969
G1 X92.283 Y172.187 E20.07845
G1 X91.887 Y171.84 E20.09596
G1 X91.222 Y171.204 E20.12656
G1 X90.614 Y170.512 E20.1572
G1 X90.069 Y169.771 E20.1878
G1 X89.59 Y168.985 E20.21841
G1 X89.181 Y168.16 E20.24904
G1 X88.845 Y167.302 E20.27968
G1 X88.585 Y166.419 E20.3103
G1 X88.402 Y165.517 E20.34091
G1 X88.287 Y164.404 E20.37813
G1 X88.279 Y164.246 E20.38339
G1 X88.267 Y163.518 E20.40761
G1 X88.273 Y163.187 E20.41862
G1 X88.329 Y162.268 E20.44924
G1 X88.466 Y161.357 E20.47988
G1 X88.68 Y160.462 E20.51049
G1 X88.972 Y159.589 E20.5411
G1 X89.338 Y158.744 E20.57173
G1 X89.776 Y157.935 E20.60233
G1 X90.43 Y156.967 E20.64119
G1 X90.607 Y156.734 E20.65092
G1 X90.867 Y156.406 E20.66484
G1 X91.171 Y156.037 E20.68074
G1 X91.771 Y155.368 E20.71063
G1 X92.262 Y154.865 E20.73401
G1 X94.01 Y153.024 E20.81844
G1 X95.709 Y151.129 E20.9031
G1 X97.949 Y148.459 E21.01901
G1 X98.028 Y148.361 E21.0232
G1 X99.607 Y146.345 E21.10837
G1 X101.094 Y144.334 E21.19156
G1 X102.335 Y142.535 E21.26425
G1 X102.847 Y141.809 E21.29379
G1 X103.024 Y141.566 E21.30379
G1 X103.774 Y140.564 E21.34542
G1 X105.285 Y138.485 E21.4309
G1 X106.717 Y136.391 E21.51528
G1 X108.072 Y134.286 E21.59854
G1 X109.389 Y132.106 E21.68325
G1 X110.643 Y129.89 E21.76794
G1 X111.813 Y127.681 E21.85108
G1 X112.932 Y125.415 E21.93514
G1 X113.999 Y123.089 E22.02025
G1 X114.98 Y120.782 E22.10363
G1 X115.918 Y118.393 E22.189
G1 X116.758 Y116.055 E22.27163
G1 X117.555 Y113.625 E22.35668
G1 X118.188 Y111.515 E22.42995
G1 X118.514 Y110.374 E22.46942
