;FLAVOR:Marlin
;TIME:8436
;Filament used: 4.01832m
;Layer height: 0.24
;MINX:95.657
;MINY:85.974
;MINZ:0.2
;MAXX:204.363
;MAXY:214.033
;MAXZ:5.24
;Generated with Cura_SteamEngine 4.8.0
M140 S70
M105
M190 S70
M104 S225
M105
M109 S225
M82 ;absolute extrusion mode
M201 X500.00 Y500.00 Z100.00 E5000.00 ;Setup machine max acceleration
M203 X500.00 Y500.00 Z10.00 E50.00 ;Setup machine max feedrate
M204 P500.00 R1000.00 T500.00 ;Setup Print/Retract/Travel acceleration
M205 X8.00 Y8.00 Z0.40 E5.00 ;Setup Jerk
M220 S100 ;Reset Feedrate
M221 S100 ;Reset Flowrate

G28 ;Home

G92 E0 ;Reset Extruder
G1 Z2.0 F3000 ;Move Z Axis up
G1 X10.1 Y20 Z0.28 F5000.0 ;Move to start position
G1 X10.1 Y200.0 Z0.28 F1500.0 E15 ;Draw the first line
G1 X10.4 Y200.0 Z0.28 F5000.0 ;Move to side a little
G1 X10.4 Y20 Z0.28 F1500.0 E30 ;Draw the second line
G92 E0 ;Reset Extruder
G1 Z2.0 F3000 ;Move Z Axis up

G92 E0
G92 E0
G1 F2700 E-5
;LAYER_COUNT:22
;LAYER:0
M107
G0 F5400 X98.438 Y89.659 Z0.2
;TYPE:SKIRT
G1 F2700 E0
G1 F900 X99.091 Y88.986 E0.03119
G1 X99.799 Y88.371 E0.06238
G1 X100.557 Y87.818 E0.09359
G1 X101.359 Y87.332 E0.12478
G1 X102.2 Y86.916 E0.15599
G1 X103.073 Y86.573 E0.18718
G1 X103.972 Y86.306 E0.21837
G1 X104.89 Y86.116 E0.24955
G1 X105.821 Y86.006 E0.28073
G1 X106.759 Y85.974 E0.31195
G1 X107.789 Y86.033 E0.34626
G1 X107.895 Y86.044 E0.34981
G1 X108.378 Y86.105 E0.366
G1 X108.647 Y86.145 E0.37505
G1 X109.568 Y86.322 E0.40624
G1 X110.032 Y86.443 E0.42219
G1 X112.543 Y87.156 E0.50901
G1 X115.004 Y87.781 E0.59346
G1 X117.45 Y88.327 E0.67681
G1 X118.631 Y88.554 E0.71681
G1 X119.809 Y88.795 E0.75681
G1 X120.719 Y89.022 E0.788
G1 X121.632 Y89.336 E0.82011
G1 X122.22 Y89.569 E0.84115
G1 X122.561 Y89.712 E0.85345
G1 X123.339 Y90.052 E0.88169
G1 X123.704 Y90.216 E0.895
G1 X124.429 Y90.535 E0.92134
G1 X125.567 Y91.049 E0.96287
G1 X126.238 Y91.364 E0.98753
G1 X126.797 Y91.633 E1.00816
G1 X126.878 Y91.674 E1.01118
G1 X127.53 Y91.987 E1.03523
G1 X127.962 Y92.189 E1.0511
G1 X128.814 Y92.604 E1.08262
G1 X131.137 Y93.693 E1.16795
G1 X133.433 Y94.691 E1.25122
G1 X135.809 Y95.646 E1.33639
G1 X138.142 Y96.506 E1.41909
G1 X140.534 Y97.313 E1.50305
G1 X142.952 Y98.054 E1.58716
G1 X145.371 Y98.719 E1.67061
G1 X147.842 Y99.326 E1.75523
G1 X150.244 Y99.842 E1.83695
G1 X152.715 Y100.301 E1.92054
G1 X156.588 Y100.881 E2.05079
G1 X157.821 Y101.04 E2.09214
G1 X158.746 Y101.2 E2.12336
G1 X159.653 Y101.438 E2.15455
G1 X160.537 Y101.752 E2.18575
G1 X161.129 Y102.012 E2.20726
G1 X162.069 Y102.458 E2.24187
G1 X162.276 Y102.559 E2.24953
G1 X164.011 Y103.428 E2.31407
G1 X164.696 Y103.782 E2.33971
G1 X165.243 Y104.084 E2.36049
G1 X165.97 Y104.515 E2.3886
G1 X167.937 Y105.714 E2.46522
G1 X168.363 Y105.98 E2.48193
G1 X168.962 Y106.382 E2.50592
G1 X169.925 Y107.075 E2.54538
G1 X170.104 Y107.206 E2.55276
G1 X171.893 Y108.549 E2.62716
G1 X172.599 Y109.094 E2.65683
G1 X173.538 Y109.907 E2.69814
G1 X174.138 Y110.492 E2.72601
G1 X177.263 Y113.618 E2.87302
G1 X177.733 Y114.101 E2.89544
G1 X178.357 Y114.8 E2.9266
G1 X178.746 Y115.304 E2.94778
G1 X179.252 Y116.001 E2.97642
G1 X180.129 Y117.245 E3.02705
G1 X180.496 Y117.78 E3.04863
G1 X180.993 Y118.575 E3.07981
G1 X181.42 Y119.41 E3.111
G1 X181.897 Y120.634 E3.1547
G1 X182.171 Y121.486 E3.18446
G1 X182.284 Y121.86 E3.19746
G1 X182.428 Y122.369 E3.21505
G1 X182.644 Y123.281 E3.24622
G1 X182.779 Y124.176 E3.27633
G1 X182.823 Y124.598 E3.29044
G1 X183.015 Y126.65 E3.35899
G1 X183.322 Y129.165 E3.44326
G1 X183.7 Y131.669 E3.52749
G1 X184.142 Y134.126 E3.61052
G1 X184.654 Y136.58 E3.6939
G1 X185.242 Y139.039 E3.77799
G1 X185.903 Y141.494 E3.86255
G1 X186.617 Y143.879 E3.94535
G1 X187.414 Y146.284 E4.02962
G1 X188.269 Y148.646 E4.11317
G1 X189.194 Y150.988 E4.19692
G1 X190.184 Y153.3 E4.28057
G1 X191.232 Y155.571 E4.36376
G1 X192.604 Y158.316 E4.46583
G1 X195.351 Y163.587 E4.66352
G1 X195.74 Y164.359 E4.69227
G1 X195.882 Y164.651 E4.70307
G1 X196.056 Y165.032 E4.71701
G1 X196.275 Y165.535 E4.73525
G1 X198.428 Y170.628 E4.91916
G1 X198.633 Y171.131 E4.93723
G1 X198.761 Y171.459 E4.94894
G1 X199.179 Y172.59 E4.98904
G1 X199.526 Y173.578 E5.02387
G1 X200.035 Y175.096 E5.07712
G1 X200.086 Y175.251 E5.08255
G1 X201.909 Y180.978 E5.28245
G1 X202.155 Y181.791 E5.3107
G1 X202.384 Y182.685 E5.34139
G1 X202.575 Y183.592 E5.37222
G1 X203.658 Y189.121 E5.55961
G1 X203.779 Y189.788 E5.58216
G1 X203.862 Y190.314 E5.59987
G1 X203.913 Y190.701 E5.61285
G1 X203.941 Y190.938 E5.62079
G1 X204.14 Y192.765 E5.68191
G1 X204.254 Y194.02 E5.72383
G1 X204.316 Y194.819 E5.75048
G1 X204.348 Y195.484 E5.77263
G1 X204.363 Y196.401 E5.80313
G1 X204.363 Y201.023 E5.95686
G1 X204.355 Y201.676 E5.97858
G1 X204.323 Y202.374 E6.00182
G1 X204.241 Y203.429 E6.03701
G1 X204.204 Y203.813 E6.04984
G1 X204.153 Y204.264 E6.06494
G1 X204.008 Y205.191 E6.09615
G1 X203.785 Y206.101 E6.12731
G1 X203.485 Y206.99 E6.15852
G1 X203.11 Y207.85 E6.18972
G1 X202.663 Y208.674 E6.2209
G1 X202.148 Y209.458 E6.2521
G1 X201.568 Y210.195 E6.28329
G1 X200.927 Y210.88 E6.3145
G1 X200.23 Y211.507 E6.34568
G1 X199.482 Y212.073 E6.37688
G1 X198.689 Y212.574 E6.40807
G1 X197.856 Y213.005 E6.43927
G1 X196.989 Y213.363 E6.47047
G1 X196.095 Y213.646 E6.50165
G1 X195.18 Y213.852 E6.53285
G1 X194.251 Y213.98 E6.56404
G1 X193.365 Y214.027 E6.59355
G1 X192.899 Y214.033 E6.60905
G1 X192.592 Y214.033 E6.61926
G1 X192.126 Y214.026 E6.63476
G1 X191.189 Y213.972 E6.66598
G1 X190.642 Y213.903 E6.68432
G1 X189.861 Y213.783 E6.7106
G1 X186.215 Y213.174 E6.83354
G1 X185.537 Y213.05 E6.85647
G1 X184.647 Y212.848 E6.88682
G1 X183.767 Y212.609 E6.91715
G1 X182.84 Y212.343 E6.94923
G1 X182.656 Y212.287 E6.95563
G1 X182.343 Y212.187 E6.96655
G1 X181.91 Y212.041 E6.98175
G1 X179.833 Y211.368 E7.05437
G1 X178.787 Y211.042 E7.09081
G1 X178.231 Y210.86 E7.11027
G1 X177.614 Y210.638 E7.13208
G1 X176.654 Y210.259 E7.16641
G1 X173.039 Y208.754 E7.29664
G1 X172.39 Y208.472 E7.32018
G1 X171.855 Y208.222 E7.33982
G1 X171.551 Y208.07 E7.35113
G1 X171.252 Y207.914 E7.36234
G1 X171.006 Y207.782 E7.37163
G1 X167.805 Y206.136 E7.49135
G1 X167.273 Y205.866 E7.51119
G1 X166.668 Y205.534 E7.53414
G1 X165.754 Y204.995 E7.56943
G1 X164.788 Y204.442 E7.60645
G1 X164.241 Y204.117 E7.62762
G1 X163.977 Y203.955 E7.63792
G1 X163.033 Y203.358 E7.67507
G1 X162.715 Y203.166 E7.68742
G1 X162.03 Y202.726 E7.7145
G1 X161.911 Y202.642 E7.71935
G1 X160.822 Y201.951 E7.76224
G1 X160.578 Y201.791 E7.77195
G1 X160.013 Y201.41 E7.79461
G1 X157.351 Y199.568 E7.90228
G1 X155.748 Y198.416 E7.96794
G1 X153.661 Y196.861 E8.0545
G1 X153.163 Y196.479 E8.07538
G1 X152.902 Y196.273 E8.08643
G1 X152.162 Y195.667 E8.11825
G1 X150.43 Y194.21 E8.19353
G1 X148.459 Y192.599 E8.27819
G1 X146.428 Y191.033 E8.36349
G1 X144.404 Y189.56 E8.44675
G1 X142.343 Y188.149 E8.52983
G1 X140.239 Y186.794 E8.61306
G1 X138.068 Y185.482 E8.69743
G1 X135.849 Y184.223 E8.78229
G1 X133.656 Y183.06 E8.86485
G1 X131.412 Y181.951 E8.9481
G1 X129.096 Y180.887 E9.03287
G1 X126.797 Y179.908 E9.11598
G1 X124.412 Y178.97 E9.20122
G1 X122.132 Y178.15 E9.28181
G1 X119.704 Y177.366 E9.36667
G1 X118.399 Y176.941 E9.41232
G1 X118.171 Y176.864 E9.42032
G1 X117.511 Y176.633 E9.44358
G1 X116.64 Y176.286 E9.47477
G1 X115.801 Y175.866 E9.50597
G1 X114.977 Y175.359 E9.53815
G1 X114.215 Y174.843 E9.56876
G1 X113.949 Y174.657 E9.57955
G1 X113.368 Y174.238 E9.60338
G1 X112.631 Y173.657 E9.63459
G1 X111.753 Y172.813 E9.6751
G1 X111.198 Y172.216 E9.70221
G1 X109.508 Y170.347 E9.78602
G1 X109.037 Y169.812 E9.80973
G1 X108.448 Y169.082 E9.84092
G1 X108.081 Y168.554 E9.86231
G1 X107.555 Y167.746 E9.89438
G1 X106.64 Y166.292 E9.95152
G1 X106.27 Y165.683 E9.97522
G1 X105.982 Y165.18 E9.9945
G1 X105.839 Y164.914 E10.00454
G1 X105.687 Y164.619 E10.01558
G1 X104.908 Y163.057 E10.07363
G1 X104.569 Y162.354 E10.09959
G1 X104.427 Y162.049 E10.11078
G1 X104.267 Y161.684 E10.12404
G1 X104.098 Y161.281 E10.13857
G1 X103.332 Y159.406 E10.20594
G1 X103.06 Y158.716 E10.23061
G1 X102.846 Y158.124 E10.25154
G1 X102.606 Y157.393 E10.27713
G1 X101.424 Y153.649 E10.40772
G1 X101.168 Y152.794 E10.4374
G1 X100.886 Y151.616 E10.47769
G1 X100.721 Y150.701 E10.50861
G1 X100.675 Y150.417 E10.51818
G1 X100.567 Y149.702 E10.54223
G1 X100.467 Y148.769 E10.57344
G1 X100.446 Y147.832 E10.60462
G1 X100.475 Y147.238 E10.6244
G1 X100.642 Y144.585 E10.71281
G1 X100.729 Y142.039 E10.79754
G1 X100.744 Y139.511 E10.88162
G1 X100.688 Y137.027 E10.96426
G1 X100.559 Y134.493 E11.04865
G1 X100.36 Y131.986 E11.1323
G1 X100.089 Y129.468 E11.21653
G1 X99.75 Y126.982 E11.29998
G1 X99.344 Y124.53 E11.38264
G1 X98.858 Y122.028 E11.46742
G1 X98.315 Y119.607 E11.54994
G1 X98.036 Y118.502 E11.58784
G1 X97.89 Y117.891 E11.60874
G1 X97.28 Y115.556 E11.68901
G1 X97.247 Y115.405 E11.69415
G1 X97.128 Y114.944 E11.70998
G1 X96.76 Y113.562 E11.75755
G1 X96.52 Y112.42 E11.79636
G1 X96.412 Y111.724 E11.81979
G1 X96.329 Y111.128 E11.8398
G1 X96.255 Y110.649 E11.85593
G1 X96.143 Y109.553 E11.89257
G1 X96.129 Y109.284 E11.90153
G1 X96.114 Y108.677 E11.92172
G1 X96.122 Y106.018 E12.01016
G1 X96.057 Y103.428 E12.09633
G1 X95.927 Y101.006 E12.177
G1 X95.683 Y98.058 E12.27539
G1 X95.657 Y96.654 E12.3221
G1 X95.665 Y96.477 E12.32799
G1 X95.747 Y95.543 E12.35917
G1 X95.909 Y94.619 E12.39037
G1 X96.149 Y93.712 E12.42158
G1 X96.465 Y92.829 E12.45277
G1 X96.855 Y91.977 E12.48394
G1 X97.316 Y91.16 E12.51514
G1 X97.845 Y90.386 E12.54632
G1 X98.438 Y89.659 E12.57752
G0 F5400 X98.828 Y89.825
G1 F900 X99.478 Y89.173 E12.60814
G1 X100.182 Y88.579 E12.63878
G1 X100.934 Y88.049 E12.66938
G1 X101.73 Y87.587 E12.69999
G1 X102.564 Y87.195 E12.73064
G1 X103.428 Y86.877 E12.76126
G1 X104.316 Y86.635 E12.79188
G1 X105.222 Y86.471 E12.8225
G1 X106.139 Y86.387 E12.85313
G1 X107.059 Y86.382 E12.88373
G1 X107.748 Y86.431 E12.9067
G1 X107.854 Y86.442 E12.91024
G1 X108.319 Y86.5 E12.92583
G1 X108.588 Y86.54 E12.93488
G1 X109.923 Y86.828 E12.9803
G1 X112.45 Y87.545 E13.06767
G1 X114.915 Y88.172 E13.15226
G1 X117.353 Y88.716 E13.23534
G1 X118.551 Y88.946 E13.27592
G1 X119.729 Y89.187 E13.31591
G1 X120.622 Y89.411 E13.34653
G1 X121.486 Y89.708 E13.37692
G1 X122.068 Y89.939 E13.39775
G1 X122.401 Y90.078 E13.40975
G1 X123.175 Y90.417 E13.43785
G1 X123.516 Y90.57 E13.45028
G1 X124.265 Y90.899 E13.47749
G1 X125.397 Y91.411 E13.51881
G1 X126.066 Y91.725 E13.54339
G1 X126.447 Y91.907 E13.55744
G1 X126.705 Y92.035 E13.56702
G1 X127.369 Y92.353 E13.5915
G1 X127.786 Y92.548 E13.60681
G1 X128.622 Y92.955 E13.63774
G1 X130.999 Y94.07 E13.72507
G1 X133.291 Y95.066 E13.80818
G1 X135.64 Y96.01 E13.89239
G1 X138.012 Y96.885 E13.97648
G1 X140.426 Y97.699 E14.06121
G1 X142.802 Y98.427 E14.14386
G1 X145.275 Y99.107 E14.22916
G1 X147.767 Y99.719 E14.31451
G1 X150.2 Y100.241 E14.39727
G1 X152.634 Y100.694 E14.47962
G1 X156.528 Y101.277 E14.61058
G1 X157.77 Y101.437 E14.65223
G1 X158.677 Y101.594 E14.68284
G1 X159.567 Y101.83 E14.71347
G1 X160.434 Y102.142 E14.74412
G1 X160.958 Y102.373 E14.76316
G1 X161.898 Y102.819 E14.79777
G1 X162.097 Y102.916 E14.80513
G1 X163.828 Y103.783 E14.86952
G1 X164.513 Y104.137 E14.89517
G1 X165.04 Y104.429 E14.91521
G1 X165.762 Y104.857 E14.94312
G1 X167.725 Y106.053 E15.01958
G1 X168.151 Y106.319 E15.03628
G1 X168.729 Y106.706 E15.05942
G1 X169.692 Y107.399 E15.09888
G1 X169.864 Y107.526 E15.10599
G1 X171.77 Y108.958 E15.18528
G1 X172.355 Y109.41 E15.20987
G1 X173.259 Y110.194 E15.24967
G1 X173.855 Y110.775 E15.27735
G1 X176.976 Y113.897 E15.42418
G1 X177.446 Y114.38 E15.44659
G1 X178.059 Y115.067 E15.47722
G1 X178.423 Y115.539 E15.49704
G1 X178.925 Y116.232 E15.5255
G1 X179.799 Y117.471 E15.57593
G1 X180.166 Y118.006 E15.59751
G1 X180.653 Y118.787 E15.62812
G1 X181.071 Y119.607 E15.65874
G1 X181.516 Y120.757 E15.69975
G1 X181.79 Y121.609 E15.72952
G1 X181.899 Y121.968 E15.74199
G1 X182.043 Y122.477 E15.75959
G1 X182.255 Y123.373 E15.79021
G1 X182.381 Y124.219 E15.81866
G1 X182.425 Y124.635 E15.83257
G1 X182.618 Y126.703 E15.90166
G1 X182.928 Y129.237 E15.98656
G1 X183.304 Y131.728 E16.07035
G1 X183.75 Y134.208 E16.15416
G1 X184.26 Y136.65 E16.23714
G1 X184.852 Y139.131 E16.32197
G1 X185.519 Y141.607 E16.40726
G1 X186.24 Y144.014 E16.49083
G1 X187.03 Y146.398 E16.57436
G1 X187.897 Y148.793 E16.65908
G1 X188.818 Y151.126 E16.7425
G1 X189.819 Y153.463 E16.82706
G1 X190.869 Y155.738 E16.9104
G1 X192.274 Y158.548 E17.01489
G1 X195.065 Y163.907 E17.21586
G1 X195.383 Y164.539 E17.23939
G1 X195.52 Y164.82 E17.24979
G1 X195.583 Y164.955 E17.25474
G1 X195.856 Y165.574 E17.27724
G1 X198.005 Y170.651 E17.46061
G1 X198.263 Y171.282 E17.48328
G1 X198.386 Y171.598 E17.49456
G1 X198.801 Y172.722 E17.53441
G1 X199.199 Y173.858 E17.57445
G1 X199.705 Y175.373 E17.62757
G1 X201.528 Y181.1 E17.82747
G1 X201.772 Y181.906 E17.85548
G1 X201.993 Y182.768 E17.88508
G1 X202.183 Y183.669 E17.9157
G1 X203.265 Y189.192 E18.10289
G1 X203.386 Y189.859 E18.12544
G1 X203.465 Y190.366 E18.1425
G1 X203.544 Y190.982 E18.16316
G1 X203.722 Y192.604 E18.21743
G1 X203.742 Y192.801 E18.22402
G1 X203.868 Y194.201 E18.27077
G1 X203.918 Y194.85 E18.29242
G1 X203.948 Y195.491 E18.31376
G1 X203.963 Y196.408 E18.34427
G1 X203.963 Y201.023 E18.49776
G1 X203.955 Y201.67 E18.51928
G1 X203.924 Y202.343 E18.54169
G1 X203.842 Y203.398 E18.57689
G1 X203.807 Y203.768 E18.58925
G1 X203.756 Y204.219 E18.60434
G1 X203.613 Y205.129 E18.63498
G1 X203.391 Y206.022 E18.66559
G1 X203.093 Y206.893 E18.69621
G1 X202.721 Y207.735 E18.72682
G1 X202.276 Y208.541 E18.75744
G1 X201.764 Y209.306 E18.78806
G1 X201.187 Y210.024 E18.8187
G1 X200.55 Y210.688 E18.8493
G1 X199.857 Y211.295 E18.87994
G1 X199.115 Y211.84 E18.91056
G1 X198.328 Y212.318 E18.94119
G1 X197.503 Y212.726 E18.9718
G1 X196.645 Y213.06 E19.00242
G1 X195.762 Y213.319 E19.03303
G1 X194.859 Y213.501 E19.06367
G1 X193.944 Y213.603 E19.09429
G1 X193.359 Y213.627 E19.11376
G1 X192.893 Y213.633 E19.12926
G1 X192.598 Y213.633 E19.13908
G1 X192.132 Y213.626 E19.15458
G1 X191.213 Y213.572 E19.1852
G1 X190.702 Y213.507 E19.20233
G1 X189.927 Y213.389 E19.2284
G1 X186.45 Y212.809 E19.34564
G1 X185.609 Y212.656 E19.37408
G1 X184.752 Y212.462 E19.4033
G1 X183.876 Y212.225 E19.43348
G1 X183.136 Y212.014 E19.45908
G1 X182.773 Y211.905 E19.47168
G1 X182.471 Y211.808 E19.48223
G1 X182.009 Y211.652 E19.49845
G1 X179.975 Y210.993 E19.56957
G1 X178.911 Y210.662 E19.60663
G1 X178.355 Y210.48 E19.62609
G1 X177.761 Y210.265 E19.6471
G1 X176.617 Y209.812 E19.68802
G1 X173.199 Y208.387 E19.81119
G1 X172.55 Y208.105 E19.83472
G1 X172.034 Y207.864 E19.85367
G1 X171.73 Y207.712 E19.86497
G1 X171.441 Y207.562 E19.8758
G1 X171.158 Y207.41 E19.88648
G1 X167.988 Y205.78 E20.00504
G1 X167.454 Y205.509 E20.02496
G1 X166.871 Y205.19 E20.04706
G1 X165.949 Y204.647 E20.08265
G1 X164.993 Y204.098 E20.11932
G1 X164.446 Y203.773 E20.14048
G1 X164.191 Y203.617 E20.15042
G1 X163.085 Y202.917 E20.19396
G1 X162.931 Y202.83 E20.19984
G1 X162.246 Y202.39 E20.22692
G1 X162.125 Y202.305 E20.23184
G1 X161.037 Y201.614 E20.2747
G1 X160.801 Y201.46 E20.28408
G1 X160.24 Y201.081 E20.30659
G1 X157.736 Y199.35 E20.40784
G1 X157.584 Y199.243 E20.41402
G1 X156.136 Y198.204 E20.4733
G1 X155.987 Y198.095 E20.47944
G1 X153.904 Y196.544 E20.56582
G1 X153.406 Y196.162 E20.58669
G1 X153.155 Y195.963 E20.59735
G1 X152.419 Y195.361 E20.62897
G1 X150.649 Y193.872 E20.7059
G1 X148.711 Y192.288 E20.78915
G1 X146.685 Y190.725 E20.87426
G1 X144.619 Y189.222 E20.95923
G1 X142.58 Y187.826 E21.04142
G1 X140.416 Y186.432 E21.12704
G1 X138.278 Y185.14 E21.21012
G1 X136.07 Y183.887 E21.29456
G1 X133.842 Y182.707 E21.37842
G1 X131.549 Y181.573 E21.4635
G1 X129.271 Y180.527 E21.54687
G1 X126.952 Y179.539 E21.63071
G1 X124.557 Y178.597 E21.71631
G1 X122.246 Y177.767 E21.79798
G1 X119.828 Y176.986 E21.8825
G1 X118.523 Y176.561 E21.92814
G1 X118.303 Y176.487 E21.93586
G1 X117.643 Y176.256 E21.95912
G1 X116.788 Y175.914 E21.98975
G1 X115.966 Y175.5 E22.02036
G1 X115.202 Y175.028 E22.05023
G1 X114.44 Y174.512 E22.08084
G1 X114.183 Y174.332 E22.09127
G1 X113.602 Y173.913 E22.1151
G1 X112.879 Y173.343 E22.14572
G1 X112.045 Y172.541 E22.1842
