;FLAVOR:Marlin
;TIME:7320
;Filament used: 7.6706m
;Layer height: 0.24
;MINX:96
;MINY:97.509
;MINZ:0.2
;MAXX:203.99
;MAXY:202.489
;MAXZ:49.88
;Generated with Cura_SteamEngine 4.6.1
M140 S70
M105
M190 S70
M104 S225
M105
M109 S225
M82 ;absolute extrusion mode
M201 X500.00 Y500.00 Z100.00 E5000.00 ;Setup machine max acceleration
M203 X500.00 Y500.00 Z10.00 E50.00 ;Setup machine max feedrate
M204 P500.00 R1000.00 T500.00 ;Setup Print/Retract/Travel acceleration
M205 X8.00 Y8.00 Z0.40 E5.00 ;Setup Jerk
M220 S100 ;Reset Feedrate
M221 S100 ;Reset Flowrate

G28 ;Home

G92 E0 ;Reset Extruder
G1 Z2.0 F3000 ;Move Z Axis up
G1 X10.1 Y20 Z0.28 F5000.0 ;Move to start position
G1 X10.1 Y200.0 Z0.28 F1500.0 E15 ;Draw the first line
G1 X10.4 Y200.0 Z0.28 F5000.0 ;Move to side a little
G1 X10.4 Y20 Z0.28 F1500.0 E30 ;Draw the second line
G92 E0 ;Reset Extruder
G1 Z2.0 F3000 ;Move Z Axis up

G92 E0
G92 E0
G1 F2700 E-5
;LAYER_COUNT:208
;LAYER:0
M107
G0 F6000 X110.132 Y98.32 Z0.2
;TYPE:SKIRT
G1 F2700 E0
G1 F1200 X111.034 Y98.373 E0.03005
G1 X111.927 Y98.505 E0.06008
G1 X112.806 Y98.716 E0.09014
G1 X113.662 Y99.004 E0.12018
G1 X114.489 Y99.366 E0.15021
G1 X115.281 Y99.8 E0.18025
G1 X116.031 Y100.303 E0.21028
G1 X116.734 Y100.87 E0.24032
G1 X117.384 Y101.496 E0.27033
G1 X118.091 Y102.324 E0.30655
G1 X118.566 Y102.946 E0.33258
G1 X120.139 Y104.95 E0.41731
G1 X121.758 Y106.896 E0.50151
G1 X123.46 Y108.827 E0.58712
G1 X125.172 Y110.665 E0.67066
G1 X126.956 Y112.47 E0.75507
G1 X128.802 Y114.241 E0.84016
G1 X130.682 Y115.941 E0.92446
G1 X132.605 Y117.585 E1.00861
G1 X134.604 Y119.199 E1.09406
G1 X136.589 Y120.709 E1.17701
G1 X138.696 Y122.22 E1.26325
G1 X140.775 Y123.624 E1.34669
G1 X142.92 Y124.987 E1.43122
G1 X145.079 Y126.273 E1.5148
G1 X147.324 Y127.527 E1.60033
G1 X149.591 Y128.71 E1.68537
G1 X151.862 Y129.815 E1.76938
G1 X154.167 Y130.856 E1.8535
G1 X156.523 Y131.843 E1.93846
G1 X158.879 Y132.748 E2.0224
G1 X161.292 Y133.601 E2.10752
G1 X163.694 Y134.373 E2.19144
G1 X166.125 Y135.08 E2.27564
G1 X168.612 Y135.728 E2.36112
G1 X171.079 Y136.297 E2.44533
G1 X173.577 Y136.797 E2.53006
G1 X176.048 Y137.22 E2.61344
G1 X178.575 Y137.58 E2.69834
G1 X181.108 Y137.868 E2.78313
G1 X183.644 Y138.084 E2.86778
G1 X186.148 Y138.227 E2.9512
G1 X188.733 Y138.3 E3.03721
G1 X190.056 Y138.309 E3.08122
G1 X192.454 Y138.31 E3.16098
G1 X193.151 Y138.321 E3.18416
G1 X194.052 Y138.375 E3.21418
G1 X194.946 Y138.509 E3.24425
G1 X195.823 Y138.721 E3.27426
G1 X196.679 Y139.01 E3.30431
G1 X197.506 Y139.374 E3.33436
G1 X198.297 Y139.809 E3.36439
G1 X199.047 Y140.313 E3.39444
G1 X199.749 Y140.881 E3.42447
G1 X200.398 Y141.509 E3.45451
G1 X200.989 Y142.191 E3.48453
G1 X201.518 Y142.924 E3.51459
G1 X201.979 Y143.7 E3.54461
G1 X202.37 Y144.514 E3.57465
G1 X202.688 Y145.359 E3.60468
G1 X202.93 Y146.23 E3.63474
G1 X203.093 Y147.118 E3.66477
G1 X203.178 Y148.017 E3.69481
G1 X203.19 Y148.52 E3.71154
G1 X203.185 Y149.083 E3.73027
G1 X203.131 Y150.868 E3.78966
G1 X203.104 Y151.486 E3.81024
G1 X203.084 Y151.819 E3.82133
G1 X203 Y152.902 E3.85746
G1 X202.879 Y154.201 E3.90086
G1 X202.784 Y155.045 E3.9291
G1 X202.627 Y156.175 E3.96705
G1 X202.431 Y157.431 E4.00933
G1 X202.276 Y158.311 E4.03905
G1 X202.066 Y159.346 E4.07417
G1 X201.778 Y160.658 E4.11885
G1 X201.585 Y161.462 E4.14635
G1 X201.285 Y162.584 E4.18498
G1 X200.955 Y163.745 E4.22512
G1 X200.675 Y164.661 E4.25698
G1 X200.334 Y165.68 E4.29272
G1 X199.897 Y166.916 E4.33633
G1 X199.6 Y167.71 E4.36452
G1 X199.175 Y168.761 E4.40223
G1 X198.685 Y169.916 E4.44396
G1 X198.311 Y170.755 E4.47451
G1 X197.85 Y171.719 E4.51005
G1 X197.272 Y172.878 E4.55313
G1 X196.866 Y173.657 E4.58234
G1 X196.314 Y174.65 E4.62013
G1 X195.677 Y175.751 E4.66244
G1 X195.227 Y176.496 E4.69139
G1 X194.614 Y177.456 E4.72927
G1 X193.943 Y178.467 E4.76963
G1 X193.602 Y178.968 E4.78978
G1 X193.412 Y179.238 E4.80077
G1 X192.758 Y180.133 E4.83763
G1 X192.017 Y181.114 E4.87852
G1 X191.432 Y181.859 E4.91003
G1 X190.735 Y182.699 E4.94633
G1 X189.919 Y183.651 E4.98804
G1 X189.314 Y184.331 E5.01831
G1 X188.557 Y185.138 E5.05511
G1 X187.67 Y186.053 E5.0975
G1 X187.043 Y186.676 E5.12689
G1 X186.217 Y187.453 E5.16461
G1 X185.308 Y188.282 E5.20553
G1 X184.606 Y188.897 E5.23657
G1 X183.773 Y189.59 E5.27261
G1 X182.776 Y190.393 E5.31519
G1 X182.316 Y190.753 E5.33462
G1 X182.07 Y190.939 E5.34488
G1 X181.176 Y191.594 E5.38174
G1 X180.127 Y192.338 E5.42451
G1 X179.423 Y192.815 E5.4528
G1 X178.433 Y193.452 E5.49195
G1 X177.421 Y194.079 E5.53155
G1 X176.898 Y194.394 E5.55185
G1 X176.622 Y194.554 E5.56246
G1 X175.631 Y195.107 E5.60021
G1 X174.519 Y195.704 E5.64219
G1 X173.749 Y196.1 E5.67099
G1 X172.727 Y196.59 E5.70868
G1 X171.564 Y197.125 E5.75126
G1 X170.78 Y197.467 E5.77971
G1 X169.714 Y197.902 E5.818
G1 X168.571 Y198.346 E5.85879
G1 X167.711 Y198.661 E5.88925
G1 X166.65 Y199.018 E5.92648
G1 X165.5 Y199.383 E5.96661
G1 X164.576 Y199.66 E5.9987
G1 X163.522 Y199.943 E6.03499
G1 X162.318 Y200.247 E6.0763
G1 X161.438 Y200.452 E6.10635
G1 X160.293 Y200.686 E6.14522
G1 X159.065 Y200.915 E6.18677
G1 X158.219 Y201.057 E6.2153
G1 X157.098 Y201.215 E6.25295
G1 X155.862 Y201.369 E6.29438
G1 X155.267 Y201.435 E6.31429
G1 X154.958 Y201.464 E6.32461
G1 X153.852 Y201.552 E6.36151
G1 X152.577 Y201.631 E6.404
G1 X151.691 Y201.669 E6.4335
G1 X150.589 Y201.688 E6.47015
G1 X149.325 Y201.689 E6.5122
G1 X148.761 Y201.682 E6.53096
G1 X148.439 Y201.673 E6.54167
G1 X147.255 Y201.62 E6.58109
G1 X146.078 Y201.548 E6.62031
G1 X145.156 Y201.475 E6.65107
G1 X144.023 Y201.354 E6.68897
G1 X142.816 Y201.206 E6.72941
G1 X141.919 Y201.078 E6.75955
G1 X140.76 Y200.882 E6.79865
G1 X139.605 Y200.667 E6.83772
G1 X138.668 Y200.475 E6.86953
G1 X137.608 Y200.227 E6.90574
G1 X136.364 Y199.916 E6.94839
G1 X135.511 Y199.684 E6.97779
G1 X134.454 Y199.369 E7.01448
G1 X133.233 Y198.981 E7.05709
G1 X132.705 Y198.806 E7.07559
G1 X132.411 Y198.703 E7.08595
G1 X131.327 Y198.305 E7.12436
G1 X130.203 Y197.871 E7.16443
G1 X129.336 Y197.518 E7.19557
G1 X128.308 Y197.067 E7.2329
G1 X127.2 Y196.557 E7.27347
G1 X126.35 Y196.149 E7.30483
G1 X125.383 Y195.651 E7.34101
G1 X124.259 Y195.049 E7.38342
G1 X123.465 Y194.605 E7.41368
G1 X122.527 Y194.045 E7.45001
G1 X121.458 Y193.386 E7.49178
G1 X120.685 Y192.889 E7.52234
G1 X119.79 Y192.278 E7.55839
G1 X118.724 Y191.526 E7.60178
G1 X118.042 Y191.025 E7.62992
G1 X117.128 Y190.316 E7.6684
G1 X116.132 Y189.516 E7.71089
G1 X115.716 Y189.173 E7.72882
G1 X115.476 Y188.968 E7.73932
G1 X114.625 Y188.22 E7.777
G1 X113.709 Y187.388 E7.81816
G1 X113.026 Y186.743 E7.84941
G1 X112.271 Y185.991 E7.88485
G1 X111.37 Y185.065 E7.92782
G1 X110.762 Y184.417 E7.95737
G1 X110.017 Y183.576 E7.99474
G1 X109.224 Y182.654 E8.03519
G1 X108.627 Y181.932 E8.06635
G1 X107.917 Y181.025 E8.10466
G1 X107.214 Y180.098 E8.14336
G1 X106.626 Y179.293 E8.17651
G1 X106.031 Y178.427 E8.21146
G1 X105.311 Y177.344 E8.25471
G1 X105.022 Y176.898 E8.27239
G1 X104.845 Y176.614 E8.28352
G1 X104.252 Y175.628 E8.32179
G1 X103.627 Y174.55 E8.36323
G1 X103.2 Y173.78 E8.39252
G1 X102.671 Y172.763 E8.43065
G1 X102.116 Y171.654 E8.47189
G1 X101.863 Y171.132 E8.49119
G1 X101.726 Y170.837 E8.502
G1 X101.276 Y169.825 E8.53884
G1 X100.779 Y168.658 E8.58103
G1 X100.575 Y168.163 E8.59884
G1 X100.447 Y167.835 E8.61055
G1 X100.055 Y166.779 E8.64801
G1 X99.647 Y165.628 E8.68863
G1 X99.344 Y164.721 E8.72043
G1 X99.037 Y163.712 E8.75551
G1 X98.68 Y162.467 E8.79859
G1 X98.448 Y161.595 E8.8286
G1 X98.196 Y160.537 E8.86478
G1 X97.925 Y159.314 E8.90644
G1 X97.8 Y158.717 E8.92673
G1 X97.735 Y158.374 E8.93834
G1 X97.555 Y157.335 E8.97341
G1 X97.355 Y156.063 E9.01624
G1 X97.231 Y155.172 E9.04616
G1 X97.109 Y154.07 E9.08303
G1 X96.992 Y152.837 E9.12423
G1 X96.943 Y152.241 E9.14412
G1 X96.922 Y151.91 E9.15515
G1 X96.867 Y150.781 E9.19274
G1 X96.83 Y149.662 E9.22998
G1 X96.8 Y147.769 E9.29295
G1 X96.801 Y109.03 E10.58142
G1 X96.811 Y108.365 E10.60354
G1 X96.865 Y107.463 E10.63359
G1 X96.998 Y106.57 E10.66362
G1 X97.209 Y105.692 E10.69365
G1 X97.498 Y104.836 E10.7237
G1 X97.861 Y104.009 E10.75374
G1 X98.295 Y103.218 E10.78375
G1 X98.798 Y102.467 E10.81381
G1 X99.366 Y101.765 E10.84385
G1 X99.993 Y101.115 E10.87389
G1 X100.675 Y100.523 E10.90392
G1 X101.407 Y99.994 E10.93396
G1 X102.183 Y99.532 E10.964
G1 X102.997 Y99.141 E10.99403
G1 X103.842 Y98.822 E11.02408
G1 X104.712 Y98.58 E11.05411
G1 X105.6 Y98.416 E11.08414
G1 X106.723 Y98.322 E11.12163
G1 X107.33 Y98.309 E11.14182
G1 X109.431 Y98.31 E11.2117
G1 X110.132 Y98.32 E11.23502
G0 F6000 X110.138 Y97.92
G1 F1200 X111.057 Y97.973 E11.26563
G1 X111.968 Y98.106 E11.29626
G1 X112.864 Y98.317 E11.32687
G1 X113.739 Y98.605 E11.35751
G1 X114.585 Y98.968 E11.38813
G1 X115.396 Y99.403 E11.41874
G1 X116.167 Y99.907 E11.44937
G1 X116.891 Y100.476 E11.48
G1 X117.563 Y101.105 E11.51062
G1 X118.408 Y102.082 E11.55358
G1 X118.803 Y102.599 E11.57522
G1 X120.46 Y104.71 E11.66448
G1 X122.068 Y106.642 E11.74808
G1 X123.753 Y108.554 E11.83285
G1 X125.467 Y110.395 E11.91651
G1 X127.235 Y112.184 E12.00016
G1 X129.064 Y113.938 E12.08445
G1 X130.947 Y115.642 E12.16891
G1 X132.87 Y117.285 E12.25304
G1 X134.83 Y118.868 E12.33684
G1 X136.842 Y120.398 E12.42091
G1 X138.907 Y121.879 E12.50543
G1 X140.992 Y123.288 E12.58912
G1 X143.134 Y124.648 E12.67351
G1 X145.299 Y125.938 E12.75733
G1 X147.525 Y127.181 E12.84213
G1 X149.744 Y128.34 E12.9254
G1 X152.024 Y129.449 E13.00973
G1 X154.337 Y130.493 E13.09413
G1 X156.696 Y131.481 E13.17919
G1 X159.007 Y132.37 E13.26155
G1 X161.41 Y133.218 E13.3463
G1 X163.813 Y133.991 E13.43026
G1 X166.233 Y134.695 E13.51409
G1 X168.698 Y135.337 E13.59881
G1 X171.176 Y135.908 E13.68339
G1 X173.617 Y136.397 E13.76619
G1 X176.136 Y136.829 E13.85119
G1 X178.645 Y137.186 E13.93548
G1 X181.115 Y137.466 E14.01816
G1 X183.665 Y137.684 E14.10329
G1 X186.183 Y137.827 E14.18717
G1 X188.747 Y137.9 E14.27248
G1 X190.058 Y137.909 E14.31609
G1 X192.46 Y137.91 E14.39598
G1 X193.157 Y137.921 E14.41916
G1 X194.076 Y137.976 E14.44978
G1 X194.987 Y138.11 E14.48041
G1 X195.883 Y138.322 E14.51103
G1 X196.757 Y138.612 E14.54166
G1 X197.602 Y138.976 E14.57226
G1 X198.413 Y139.412 E14.60289
G1 X199.183 Y139.917 E14.63352
G1 X199.906 Y140.487 E14.66414
G1 X200.577 Y141.118 E14.69477
G1 X201.191 Y141.804 E14.72539
G1 X201.743 Y142.541 E14.75602
G1 X202.228 Y143.323 E14.78663
G1 X202.645 Y144.144 E14.81725
G1 X202.988 Y144.998 E14.84786
G1 X203.256 Y145.879 E14.87849
G1 X203.446 Y146.78 E14.90912
G1 X203.558 Y147.694 E14.93974
G1 X203.59 Y148.52 E14.96724
G1 X203.585 Y149.095 E14.98636
G1 X203.531 Y150.886 E15.04596
G1 X203.504 Y151.504 E15.06653
G1 X203.483 Y151.85 E15.07806
G1 X203.399 Y152.939 E15.11439
G1 X203.277 Y154.244 E15.15798
G1 X203.18 Y155.099 E15.1866
G1 X203.022 Y156.236 E15.22478
G1 X202.825 Y157.499 E15.2673
G1 X202.668 Y158.39 E15.29739
G1 X202.457 Y159.431 E15.33272
G1 X202.168 Y160.75 E15.37763
G1 X201.972 Y161.565 E15.40551
G1 X201.67 Y162.694 E15.44438
G1 X201.338 Y163.86 E15.4847
G1 X201.149 Y164.489 E15.50655
G1 X201.054 Y164.787 E15.51695
G1 X200.711 Y165.813 E15.55293
G1 X200.273 Y167.055 E15.59673
G1 X200.087 Y167.56 E15.61463
G1 X199.971 Y167.859 E15.6253
G1 X199.543 Y168.917 E15.66326
G1 X199.051 Y170.077 E15.70517
G1 X198.672 Y170.927 E15.73612
G1 X198.208 Y171.897 E15.77189
G1 X197.628 Y173.062 E15.81517
G1 X197.369 Y173.565 E15.83399
G1 X197.216 Y173.85 E15.84475
G1 X196.66 Y174.85 E15.8828
G1 X196.02 Y175.956 E15.9253
G1 X195.564 Y176.711 E15.95464
G1 X194.947 Y177.676 E15.99273
G1 X194.274 Y178.692 E16.03327
G1 X193.933 Y179.193 E16.05342
G1 X193.735 Y179.474 E16.06486
G1 X193.078 Y180.373 E16.10189
G1 X192.333 Y181.359 E16.143
G1 X191.741 Y182.114 E16.17491
G1 X191.039 Y182.959 E16.21144
G1 X190.219 Y183.916 E16.25336
G1 X189.607 Y184.604 E16.28399
G1 X188.844 Y185.416 E16.32105
G1 X187.953 Y186.335 E16.36362
G1 X187.317 Y186.966 E16.39342
G1 X186.487 Y187.748 E16.43135
G1 X185.573 Y188.582 E16.4725
G1 X184.863 Y189.204 E16.50389
G1 X184.025 Y189.902 E16.54017
G1 X183.023 Y190.708 E16.58294
G1 X182.307 Y191.262 E16.61305
G1 X181.408 Y191.921 E16.65012
G1 X180.353 Y192.668 E16.69312
G1 X179.64 Y193.151 E16.72176
G1 X178.644 Y193.792 E16.76116
G1 X177.627 Y194.421 E16.80093
G1 X176.818 Y194.903 E16.83225
G1 X175.821 Y195.459 E16.87022
G1 X174.704 Y196.059 E16.91239
G1 X174.218 Y196.312 E16.93061
G1 X173.922 Y196.46 E16.94162
G1 X172.895 Y196.953 E16.97951
G1 X171.725 Y197.491 E17.02234
G1 X170.931 Y197.837 E17.05115
G1 X169.859 Y198.275 E17.08967
G1 X168.711 Y198.72 E17.13062
G1 X167.839 Y199.04 E17.16151
G1 X166.771 Y199.399 E17.19899
G1 X165.616 Y199.766 E17.23929
G1 X164.68 Y200.046 E17.27179
G1 X163.62 Y200.331 E17.3083
G1 X162.411 Y200.636 E17.34977
G1 X161.835 Y200.773 E17.36946
G1 X161.518 Y200.843 E17.38026
G1 X160.366 Y201.079 E17.41937
G1 X159.133 Y201.309 E17.46109
G1 X158.275 Y201.453 E17.49002
G1 X157.148 Y201.612 E17.52788
G1 X155.906 Y201.766 E17.5695
G1 X154.99 Y201.863 E17.60014
G1 X153.877 Y201.951 E17.63727
G1 X152.596 Y202.031 E17.67996
G1 X152.015 Y202.059 E17.69931
G1 X151.698 Y202.069 E17.70986
G1 X150.59 Y202.088 E17.74672
G1 X149.32 Y202.089 E17.78896
G1 X148.422 Y202.073 E17.81883
G1 X147.232 Y202.019 E17.85845
G1 X146.048 Y201.947 E17.8979
G1 X145.114 Y201.873 E17.92906
G1 X143.974 Y201.751 E17.9672
G1 X142.762 Y201.602 E18.00781
G1 X141.853 Y201.472 E18.03835
G1 X140.687 Y201.275 E18.07768
G1 X139.526 Y201.059 E18.11696
G1 X138.896 Y200.933 E18.13833
G1 X138.577 Y200.864 E18.14919
G1 X137.511 Y200.615 E18.1856
G1 X136.261 Y200.302 E18.22845
G1 X135.397 Y200.068 E18.25823
G1 X134.333 Y199.75 E18.29516
G1 X133.107 Y199.361 E18.33794
G1 X132.579 Y199.186 E18.35644
G1 X132.273 Y199.079 E18.36722
G1 X131.183 Y198.679 E18.40584
G1 X130.054 Y198.242 E18.44611
G1 X129.478 Y198.011 E18.46675
G1 X129.175 Y197.884 E18.47768
G1 X128.141 Y197.43 E18.51524
G1 X127.029 Y196.919 E18.55594
G1 X126.468 Y196.653 E18.57659
G1 X126.168 Y196.505 E18.58772
G1 X125.194 Y196.004 E18.62415
G1 X124.065 Y195.399 E18.66675
G1 X123.261 Y194.949 E18.69739
G1 X122.317 Y194.386 E18.73395
G1 X121.244 Y193.723 E18.7759
G1 X120.734 Y193.399 E18.796
G1 X120.46 Y193.219 E18.8069
G1 X119.56 Y192.605 E18.84314
G1 X118.489 Y191.849 E18.88674
G1 X117.798 Y191.341 E18.91527
G1 X116.878 Y190.628 E18.95398
G1 X115.878 Y189.824 E18.99666
G1 X115.212 Y189.269 E19.02549
G1 X114.356 Y188.516 E19.06341
G1 X113.436 Y187.68 E19.10475
G1 X112.744 Y187.027 E19.1364
G1 X111.985 Y186.27 E19.17205
G1 X111.079 Y185.34 E19.21524
G1 X110.694 Y184.934 E19.23385
G1 X110.463 Y184.682 E19.24522
G1 X109.714 Y183.837 E19.28277
G1 X108.918 Y182.911 E19.32339
G1 X108.516 Y182.43 E19.34424
G1 X108.313 Y182.179 E19.35497
G1 X107.598 Y181.267 E19.39352
G1 X106.892 Y180.336 E19.43238
G1 X106.491 Y179.792 E19.45486
G1 X106.297 Y179.52 E19.46597
G1 X105.698 Y178.649 E19.50113
G1 X104.975 Y177.561 E19.54458
G1 X104.686 Y177.115 E19.56225
G1 X104.502 Y176.82 E19.57382
G1 X103.906 Y175.829 E19.61228
G1 X103.278 Y174.746 E19.65392
G1 X102.845 Y173.965 E19.68362
G1 X102.313 Y172.942 E19.72197
G1 X101.756 Y171.828 E19.7634
G1 X101.503 Y171.306 E19.78269
G1 X101.361 Y171 E19.79391
G1 X100.908 Y169.982 E19.83097
G1 X100.41 Y168.81 E19.87332
G1 X100.206 Y168.315 E19.89113
G1 X100.072 Y167.974 E19.90332
G1 X99.678 Y166.913 E19.94096
G1 X99.268 Y165.757 E19.98176
G1 X98.961 Y164.838 E20.01398
G1 X98.653 Y163.823 E20.04926
G1 X98.294 Y162.571 E20.09258
G1 X98.06 Y161.688 E20.12296
G1 X97.805 Y160.624 E20.15935
G1 X97.534 Y159.396 E20.20118
G1 X97.409 Y158.799 E20.22147
G1 X97.341 Y158.442 E20.23355
G1 X97.16 Y157.397 E20.26883
G1 X96.959 Y156.12 E20.31183
G1 X96.877 Y155.553 E20.33088
G1 X96.834 Y155.216 E20.34218
G1 X96.711 Y154.108 E20.37926
G1 X96.594 Y152.87 E20.42062
G1 X96.545 Y152.274 E20.44051
G1 X96.522 Y151.93 E20.45197
G1 X96.467 Y150.795 E20.48977
G1 X96.431 Y149.669 E20.52724
G1 X96.4 Y147.769 E20.59044
G1 X96.401 Y109.024 E21.87911
G1 X96.411 Y108.359 E21.90123
G1 X96.465 Y107.44 E21.93185
G1 X96.598 Y106.529 E21.96247
G1 X96.81 Y105.633 E21.99309
G1 X97.099 Y104.758 E22.02374
G1 X97.463 Y103.913 E22.05434
