;FLAVOR:Marlin
;TIME:433
;Filament used: 0.270162m
;Layer height: 0.24
;MINX:130.464
;MINY:132.5
;MINZ:0.2
;MAXX:169.435
;MAXY:167.5
;MAXZ:6.92
;Generated with Cura_SteamEngine 4.6.1
M140 S70
M105
M190 S70
M104 S225
M105
M109 S225
M82 ;absolute extrusion mode
M201 X500.00 Y500.00 Z100.00 E5000.00 ;Setup machine max acceleration
M203 X500.00 Y500.00 Z10.00 E50.00 ;Setup machine max feedrate
M204 P500.00 R1000.00 T500.00 ;Setup Print/Retract/Travel acceleration
M205 X8.00 Y8.00 Z0.40 E5.00 ;Setup Jerk
M220 S100 ;Reset Feedrate
M221 S100 ;Reset Flowrate

G28 ;Home

G92 E0 ;Reset Extruder
G1 Z2.0 F3000 ;Move Z Axis up
G1 X10.1 Y20 Z0.28 F5000.0 ;Move to start position
G1 X10.1 Y200.0 Z0.28 F1500.0 E15 ;Draw the first line
G1 X10.4 Y200.0 Z0.28 F5000.0 ;Move to side a little
G1 X10.4 Y20 Z0.28 F1500.0 E30 ;Draw the second line
G92 E0 ;Reset Extruder
G1 Z2.0 F3000 ;Move Z Axis up

G92 E0
G92 E0
G1 F2700 E-5
;LAYER_COUNT:29
;LAYER:0
M107
G0 F6000 X158.572 Y133.311 Z0.2
;TYPE:SKIRT
G1 F2700 E0
G1 F1200 X159.474 Y133.364 E0.03005
G1 X160.367 Y133.496 E0.06008
G1 X161.245 Y133.707 E0.09011
G1 X162.101 Y133.995 E0.12015
G1 X162.928 Y134.357 E0.15018
G1 X163.72 Y134.792 E0.18023
G1 X164.471 Y135.294 E0.21027
G1 X165.174 Y135.861 E0.24031
G1 X165.824 Y136.488 E0.27035
G1 X166.416 Y137.17 E0.30039
G1 X166.946 Y137.901 E0.33042
G1 X167.408 Y138.677 E0.36046
G1 X167.801 Y139.49 E0.39049
G1 X168.119 Y140.335 E0.42052
G1 X168.362 Y141.205 E0.45056
G1 X168.527 Y142.093 E0.4806
G1 X168.622 Y143.223 E0.51832
G1 X168.635 Y143.83 E0.53851
G1 X168.634 Y155.89 E0.93963
G1 X168.625 Y156.617 E0.96381
G1 X168.574 Y157.519 E0.99386
G1 X168.443 Y158.413 E1.02391
G1 X168.234 Y159.291 E1.05393
G1 X167.948 Y160.148 E1.08398
G1 X167.587 Y160.976 E1.11403
G1 X167.155 Y161.768 E1.14403
G1 X166.654 Y162.52 E1.17409
G1 X166.088 Y163.224 E1.20413
G1 X165.463 Y163.875 E1.23415
G1 X164.782 Y164.469 E1.2642
G1 X164.051 Y165 E1.29425
G1 X163.277 Y165.464 E1.32427
G1 X162.464 Y165.858 E1.35432
G1 X161.62 Y166.178 E1.38434
G1 X160.75 Y166.423 E1.4144
G1 X159.863 Y166.589 E1.44441
G1 X158.712 Y166.687 E1.48283
G1 X158.105 Y166.7 E1.50303
G1 X142.039 Y166.699 E2.03738
G1 X141.341 Y166.69 E2.0606
G1 X140.44 Y166.639 E2.09062
G1 X139.546 Y166.507 E2.12067
G1 X138.668 Y166.298 E2.15069
G1 X137.811 Y166.011 E2.18075
G1 X136.984 Y165.65 E2.21076
G1 X136.191 Y165.217 E2.24082
G1 X135.44 Y164.716 E2.27084
G1 X134.736 Y164.15 E2.30089
G1 X134.085 Y163.524 E2.33093
G1 X133.492 Y162.843 E2.36096
G1 X132.962 Y162.112 E2.39099
G1 X132.498 Y161.337 E2.42103
G1 X132.104 Y160.524 E2.45108
G1 X131.784 Y159.68 E2.4811
G1 X131.54 Y158.81 E2.51116
G1 X131.374 Y157.922 E2.5412
G1 X131.277 Y156.767 E2.57975
G1 X131.264 Y156.158 E2.60001
G1 X131.265 Y144.036 E3.00319
G1 X131.274 Y143.371 E3.02531
G1 X131.326 Y142.469 E3.05536
G1 X131.458 Y141.576 E3.08539
G1 X131.668 Y140.698 E3.11541
G1 X131.955 Y139.841 E3.14547
G1 X132.317 Y139.014 E3.1755
G1 X132.75 Y138.222 E3.20552
G1 X133.252 Y137.471 E3.23557
G1 X133.819 Y136.767 E3.26563
G1 X134.445 Y136.117 E3.29565
G1 X135.126 Y135.524 E3.32568
G1 X135.858 Y134.994 E3.35574
G1 X136.633 Y134.531 E3.38576
G1 X137.446 Y134.138 E3.4158
G1 X138.291 Y133.818 E3.44585
G1 X139.16 Y133.575 E3.47586
G1 X140.048 Y133.409 E3.50591
G1 X141.187 Y133.313 E3.54393
G1 X141.794 Y133.3 E3.56412
G1 X157.874 Y133.301 E4.09894
G1 X158.572 Y133.311 E4.12216
G0 F6000 X158.578 Y132.911
G1 F1200 X159.497 Y132.964 E4.15278
G1 X160.408 Y133.097 E4.1834
G1 X161.304 Y133.308 E4.21402
G1 X162.178 Y133.596 E4.24462
G1 X163.025 Y133.959 E4.27527
G1 X163.836 Y134.394 E4.30588
G1 X164.606 Y134.898 E4.33649
G1 X165.33 Y135.467 E4.36712
G1 X166.002 Y136.097 E4.39775
G1 X166.617 Y136.782 E4.42837
G1 X167.17 Y137.518 E4.45899
G1 X167.657 Y138.299 E4.4896
G1 X168.074 Y139.12 E4.52023
G1 X168.419 Y139.974 E4.55087
G1 X168.688 Y140.854 E4.58147
G1 X168.88 Y141.755 E4.61211
G1 X168.993 Y142.668 E4.64271
G1 X169.022 Y143.212 E4.66083
G1 X169.035 Y143.83 E4.68139
G1 X169.034 Y155.895 E5.08267
G1 X169.025 Y156.622 E5.10685
G1 X168.974 Y157.541 E5.13747
G1 X168.843 Y158.453 E5.16811
G1 X168.633 Y159.349 E5.19872
G1 X168.347 Y160.224 E5.22934
G1 X167.986 Y161.071 E5.25996
G1 X167.552 Y161.883 E5.29058
G1 X167.05 Y162.655 E5.32121
G1 X166.482 Y163.38 E5.35184
G1 X165.854 Y164.053 E5.38246
G1 X165.17 Y164.669 E5.41308
G1 X164.435 Y165.223 E5.44369
G1 X163.655 Y165.712 E5.47431
G1 X162.835 Y166.131 E5.50494
G1 X161.982 Y166.477 E5.53555
G1 X161.102 Y166.748 E5.56618
G1 X160.202 Y166.941 E5.59679
G1 X159.288 Y167.056 E5.62743
G1 X158.723 Y167.087 E5.64625
G1 X158.105 Y167.1 E5.66681
G1 X142.034 Y167.099 E6.20134
G1 X141.336 Y167.09 E6.22455
G1 X140.417 Y167.038 E6.25517
G1 X139.506 Y166.907 E6.28578
G1 X138.61 Y166.697 E6.31639
G1 X137.735 Y166.41 E6.34702
G1 X136.888 Y166.048 E6.37765
G1 X136.076 Y165.614 E6.40828
G1 X135.305 Y165.112 E6.43888
G1 X134.58 Y164.544 E6.46951
G1 X133.907 Y163.915 E6.50015
G1 X133.292 Y163.231 E6.53074
G1 X132.738 Y162.496 E6.56135
G1 X132.25 Y161.715 E6.59198
G1 X131.831 Y160.895 E6.62261
G1 X131.485 Y160.042 E6.65323
G1 X131.215 Y159.162 E6.68384
G1 X131.022 Y158.261 E6.71449
G1 X130.908 Y157.348 E6.74509
G1 X130.877 Y156.777 E6.76411
G1 X130.864 Y156.158 E6.7847
G1 X130.865 Y144.031 E7.18805
G1 X130.874 Y143.366 E7.21017
G1 X130.926 Y142.446 E7.24082
G1 X131.058 Y141.535 E7.27143
G1 X131.269 Y140.639 E7.30205
G1 X131.556 Y139.764 E7.33268
G1 X131.919 Y138.918 E7.3633
G1 X132.353 Y138.106 E7.39392
G1 X132.856 Y137.335 E7.42454
G1 X133.425 Y136.611 E7.45517
G1 X134.053 Y135.939 E7.48576
G1 X134.738 Y135.323 E7.5164
G1 X135.474 Y134.77 E7.54702
G1 X136.255 Y134.282 E7.57765
G1 X137.075 Y133.864 E7.60826
G1 X137.929 Y133.519 E7.63889
G1 X138.809 Y133.249 E7.66951
G1 X139.709 Y133.057 E7.70012
G1 X140.623 Y132.943 E7.73075
G1 X141.176 Y132.913 E7.74917
G1 X141.794 Y132.9 E7.76973
G1 X157.88 Y132.901 E8.30475
G1 X158.578 Y132.911 E8.32797
G0 F6000 X158.584 Y132.511
G1 F1200 X159.52 Y132.565 E8.35916
G1 X160.448 Y132.697 E8.39033
G1 X161.362 Y132.909 E8.42154
G1 X162.254 Y133.198 E8.45272
G1 X163.119 Y133.561 E8.48393
G1 X163.949 Y133.997 E8.51511
G1 X164.74 Y134.502 E8.54632
G1 X165.484 Y135.073 E8.57751
G1 X166.177 Y135.705 E8.60871
G1 X166.814 Y136.393 E8.63989
G1 X167.389 Y137.134 E8.67109
G1 X167.9 Y137.92 E8.70227
G1 X168.342 Y138.748 E8.73349
G1 X168.711 Y139.61 E8.76468
G1 X169.006 Y140.5 E8.79586
G1 X169.224 Y141.412 E8.82705
G1 X169.364 Y142.34 E8.85826
G1 X169.422 Y143.201 E8.88697
G1 X169.435 Y143.83 E8.90789
G1 X169.434 Y155.9 E9.30934
G1 X169.425 Y156.627 E9.33352
G1 X169.374 Y157.564 E9.36473
G1 X169.242 Y158.492 E9.39591
G1 X169.033 Y159.406 E9.42709
G1 X168.746 Y160.299 E9.45829
G1 X168.384 Y161.165 E9.48951
G1 X167.95 Y161.996 E9.52069
G1 X167.446 Y162.787 E9.55189
G1 X166.877 Y163.532 E9.58307
G1 X166.246 Y164.227 E9.61429
G1 X165.559 Y164.865 E9.64547
G1 X164.82 Y165.442 E9.67666
G1 X164.034 Y165.954 E9.70785
G1 X163.208 Y166.397 E9.73903
G1 X162.346 Y166.769 E9.77026
G1 X161.457 Y167.065 E9.80142
G1 X160.545 Y167.285 E9.83262
G1 X159.618 Y167.426 E9.86381
G1 X158.734 Y167.487 E9.89328
G1 X158.105 Y167.5 E9.91421
G1 X142.029 Y167.499 E10.4489
G1 X141.331 Y167.49 E10.47211
G1 X140.395 Y167.438 E10.50329
G1 X139.466 Y167.306 E10.5345
G1 X138.552 Y167.096 E10.56569
G1 X137.659 Y166.809 E10.59689
G1 X136.794 Y166.446 E10.62809
G1 X135.963 Y166.012 E10.65927
G1 X135.172 Y165.508 E10.69047
G1 X134.427 Y164.938 E10.72167
G1 X133.733 Y164.307 E10.75287
G1 X133.096 Y163.62 E10.78403
G1 X132.519 Y162.88 E10.81524
G1 X132.007 Y162.094 E10.84644
G1 X131.564 Y161.267 E10.87764
G1 X131.193 Y160.406 E10.90882
G1 X130.897 Y159.516 E10.94002
G1 X130.678 Y158.604 E10.97121
G1 X130.537 Y157.677 E11.0024
G1 X130.477 Y156.788 E11.03204
G1 X130.464 Y156.158 E11.053
G1 X130.465 Y144.025 E11.45654
G1 X130.474 Y143.36 E11.47866
G1 X130.527 Y142.424 E11.50984
G1 X130.659 Y141.495 E11.54105
G1 X130.87 Y140.581 E11.57225
G1 X131.158 Y139.689 E11.60343
G1 X131.521 Y138.824 E11.63463
G1 X131.956 Y137.993 E11.66582
G1 X132.46 Y137.203 E11.69699
G1 X133.03 Y136.458 E11.72819
G1 X133.662 Y135.764 E11.75941
G1 X134.35 Y135.127 E11.7906
G1 X135.09 Y134.551 E11.82178
G1 X135.876 Y134.039 E11.85298
G1 X136.703 Y133.597 E11.88417
G1 X137.565 Y133.227 E11.91537
G1 X138.455 Y132.931 E11.94657
G1 X139.367 Y132.713 E11.97776
G1 X140.294 Y132.572 E12.00894
G1 X141.165 Y132.513 E12.03798
G1 X141.794 Y132.5 E12.0589
G1 X157.886 Y132.501 E12.59413
G1 X158.584 Y132.511 E12.61734
G1 F2700 E7.61734
;MESH:BottleHolderJoint.stl
G0 F6000 X147.379 Y149.416
G0 X148.611 Y148.637
G0 X148.616 Y150.409
G0 X148.313 Y151.173
G0 X147.809 Y151.712
G0 X146.759 Y152.333
;TYPE:WALL-INNER
G1 F2700 E12.61734
G1 F1200 X147.05 Y152.277 E12.6272
G1 X147.33 Y152.186 E12.63699
G1 X147.598 Y152.061 E12.64683
G1 X147.848 Y151.902 E12.65668
G1 X148.074 Y151.714 E12.66646
G1 X148.276 Y151.498 E12.6763
G1 X148.449 Y151.26 E12.68608
G1 X148.591 Y151.001 E12.69591
G1 X148.701 Y150.727 E12.70573
G1 X148.774 Y150.44 E12.71558
G1 X148.811 Y150.149 E12.72533
G1 X148.811 Y149.851 E12.73524
G1 X148.774 Y149.56 E12.745
G1 X148.701 Y149.273 E12.75485
G1 X148.591 Y148.999 E12.76467
G1 X148.449 Y148.74 E12.7745
G1 X148.276 Y148.502 E12.78428
G1 X148.074 Y148.286 E12.79412
G1 X147.848 Y148.098 E12.8039
G1 X147.598 Y147.939 E12.81375
G1 X147.33 Y147.814 E12.82359
G1 X147.05 Y147.723 E12.83338
G1 X146.759 Y147.667 E12.84323
G1 X146.464 Y147.649 E12.85306
G1 X146.17 Y147.667 E12.86286
G1 X145.879 Y147.723 E12.87272
G1 X145.599 Y147.814 E12.88251
G1 X145.331 Y147.939 E12.89234
G1 X145.081 Y148.098 E12.9022
G1 X144.855 Y148.286 E12.91198
G1 X144.653 Y148.502 E12.92181
G1 X144.48 Y148.74 E12.9316
G1 X144.338 Y148.999 E12.94142
G1 X144.228 Y149.272 E12.95121
G1 X144.154 Y149.561 E12.96113
G1 X144.118 Y149.853 E12.97092
G1 X144.118 Y150.147 E12.9807
G1 X144.154 Y150.439 E12.99048
G1 X144.228 Y150.728 E13.00041
G1 X144.338 Y151.001 E13.0102
G1 X144.48 Y151.26 E13.02002
G1 X144.653 Y151.498 E13.02981
G1 X144.855 Y151.714 E13.03964
G1 X145.081 Y151.902 E13.04942
G1 X145.331 Y152.061 E13.05927
G1 X145.599 Y152.186 E13.06911
G1 X145.879 Y152.277 E13.0789
G1 X146.17 Y152.333 E13.08876
G1 X146.464 Y152.351 E13.09856
G1 X146.759 Y152.333 E13.10839
G0 F6000 X146.709 Y151.935
;TYPE:WALL-OUTER
G1 F1200 X146.95 Y151.889 E13.11655
G1 X147.183 Y151.813 E13.1247
G1 X147.405 Y151.71 E13.13284
G1 X147.611 Y151.578 E13.14097
G1 X147.799 Y151.422 E13.1491
G1 X147.967 Y151.243 E13.15726
G1 X148.111 Y151.045 E13.16541
G1 X148.229 Y150.83 E13.17357
G1 X148.32 Y150.603 E13.1817
G1 X148.38 Y150.365 E13.18986
G1 X148.411 Y150.123 E13.19798
G1 X148.411 Y149.877 E13.20616
G1 X148.38 Y149.635 E13.21427
G1 X148.32 Y149.397 E13.22244
G1 X148.229 Y149.17 E13.23057
G1 X148.111 Y148.955 E13.23873
G1 X147.967 Y148.757 E13.24687
G1 X147.799 Y148.578 E13.25504
G1 X147.611 Y148.422 E13.26316
G1 X147.405 Y148.29 E13.2713
G1 X147.183 Y148.187 E13.27944
G1 X146.95 Y148.111 E13.28759
G1 X146.709 Y148.065 E13.29575
G1 X146.464 Y148.05 E13.30392
G1 X146.22 Y148.065 E13.31205
G1 X145.979 Y148.111 E13.32021
G1 X145.746 Y148.187 E13.32836
G1 X145.524 Y148.29 E13.3365
G1 X145.318 Y148.422 E13.34464
G1 X145.13 Y148.578 E13.35276
G1 X144.962 Y148.757 E13.36093
G1 X144.818 Y148.955 E13.36907
G1 X144.7 Y149.17 E13.37723
G1 X144.609 Y149.397 E13.38536
G1 X144.548 Y149.635 E13.39353
G1 X144.518 Y149.878 E13.40168
G1 X144.518 Y150.122 E13.40979
G1 X144.548 Y150.365 E13.41793
G1 X144.609 Y150.603 E13.42611
G1 X144.7 Y150.83 E13.43424
G1 X144.818 Y151.045 E13.4424
G1 X144.962 Y151.243 E13.45054
G1 X145.13 Y151.422 E13.45871
G1 X145.318 Y151.578 E13.46683
G1 X145.524 Y151.71 E13.47497
G1 X145.746 Y151.813 E13.48311
G1 X145.979 Y151.889 E13.49126
G1 X146.22 Y151.935 E13.49942
G1 X146.464 Y151.95 E13.50755
G1 X146.709 Y151.935 E13.51571
G0 F6000 X146.763 Y152.371
G1 F2700 E8.51571
G0 F6000 X148.205 Y151.853
G0 X147.102 Y150.878
G0 X148.205 Y157.165
G0 X148.205 Y155.69
G0 X157.835 Y155.9
;TYPE:WALL-INNER
G1 F2700 E13.51571
G1 F1200 X142.064 Y155.9 E14.04026
G1 X142.064 Y144.1 E14.43273
G1 X157.835 Y144.1 E14.95728
G1 X157.835 Y155.9 E15.34974
G0 F6000 X158.235 Y156.3
;TYPE:WALL-OUTER
G1 F1200 X141.664 Y156.3 E15.9009
G1 X141.664 Y143.7 E16.31998
G1 X158.235 Y143.7 E16.87113
G1 X158.235 Y156.3 E17.29021
G0 F6000 X157.965 Y156.03
G0 X157.725 Y155.51
G0 X157.445 Y155.51
;TYPE:SKIN
G1 F1200 X142.454 Y155.51 E17.78881
G1 X142.454 Y144.49 E18.15534
G1 X157.445 Y144.49 E18.65394
G1 X157.445 Y155.51 E19.02047
G1 F2700 E14.02047
G0 F6000 X157.725 Y155.51
G0 X157.661 Y155.697
G0 X148.691 Y155.69
G0 X148.691 Y157.165
G0 X147.102 Y150.878
G0 X147.961 Y152.056
G0 X148.691 Y151.049
G0 X148.944 Y151.169
G1 F2700 E19.02047
G1 F1200 X149.073 Y150.848 E19.03197
G1 X149.158 Y150.512 E19.0435
G1 X149.201 Y150.174 E19.05483
G1 X149.201 Y149.826 E19.06641
G1 X149.158 Y149.488 E19.07774
G1 X149.073 Y149.152 E19.08927
G1 X148.944 Y148.831 E19.10077
G1 X148.779 Y148.531 E19.11216
G1 X148.578 Y148.253 E19.12357
G1 X148.343 Y148.001 E19.13503
G1 X148.078 Y147.782 E19.14647
G1 X147.785 Y147.596 E19.15801
G1 X147.473 Y147.451 E19.16945
G1 X147.148 Y147.345 E19.18082
G1 X146.808 Y147.279 E19.19234
G1 X146.464 Y147.259 E19.2038
G1 X146.121 Y147.279 E19.21523
G1 X145.781 Y147.345 E19.22675
G1 X145.456 Y147.451 E19.23812
G1 X145.144 Y147.596 E19.24956
G1 X144.851 Y147.782 E19.26111
G1 X144.586 Y148.001 E19.27254
G1 X144.351 Y148.253 E19.284
G1 X144.15 Y148.531 E19.29541
G1 X143.985 Y148.832 E19.30683
G1 X143.857 Y149.151 E19.31826
G1 X143.77 Y149.489 E19.32987
G1 X143.728 Y149.829 E19.34126
G1 X143.728 Y150.171 E19.35264
G1 X143.77 Y150.511 E19.36403
G1 X143.857 Y150.849 E19.37564
G1 X143.985 Y151.168 E19.38707
G1 X144.15 Y151.469 E19.39849
G1 X144.351 Y151.747 E19.4099
G1 X144.586 Y151.999 E19.42136
G1 X144.851 Y152.218 E19.43279
G1 X145.144 Y152.404 E19.44434
G1 X145.456 Y152.549 E19.45578
G1 X145.781 Y152.655 E19.46715
G1 X146.121 Y152.721 E19.47867
G1 X146.464 Y152.741 E19.4901
G1 X146.808 Y152.721 E19.50156
G1 X147.148 Y152.655 E19.51308
G1 X147.473 Y152.549 E19.52445
G1 X147.785 Y152.404 E19.53589
G1 X148.078 Y152.218 E19.54743
G1 X148.343 Y151.999 E19.55887
G1 X148.578 Y151.747 E19.57033
G1 X148.779 Y151.469 E19.58174
G1 X148.944 Y151.169 E19.59313
G1 F2700 E14.59313
G0 F6000 X148.691 Y151.049
G0 X147.638 Y151.833
G0 X146.146 Y152.523
G0 X146.326 Y151.075
G0 X146.146 Y157.165
G0 X146.146 Y155.69
G0 X142.904 Y155.79
G0 X142.904 Y155.349
G1 F2700 E19.59313
G1 F1200 X142.614 Y155.059 E19.60677
G0 F6000 X142.614 Y154.493
G1 F1200 X143.469 Y155.349 E19.64701
G0 F6000 X144.035 Y155.349
G1 F1200 X142.614 Y153.927 E19.71387
G0 F6000 X142.614 Y153.362
G1 F1200 X144.601 Y155.349 E19.80733
G0 F6000 X145.166 Y155.349
G1 F1200 X142.614 Y152.796 E19.92739
G0 F6000 X142.614 Y152.23
G1 F1200 X145.732 Y155.349 E20.07408
G0 F6000 X146.298 Y155.349
G1 F1200 X142.614 Y151.665 E20.24736
G0 F6000 X142.614 Y151.099
G1 F1200 X146.863 Y155.349 E20.44725
G0 F6000 X147.429 Y155.349
G1 F1200 X142.614 Y150.533 E20.67375
G0 F6000 X142.614 Y149.968
G1 F1200 X143.812 Y151.165 E20.73008
G0 F6000 X143.594 Y150.382
G1 F1200 X142.614 Y149.402 E20.77617
G0 F6000 X142.614 Y148.836
G1 F1200 X143.571 Y149.794 E20.82121
G0 F6000 X143.651 Y149.308
G1 F1200 X142.614 Y148.271 E20.86999
G0 F6000 X142.614 Y147.705
G1 F1200 X143.792 Y148.883 E20.9254
G0 F6000 X143.981 Y148.506
G1 F1200 X142.614 Y147.139 E20.9897
G0 F6000 X142.614 Y146.574
G1 F1200 X144.211 Y148.171 E21.06482
G0 F6000 X144.483 Y147.877
G1 F1200 X142.614 Y146.008 E21.15273
G0 F6000 X142.614 Y145.442
G1 F1200 X144.797 Y147.625 E21.25541
G0 F6000 X145.151 Y147.414
G1 F1200 X142.614 Y144.876 E21.37477
G0 F6000 X142.952 Y144.65
G1 F1200 X145.552 Y147.25 E21.49706
G0 F6000 X146.005 Y147.136
G1 F1200 X143.518 Y144.65 E21.61402
G0 F6000 X144.084 Y144.65
G1 F1200 X146.537 Y147.102 E21.72938
G0 F6000 X147.189 Y147.189
G1 F1200 X144.65 Y144.65 E21.84881
G0 F6000 X145.215 Y144.65
G1 F1200 X148.445 Y147.879 E22.00071
G0 F6000 X148.474 Y147.908
G1 F1200 X155.914 Y155.349 E22.35069
