;FLAVOR:Marlin
;TIME:5811
;Filament used: 6.71418m
;Layer height: 0.24
;MINX:96
;MINY:97.509
;MINZ:0.2
;MAXX:203.983
;MAXY:202.489
;MAXZ:49.88
;Generated with Cura_SteamEngine 4.6.1
M140 S70
M105
M190 S70
M104 S225
M105
M109 S225
M82 ;absolute extrusion mode
M201 X500.00 Y500.00 Z100.00 E5000.00 ;Setup machine max acceleration
M203 X500.00 Y500.00 Z10.00 E50.00 ;Setup machine max feedrate
M204 P500.00 R1000.00 T500.00 ;Setup Print/Retract/Travel acceleration
M205 X8.00 Y8.00 Z0.40 E5.00 ;Setup Jerk
M220 S100 ;Reset Feedrate
M221 S100 ;Reset Flowrate

G28 ;Home

G92 E0 ;Reset Extruder
G1 Z2.0 F3000 ;Move Z Axis up
G1 X10.1 Y20 Z0.28 F5000.0 ;Move to start position
G1 X10.1 Y200.0 Z0.28 F1500.0 E15 ;Draw the first line
G1 X10.4 Y200.0 Z0.28 F5000.0 ;Move to side a little
G1 X10.4 Y20 Z0.28 F1500.0 E30 ;Draw the second line
G92 E0 ;Reset Extruder
G1 Z2.0 F3000 ;Move Z Axis up

G92 E0
G92 E0
G1 F2700 E-5
;LAYER_COUNT:208
;LAYER:0
M107
G0 F6000 X110.132 Y98.32 Z0.2
;TYPE:SKIRT
G1 F2700 E0
G1 F1200 X111.034 Y98.373 E0.03005
G1 X111.927 Y98.505 E0.06008
G1 X112.806 Y98.716 E0.09014
G1 X113.662 Y99.004 E0.12018
G1 X114.489 Y99.366 E0.15021
G1 X115.281 Y99.8 E0.18025
G1 X116.031 Y100.303 E0.21028
G1 X116.734 Y100.87 E0.24032
G1 X117.384 Y101.496 E0.27033
G1 X118.091 Y102.324 E0.30655
G1 X118.566 Y102.946 E0.33258
G1 X120.139 Y104.95 E0.41731
G1 X121.758 Y106.896 E0.50151
G1 X123.46 Y108.827 E0.58712
G1 X125.172 Y110.665 E0.67066
G1 X126.956 Y112.47 E0.75507
G1 X128.802 Y114.241 E0.84016
G1 X130.682 Y115.941 E0.92446
G1 X132.605 Y117.585 E1.00861
G1 X134.604 Y119.199 E1.09406
G1 X136.589 Y120.709 E1.17701
G1 X138.696 Y122.22 E1.26325
G1 X140.775 Y123.624 E1.34669
G1 X142.92 Y124.987 E1.43122
G1 X145.079 Y126.273 E1.5148
G1 X147.324 Y127.527 E1.60033
G1 X149.591 Y128.71 E1.68537
G1 X151.862 Y129.815 E1.76938
G1 X154.167 Y130.856 E1.8535
G1 X156.523 Y131.843 E1.93846
G1 X158.879 Y132.748 E2.0224
G1 X161.292 Y133.601 E2.10752
G1 X163.694 Y134.373 E2.19144
G1 X166.125 Y135.08 E2.27564
G1 X168.612 Y135.728 E2.36112
G1 X171.079 Y136.297 E2.44533
G1 X173.577 Y136.797 E2.53006
G1 X176.048 Y137.22 E2.61344
G1 X178.575 Y137.58 E2.69834
G1 X181.108 Y137.868 E2.78313
G1 X183.644 Y138.084 E2.86778
G1 X186.148 Y138.227 E2.9512
G1 X188.733 Y138.3 E3.03721
G1 X190.056 Y138.309 E3.08122
G1 X192.447 Y138.31 E3.16074
G1 X193.144 Y138.321 E3.18393
G1 X194.045 Y138.375 E3.21395
G1 X194.939 Y138.509 E3.24402
G1 X195.816 Y138.721 E3.27403
G1 X196.672 Y139.01 E3.30408
G1 X197.499 Y139.374 E3.33413
G1 X198.29 Y139.809 E3.36415
G1 X199.04 Y140.313 E3.39421
G1 X199.742 Y140.881 E3.42424
G1 X200.391 Y141.509 E3.45428
G1 X200.982 Y142.191 E3.48429
G1 X201.511 Y142.924 E3.51436
G1 X201.972 Y143.7 E3.54438
G1 X202.363 Y144.514 E3.57442
G1 X202.681 Y145.359 E3.60444
G1 X202.923 Y146.23 E3.63451
G1 X203.086 Y147.118 E3.66454
G1 X203.171 Y148.017 E3.69457
G1 X203.183 Y148.52 E3.71131
G1 X203.179 Y149.132 E3.73166
G1 X203.129 Y150.913 E3.79092
G1 X203.109 Y151.388 E3.80674
G1 X203.09 Y151.717 E3.8177
G1 X202.996 Y152.958 E3.85909
G1 X202.879 Y154.201 E3.90062
G1 X202.784 Y155.045 E3.92887
G1 X202.627 Y156.175 E3.96681
G1 X202.431 Y157.431 E4.00909
G1 X202.276 Y158.311 E4.03881
G1 X202.066 Y159.346 E4.07394
G1 X201.778 Y160.658 E4.11861
G1 X201.585 Y161.462 E4.14611
G1 X201.285 Y162.584 E4.18474
G1 X200.955 Y163.745 E4.22489
G1 X200.675 Y164.661 E4.25674
G1 X200.334 Y165.68 E4.29248
G1 X199.897 Y166.916 E4.33609
G1 X199.6 Y167.71 E4.36428
G1 X199.175 Y168.761 E4.40199
G1 X198.685 Y169.916 E4.44372
G1 X198.311 Y170.755 E4.47427
G1 X197.85 Y171.719 E4.50981
G1 X197.272 Y172.878 E4.55289
G1 X196.866 Y173.657 E4.5821
G1 X196.314 Y174.65 E4.61989
G1 X195.677 Y175.751 E4.6622
G1 X195.227 Y176.496 E4.69115
G1 X194.614 Y177.456 E4.72903
G1 X193.943 Y178.467 E4.76939
G1 X193.602 Y178.968 E4.78955
G1 X193.412 Y179.238 E4.80053
G1 X192.758 Y180.133 E4.8374
G1 X192.017 Y181.114 E4.87829
G1 X191.432 Y181.859 E4.90979
G1 X190.735 Y182.699 E4.94609
G1 X189.919 Y183.651 E4.9878
G1 X189.314 Y184.331 E5.01807
G1 X188.557 Y185.138 E5.05487
G1 X187.67 Y186.053 E5.09726
G1 X187.043 Y186.676 E5.12666
G1 X186.217 Y187.453 E5.16437
G1 X185.308 Y188.282 E5.20529
G1 X184.606 Y188.897 E5.23633
G1 X183.773 Y189.59 E5.27237
G1 X182.776 Y190.393 E5.31495
G1 X182.316 Y190.753 E5.33438
G1 X182.07 Y190.939 E5.34464
G1 X181.176 Y191.594 E5.3815
G1 X180.127 Y192.338 E5.42427
G1 X179.423 Y192.815 E5.45256
G1 X178.433 Y193.452 E5.49171
G1 X177.421 Y194.079 E5.53131
G1 X176.898 Y194.394 E5.55161
G1 X176.622 Y194.554 E5.56222
G1 X175.631 Y195.107 E5.59997
G1 X174.519 Y195.704 E5.64195
G1 X173.749 Y196.1 E5.67075
G1 X172.727 Y196.59 E5.70844
G1 X171.564 Y197.125 E5.75102
G1 X170.78 Y197.467 E5.77947
G1 X169.714 Y197.902 E5.81776
G1 X168.571 Y198.346 E5.85855
G1 X167.711 Y198.661 E5.88901
G1 X166.65 Y199.018 E5.92624
G1 X165.5 Y199.383 E5.96637
G1 X164.576 Y199.66 E5.99846
G1 X163.522 Y199.943 E6.03475
G1 X162.318 Y200.247 E6.07606
G1 X161.438 Y200.452 E6.10611
G1 X160.293 Y200.686 E6.14498
G1 X159.065 Y200.915 E6.18653
G1 X158.219 Y201.057 E6.21506
G1 X157.098 Y201.215 E6.25271
G1 X155.862 Y201.369 E6.29414
G1 X155.267 Y201.435 E6.31405
G1 X154.958 Y201.464 E6.32437
G1 X153.852 Y201.552 E6.36127
G1 X152.577 Y201.631 E6.40376
G1 X151.691 Y201.669 E6.43326
G1 X150.589 Y201.688 E6.46992
G1 X149.325 Y201.689 E6.51196
G1 X148.761 Y201.682 E6.53072
G1 X148.439 Y201.673 E6.54143
G1 X147.255 Y201.62 E6.58085
G1 X146.078 Y201.548 E6.62007
G1 X145.156 Y201.475 E6.65083
G1 X144.023 Y201.354 E6.68873
G1 X142.816 Y201.206 E6.72918
G1 X141.919 Y201.078 E6.75931
G1 X140.76 Y200.882 E6.79841
G1 X139.605 Y200.667 E6.83748
G1 X138.668 Y200.475 E6.8693
G1 X137.608 Y200.227 E6.9055
G1 X136.364 Y199.916 E6.94815
G1 X135.511 Y199.684 E6.97755
G1 X134.454 Y199.369 E7.01424
G1 X133.233 Y198.981 E7.05685
G1 X132.705 Y198.806 E7.07535
G1 X132.411 Y198.703 E7.08571
G1 X131.327 Y198.305 E7.12412
G1 X130.203 Y197.871 E7.16419
G1 X129.336 Y197.518 E7.19533
G1 X128.308 Y197.067 E7.23267
G1 X127.2 Y196.557 E7.27324
G1 X126.35 Y196.149 E7.30459
G1 X125.383 Y195.651 E7.34077
G1 X124.259 Y195.049 E7.38318
G1 X123.465 Y194.605 E7.41344
G1 X122.527 Y194.045 E7.44977
G1 X121.458 Y193.386 E7.49154
G1 X120.685 Y192.889 E7.52211
G1 X119.79 Y192.278 E7.55815
G1 X118.724 Y191.526 E7.60154
G1 X118.042 Y191.025 E7.62968
G1 X117.128 Y190.316 E7.66816
G1 X116.132 Y189.516 E7.71065
G1 X115.716 Y189.173 E7.72858
G1 X115.476 Y188.968 E7.73908
G1 X114.625 Y188.22 E7.77676
G1 X113.709 Y187.388 E7.81792
G1 X113.026 Y186.743 E7.84917
G1 X112.271 Y185.991 E7.88461
G1 X111.37 Y185.065 E7.92758
G1 X110.762 Y184.417 E7.95714
G1 X110.017 Y183.576 E7.9945
G1 X109.224 Y182.654 E8.03495
G1 X108.627 Y181.932 E8.06611
G1 X107.917 Y181.025 E8.10442
G1 X107.214 Y180.098 E8.14312
G1 X106.626 Y179.293 E8.17627
G1 X106.031 Y178.427 E8.21122
G1 X105.311 Y177.344 E8.25448
G1 X105.022 Y176.898 E8.27215
G1 X104.845 Y176.614 E8.28328
G1 X104.252 Y175.628 E8.32155
G1 X103.627 Y174.55 E8.36299
G1 X103.2 Y173.78 E8.39228
G1 X102.671 Y172.763 E8.43041
G1 X102.116 Y171.654 E8.47165
G1 X101.863 Y171.132 E8.49095
G1 X101.726 Y170.837 E8.50177
G1 X101.276 Y169.825 E8.5386
G1 X100.779 Y168.658 E8.58079
G1 X100.575 Y168.163 E8.5986
G1 X100.447 Y167.835 E8.61031
G1 X100.055 Y166.779 E8.64777
G1 X99.647 Y165.628 E8.68839
G1 X99.344 Y164.721 E8.7202
G1 X99.037 Y163.712 E8.75527
G1 X98.68 Y162.467 E8.79835
G1 X98.448 Y161.595 E8.82836
G1 X98.196 Y160.537 E8.86454
G1 X97.925 Y159.314 E8.9062
G1 X97.8 Y158.717 E8.92649
G1 X97.735 Y158.374 E8.9381
G1 X97.555 Y157.335 E8.97317
G1 X97.355 Y156.063 E9.016
G1 X97.231 Y155.172 E9.04592
G1 X97.109 Y154.07 E9.08279
G1 X96.992 Y152.837 E9.12399
G1 X96.943 Y152.241 E9.14388
G1 X96.922 Y151.91 E9.15491
G1 X96.867 Y150.781 E9.1925
G1 X96.83 Y149.662 E9.22974
G1 X96.8 Y147.769 E9.29271
G1 X96.801 Y109.03 E10.58118
G1 X96.811 Y108.365 E10.6033
G1 X96.865 Y107.463 E10.63335
G1 X96.998 Y106.57 E10.66338
G1 X97.209 Y105.692 E10.69341
G1 X97.498 Y104.836 E10.72346
G1 X97.861 Y104.009 E10.7535
G1 X98.295 Y103.218 E10.78351
G1 X98.798 Y102.467 E10.81358
G1 X99.366 Y101.765 E10.84361
G1 X99.993 Y101.115 E10.87365
G1 X100.675 Y100.523 E10.90368
G1 X101.407 Y99.994 E10.93372
G1 X102.183 Y99.532 E10.96376
G1 X102.997 Y99.141 E10.9938
G1 X103.842 Y98.822 E11.02384
G1 X104.712 Y98.58 E11.05387
G1 X105.6 Y98.416 E11.08391
G1 X106.723 Y98.322 E11.12139
G1 X107.33 Y98.309 E11.14158
G1 X109.431 Y98.31 E11.21146
G1 X110.132 Y98.32 E11.23478
G0 F6000 X110.138 Y97.92
G1 F1200 X111.057 Y97.973 E11.2654
G1 X111.968 Y98.106 E11.29602
G1 X112.864 Y98.317 E11.32663
G1 X113.739 Y98.605 E11.35727
G1 X114.585 Y98.968 E11.38789
G1 X115.396 Y99.403 E11.4185
G1 X116.167 Y99.907 E11.44914
G1 X116.891 Y100.476 E11.47976
G1 X117.563 Y101.105 E11.51038
G1 X118.408 Y102.082 E11.55334
G1 X118.803 Y102.599 E11.57498
G1 X120.46 Y104.71 E11.66424
G1 X122.068 Y106.642 E11.74784
G1 X123.753 Y108.554 E11.83261
G1 X125.467 Y110.395 E11.91627
G1 X127.235 Y112.184 E11.99992
G1 X129.064 Y113.938 E12.08421
G1 X130.947 Y115.642 E12.16868
G1 X132.87 Y117.285 E12.2528
G1 X134.83 Y118.868 E12.3366
G1 X136.842 Y120.398 E12.42067
G1 X138.907 Y121.879 E12.50519
G1 X140.992 Y123.288 E12.58888
G1 X143.134 Y124.648 E12.67327
G1 X145.299 Y125.938 E12.7571
G1 X147.525 Y127.181 E12.84189
G1 X149.744 Y128.34 E12.92516
G1 X152.024 Y129.449 E13.00949
G1 X154.337 Y130.493 E13.09389
G1 X156.696 Y131.481 E13.17896
G1 X159.007 Y132.37 E13.26131
G1 X161.41 Y133.218 E13.34607
G1 X163.813 Y133.991 E13.43002
G1 X166.233 Y134.695 E13.51385
G1 X168.698 Y135.337 E13.59857
G1 X171.176 Y135.908 E13.68315
G1 X173.617 Y136.397 E13.76595
G1 X176.136 Y136.829 E13.85096
G1 X178.645 Y137.186 E13.93525
G1 X181.115 Y137.466 E14.01792
G1 X183.665 Y137.684 E14.10305
G1 X186.183 Y137.827 E14.18693
G1 X188.747 Y137.9 E14.27224
G1 X190.058 Y137.909 E14.31585
G1 X192.453 Y137.91 E14.39551
G1 X193.15 Y137.921 E14.41869
G1 X194.069 Y137.976 E14.44931
G1 X194.98 Y138.11 E14.47994
G1 X195.876 Y138.322 E14.51056
G1 X196.75 Y138.612 E14.54119
G1 X197.595 Y138.976 E14.57179
G1 X198.406 Y139.412 E14.60242
G1 X199.176 Y139.917 E14.63304
G1 X199.899 Y140.487 E14.66367
G1 X200.57 Y141.118 E14.6943
G1 X201.184 Y141.804 E14.72492
G1 X201.736 Y142.541 E14.75555
G1 X202.221 Y143.323 E14.78615
G1 X202.638 Y144.144 E14.81678
G1 X202.981 Y144.998 E14.84739
G1 X203.249 Y145.879 E14.87802
G1 X203.439 Y146.78 E14.90864
G1 X203.551 Y147.694 E14.93927
G1 X203.583 Y148.52 E14.96677
G1 X203.579 Y149.143 E14.98749
G1 X203.529 Y150.93 E15.04695
G1 X203.509 Y151.405 E15.06276
G1 X203.489 Y151.747 E15.07415
G1 X203.394 Y152.995 E15.11578
G1 X203.277 Y154.244 E15.15751
G1 X203.18 Y155.099 E15.18613
G1 X203.022 Y156.236 E15.22431
G1 X202.825 Y157.499 E15.26682
G1 X202.668 Y158.39 E15.29691
G1 X202.457 Y159.431 E15.33224
G1 X202.168 Y160.75 E15.37715
G1 X201.972 Y161.565 E15.40503
G1 X201.67 Y162.694 E15.4439
G1 X201.338 Y163.86 E15.48422
G1 X201.149 Y164.489 E15.50607
G1 X201.054 Y164.787 E15.51647
G1 X200.711 Y165.813 E15.55245
G1 X200.273 Y167.055 E15.59626
G1 X200.087 Y167.56 E15.61416
G1 X199.971 Y167.859 E15.62482
G1 X199.543 Y168.917 E15.66278
G1 X199.051 Y170.077 E15.70469
G1 X198.672 Y170.927 E15.73564
G1 X198.208 Y171.897 E15.77141
G1 X197.628 Y173.062 E15.81469
G1 X197.369 Y173.565 E15.83351
G1 X197.216 Y173.85 E15.84427
G1 X196.66 Y174.85 E15.88232
G1 X196.02 Y175.956 E15.92482
G1 X195.564 Y176.711 E15.95416
G1 X194.947 Y177.676 E15.99226
G1 X194.274 Y178.692 E16.03279
G1 X193.933 Y179.193 E16.05295
G1 X193.735 Y179.474 E16.06438
G1 X193.078 Y180.373 E16.10141
G1 X192.333 Y181.359 E16.14252
G1 X191.741 Y182.114 E16.17443
G1 X191.039 Y182.959 E16.21097
G1 X190.219 Y183.916 E16.25288
G1 X189.607 Y184.604 E16.28351
G1 X188.844 Y185.416 E16.32057
G1 X187.953 Y186.335 E16.36314
G1 X187.317 Y186.966 E16.39294
G1 X186.487 Y187.748 E16.43087
G1 X185.573 Y188.582 E16.47202
G1 X184.863 Y189.204 E16.50342
G1 X184.025 Y189.902 E16.53969
G1 X183.023 Y190.708 E16.58246
G1 X182.307 Y191.262 E16.61257
G1 X181.408 Y191.921 E16.64965
G1 X180.353 Y192.668 E16.69264
G1 X179.64 Y193.151 E16.72128
G1 X178.644 Y193.792 E16.76068
G1 X177.627 Y194.421 E16.80045
G1 X176.818 Y194.903 E16.83177
G1 X175.821 Y195.459 E16.86974
G1 X174.704 Y196.059 E16.91191
G1 X174.218 Y196.312 E16.93014
G1 X173.922 Y196.46 E16.94114
G1 X172.895 Y196.953 E16.97903
G1 X171.725 Y197.491 E17.02186
G1 X170.931 Y197.837 E17.05067
G1 X169.859 Y198.275 E17.08919
G1 X168.711 Y198.72 E17.13014
G1 X167.839 Y199.04 E17.16103
G1 X166.771 Y199.399 E17.19851
G1 X165.616 Y199.766 E17.23882
G1 X164.68 Y200.046 E17.27131
G1 X163.62 Y200.331 E17.30782
G1 X162.411 Y200.636 E17.34929
G1 X161.835 Y200.773 E17.36898
G1 X161.518 Y200.843 E17.37978
G1 X160.366 Y201.079 E17.41889
G1 X159.133 Y201.309 E17.46061
G1 X158.275 Y201.453 E17.48954
G1 X157.148 Y201.612 E17.5274
G1 X155.906 Y201.766 E17.56903
G1 X154.99 Y201.863 E17.59966
G1 X153.877 Y201.951 E17.6368
G1 X152.596 Y202.031 E17.67949
G1 X152.015 Y202.059 E17.69883
G1 X151.698 Y202.069 E17.70938
G1 X150.59 Y202.088 E17.74624
G1 X149.32 Y202.089 E17.78848
G1 X148.422 Y202.073 E17.81835
G1 X147.232 Y202.019 E17.85797
G1 X146.048 Y201.947 E17.89742
G1 X145.114 Y201.873 E17.92859
G1 X143.974 Y201.751 E17.96672
G1 X142.762 Y201.602 E18.00733
G1 X141.853 Y201.472 E18.03788
G1 X140.687 Y201.275 E18.07721
G1 X139.526 Y201.059 E18.11648
G1 X138.896 Y200.933 E18.13785
G1 X138.577 Y200.864 E18.14871
G1 X137.511 Y200.615 E18.18512
G1 X136.261 Y200.302 E18.22798
G1 X135.397 Y200.068 E18.25775
G1 X134.333 Y199.75 E18.29468
G1 X133.107 Y199.361 E18.33746
G1 X132.579 Y199.186 E18.35597
G1 X132.273 Y199.079 E18.36675
G1 X131.183 Y198.679 E18.40536
G1 X130.054 Y198.242 E18.44563
G1 X129.478 Y198.011 E18.46627
G1 X129.175 Y197.884 E18.4772
G1 X128.141 Y197.43 E18.51476
G1 X127.029 Y196.919 E18.55546
G1 X126.468 Y196.653 E18.57611
G1 X126.168 Y196.505 E18.58724
G1 X125.194 Y196.004 E18.62367
G1 X124.065 Y195.399 E18.66627
G1 X123.261 Y194.949 E18.69692
G1 X122.317 Y194.386 E18.73347
G1 X121.244 Y193.723 E18.77542
G1 X120.734 Y193.399 E18.79552
G1 X120.46 Y193.219 E18.80642
G1 X119.56 Y192.605 E18.84266
G1 X118.489 Y191.849 E18.88626
G1 X117.798 Y191.341 E18.91479
G1 X116.878 Y190.628 E18.9535
G1 X115.878 Y189.824 E18.99618
G1 X115.212 Y189.269 E19.02501
G1 X114.356 Y188.516 E19.06293
G1 X113.436 Y187.68 E19.10428
G1 X112.744 Y187.027 E19.13592
G1 X111.985 Y186.27 E19.17158
G1 X111.079 Y185.34 E19.21476
G1 X110.694 Y184.934 E19.23337
G1 X110.463 Y184.682 E19.24474
G1 X109.714 Y183.837 E19.2823
G1 X108.918 Y182.911 E19.32291
G1 X108.516 Y182.43 E19.34376
G1 X108.313 Y182.179 E19.3545
G1 X107.598 Y181.267 E19.39304
G1 X106.892 Y180.336 E19.4319
G1 X106.491 Y179.792 E19.45438
G1 X106.297 Y179.52 E19.46549
G1 X105.698 Y178.649 E19.50065
G1 X104.975 Y177.561 E19.5441
G1 X104.686 Y177.115 E19.56178
G1 X104.502 Y176.82 E19.57334
G1 X103.906 Y175.829 E19.6118
G1 X103.278 Y174.746 E19.65344
G1 X102.845 Y173.965 E19.68314
G1 X102.313 Y172.942 E19.72149
G1 X101.756 Y171.828 E19.76292
G1 X101.503 Y171.306 E19.78221
G1 X101.361 Y171 E19.79343
G1 X100.908 Y169.982 E19.83049
G1 X100.41 Y168.81 E19.87285
G1 X100.206 Y168.315 E19.89065
G1 X100.072 Y167.974 E19.90284
G1 X99.678 Y166.913 E19.94048
G1 X99.268 Y165.757 E19.98128
G1 X98.961 Y164.838 E20.0135
G1 X98.653 Y163.823 E20.04878
G1 X98.294 Y162.571 E20.0921
G1 X98.06 Y161.688 E20.12249
G1 X97.805 Y160.624 E20.15888
G1 X97.534 Y159.396 E20.2007
G1 X97.409 Y158.799 E20.22099
G1 X97.341 Y158.442 E20.23308
G1 X97.16 Y157.397 E20.26835
G1 X96.959 Y156.12 E20.31135
G1 X96.877 Y155.553 E20.3304
G1 X96.834 Y155.216 E20.3417
G1 X96.711 Y154.108 E20.37878
G1 X96.594 Y152.87 E20.42014
G1 X96.545 Y152.274 E20.44003
G1 X96.522 Y151.93 E20.4515
G1 X96.467 Y150.795 E20.48929
G1 X96.431 Y149.669 E20.52676
G1 X96.4 Y147.769 E20.58996
G1 X96.401 Y109.024 E21.87863
G1 X96.411 Y108.359 E21.90075
G1 X96.465 Y107.44 E21.93137
G1 X96.598 Y106.529 E21.96199
G1 X96.81 Y105.633 E21.99261
G1 X97.099 Y104.758 E22.02326
G1 X97.463 Y103.913 E22.05386
