;FLAVOR:Marlin
;TIME:6671
;Filament used: 8.75311m
;Layer height: 0.24
;MINX:29
;MINY:87.141
;MINZ:0.2
;MAXX:271
;MAXY:210.061
;MAXZ:2.84
;Generated with Cura_SteamEngine 4.6.1
M140 S70
M105
M190 S70
M104 S225
M105
M109 S225
M82 ;absolute extrusion mode
M201 X500.00 Y500.00 Z100.00 E5000.00 ;Setup machine max acceleration
M203 X500.00 Y500.00 Z10.00 E50.00 ;Setup machine max feedrate
M204 P500.00 R1000.00 T500.00 ;Setup Print/Retract/Travel acceleration
M205 X8.00 Y8.00 Z0.40 E5.00 ;Setup Jerk
M220 S100 ;Reset Feedrate
M221 S100 ;Reset Flowrate

G28 ;Home

G92 E0 ;Reset Extruder
G1 Z2.0 F3000 ;Move Z Axis up
G1 X10.1 Y20 Z0.28 F5000.0 ;Move to start position
G1 X10.1 Y200.0 Z0.28 F1500.0 E15 ;Draw the first line
G1 X10.4 Y200.0 Z0.28 F5000.0 ;Move to side a little
G1 X10.4 Y20 Z0.28 F1500.0 E30 ;Draw the second line
G92 E0 ;Reset Extruder
G1 Z2.0 F3000 ;Move Z Axis up

G92 E0
G92 E0
G1 F2700 E-5
;LAYER_COUNT:12
;LAYER:0
M107
G0 F6000 X260.142 Y87.951 Z0.2
;TYPE:SKIRT
G1 F2700 E0
G1 F1200 X261.044 Y88.004 E0.03005
G1 X261.937 Y88.136 E0.06008
G1 X262.815 Y88.346 E0.0901
G1 X263.671 Y88.634 E0.12014
G1 X264.499 Y88.996 E0.1502
G1 X265.291 Y89.43 E0.18024
G1 X266.041 Y89.932 E0.21025
G1 X266.744 Y90.499 E0.24029
G1 X267.395 Y91.126 E0.27035
G1 X267.987 Y91.807 E0.30037
G1 X268.517 Y92.539 E0.33042
G1 X268.98 Y93.314 E0.36045
G1 X269.372 Y94.127 E0.39047
G1 X269.691 Y94.972 E0.42051
G1 X269.934 Y95.842 E0.45055
G1 X270.1 Y96.73 E0.4806
G1 X270.186 Y97.629 E0.51064
G1 X270.199 Y98.15 E0.52797
G1 X270.2 Y198.324 E3.85977
G1 X270.19 Y199.177 E3.88815
G1 X270.139 Y200.079 E3.91819
G1 X270.008 Y200.973 E3.94825
G1 X269.799 Y201.851 E3.97827
G1 X269.513 Y202.708 E4.00831
G1 X269.152 Y203.536 E4.03836
G1 X268.72 Y204.328 E4.06836
G1 X268.219 Y205.08 E4.09842
G1 X267.653 Y205.784 E4.12846
G1 X267.028 Y206.435 E4.15848
G1 X266.347 Y207.029 E4.18853
G1 X265.616 Y207.56 E4.21858
G1 X264.842 Y208.024 E4.2486
G1 X264.029 Y208.418 E4.27865
G1 X263.185 Y208.738 E4.30867
G1 X262.315 Y208.983 E4.33873
G1 X261.428 Y209.149 E4.36874
G1 X260.277 Y209.247 E4.40717
G1 X259.67 Y209.26 E4.42736
G1 X47.334 Y209.261 E11.48968
G1 X40.548 Y209.259 E11.71539
G1 X39.876 Y209.249 E11.73774
G1 X38.975 Y209.195 E11.76776
G1 X38.081 Y209.063 E11.79782
G1 X37.203 Y208.851 E11.82786
G1 X36.348 Y208.563 E11.85787
G1 X35.521 Y208.2 E11.88791
G1 X34.729 Y207.765 E11.91796
G1 X33.979 Y207.263 E11.94798
G1 X33.276 Y206.695 E11.97804
G1 X32.626 Y206.068 E12.00808
G1 X32.034 Y205.386 E12.03811
G1 X31.505 Y204.654 E12.06815
G1 X31.043 Y203.878 E12.09819
G1 X30.651 Y203.065 E12.12821
G1 X30.333 Y202.219 E12.15827
G1 X30.091 Y201.349 E12.1883
G1 X29.926 Y200.461 E12.21834
G1 X29.862 Y199.885 E12.23762
G1 X29.834 Y199.544 E12.249
G1 X29.8 Y198.709 E12.27679
G1 X29.8 Y98.822 E15.59905
G1 X29.801 Y98.67 E15.60411
G1 X29.811 Y97.998 E15.62646
G1 X29.865 Y97.097 E15.65648
G1 X29.997 Y96.203 E15.68654
G1 X30.209 Y95.325 E15.71658
G1 X30.497 Y94.47 E15.74659
G1 X30.86 Y93.643 E15.77663
G1 X31.295 Y92.851 E15.80668
G1 X31.797 Y92.101 E15.8367
G1 X32.365 Y91.398 E15.86676
G1 X32.992 Y90.748 E15.89679
G1 X33.674 Y90.156 E15.92683
G1 X34.406 Y89.627 E15.95687
G1 X35.182 Y89.165 E15.98691
G1 X35.995 Y88.773 E16.01693
G1 X36.841 Y88.455 E16.04699
G1 X37.711 Y88.213 E16.07702
G1 X38.599 Y88.048 E16.10706
G1 X39.723 Y87.954 E16.14458
G1 X40.33 Y87.941 E16.16477
G1 X252.664 Y87.941 E23.22703
G1 X259.429 Y87.941 E23.45203
G1 X260.142 Y87.951 E23.47575
G0 F6000 X260.148 Y87.551
G1 F1200 X261.067 Y87.604 E23.50637
G1 X261.978 Y87.736 E23.53698
G1 X262.874 Y87.947 E23.5676
G1 X263.748 Y88.235 E23.59821
G1 X264.595 Y88.598 E23.62886
G1 X265.406 Y89.033 E23.65947
G1 X266.177 Y89.536 E23.69008
G1 X266.901 Y90.105 E23.72071
G1 X267.573 Y90.734 E23.75133
G1 X268.188 Y91.419 E23.78194
G1 X268.741 Y92.155 E23.81256
G1 X269.228 Y92.937 E23.8432
G1 X269.646 Y93.757 E23.87382
G1 X269.991 Y94.611 E23.90445
G1 X270.26 Y95.491 E23.93506
G1 X270.452 Y96.391 E23.96566
G1 X270.565 Y97.305 E23.9963
G1 X270.599 Y98.15 E24.02442
G1 X270.6 Y198.324 E27.35622
G1 X270.59 Y199.182 E27.38476
G1 X270.539 Y200.101 E27.41538
G1 X270.408 Y201.013 E27.44602
G1 X270.198 Y201.909 E27.47663
G1 X269.912 Y202.784 E27.50725
G1 X269.551 Y203.631 E27.53787
G1 X269.117 Y204.443 E27.56849
G1 X268.615 Y205.215 E27.59912
G1 X268.047 Y205.94 E27.62975
G1 X267.419 Y206.613 E27.66037
G1 X266.735 Y207.229 E27.69099
G1 X266 Y207.783 E27.7216
G1 X265.22 Y208.272 E27.75222
G1 X264.4 Y208.691 E27.78285
G1 X263.547 Y209.037 E27.81346
G1 X262.667 Y209.308 E27.84409
G1 X261.767 Y209.501 E27.8747
G1 X260.853 Y209.616 E27.90534
G1 X260.288 Y209.647 E27.92416
G1 X259.67 Y209.66 E27.94472
G1 X47.334 Y209.661 E35.00704
G1 X40.542 Y209.659 E35.23295
G1 X39.87 Y209.649 E35.2553
G1 X38.951 Y209.595 E35.28592
G1 X38.04 Y209.462 E35.31654
G1 X37.144 Y209.25 E35.34716
G1 X36.27 Y208.961 E35.37778
G1 X35.424 Y208.598 E35.4084
G1 X34.613 Y208.163 E35.43901
G1 X33.843 Y207.658 E35.46964
G1 X33.119 Y207.089 E35.50026
G1 X32.448 Y206.459 E35.53088
G1 X31.833 Y205.774 E35.56149
G1 X31.281 Y205.037 E35.59212
G1 X30.794 Y204.256 E35.62273
G1 X30.377 Y203.435 E35.65336
G1 X30.033 Y202.581 E35.68398
G1 X29.765 Y201.7 E35.71461
G1 X29.573 Y200.8 E35.74522
G1 X29.464 Y199.917 E35.77481
G1 X29.436 Y199.576 E35.78619
G1 X29.4 Y198.709 E35.81505
G1 X29.4 Y98.822 E39.13731
G1 X29.401 Y98.664 E39.14256
G1 X29.411 Y97.992 E39.16491
G1 X29.465 Y97.073 E39.19553
G1 X29.598 Y96.162 E39.22615
G1 X29.81 Y95.266 E39.25678
G1 X30.099 Y94.392 E39.2874
G1 X30.462 Y93.546 E39.31801
G1 X30.897 Y92.735 E39.34862
G1 X31.402 Y91.965 E39.37925
G1 X31.971 Y91.241 E39.40988
G1 X32.601 Y90.57 E39.44049
G1 X33.286 Y89.955 E39.47111
G1 X34.023 Y89.403 E39.50173
G1 X34.804 Y88.916 E39.53235
G1 X35.625 Y88.499 E39.56297
G1 X36.479 Y88.155 E39.5936
G1 X37.36 Y87.887 E39.62422
G1 X38.26 Y87.695 E39.65483
G1 X39.174 Y87.583 E39.68546
G1 X39.712 Y87.554 E39.70338
G1 X40.33 Y87.541 E39.72394
G1 X252.664 Y87.541 E46.7862
G1 X259.435 Y87.541 E47.0114
G1 X260.148 Y87.551 E47.03512
G0 F6000 X260.153 Y87.151
G1 F1200 X261.09 Y87.204 E47.06633
G1 X262.018 Y87.337 E47.09751
G1 X262.932 Y87.548 E47.12871
G1 X263.824 Y87.837 E47.1599
G1 X264.689 Y88.2 E47.1911
G1 X265.519 Y88.636 E47.22228
G1 X266.31 Y89.14 E47.25348
G1 X267.054 Y89.711 E47.28467
G1 X267.748 Y90.342 E47.31587
G1 X268.385 Y91.031 E47.34708
G1 X268.96 Y91.771 E47.37825
G1 X269.471 Y92.558 E47.40946
G1 X269.913 Y93.385 E47.44064
G1 X270.283 Y94.247 E47.47184
G1 X270.578 Y95.137 E47.50303
G1 X270.796 Y96.049 E47.53422
G1 X270.936 Y96.976 E47.5654
G1 X270.999 Y98.15 E47.6045
G1 X271 Y198.324 E50.9363
G1 X270.99 Y199.187 E50.96501
G1 X270.939 Y200.124 E50.99622
G1 X270.807 Y201.052 E51.02739
G1 X270.598 Y201.966 E51.05858
G1 X270.311 Y202.859 E51.08978
G1 X269.949 Y203.725 E51.121
G1 X269.515 Y204.556 E51.15218
G1 X269.011 Y205.347 E51.18337
G1 X268.442 Y206.092 E51.21455
G1 X267.811 Y206.787 E51.24577
G1 X267.124 Y207.425 E51.27696
G1 X266.385 Y208.002 E51.30814
G1 X265.599 Y208.514 E51.33934
G1 X264.773 Y208.957 E51.37051
G1 X263.911 Y209.329 E51.40174
G1 X263.022 Y209.625 E51.43291
G1 X262.11 Y209.845 E51.46411
G1 X261.183 Y209.986 E51.4953
G1 X260.299 Y210.047 E51.52477
G1 X259.67 Y210.06 E51.54569
G1 X47.334 Y210.061 E58.60802
G1 X40.536 Y210.059 E58.83412
G1 X39.864 Y210.049 E58.85647
G1 X38.928 Y209.995 E58.88766
G1 X38 Y209.861 E58.91884
G1 X37.086 Y209.649 E58.95005
G1 X36.194 Y209.36 E58.98123
G1 X35.33 Y208.996 E59.01242
G1 X34.499 Y208.56 E59.04363
G1 X33.709 Y208.054 E59.07483
G1 X32.965 Y207.483 E59.10603
G1 X32.273 Y206.851 E59.1372
G1 X31.636 Y206.162 E59.16841
G1 X31.061 Y205.421 E59.1996
G1 X30.551 Y204.634 E59.23079
G1 X30.11 Y203.807 E59.26197
G1 X29.741 Y202.945 E59.29315
G1 X29.446 Y202.054 E59.32437
G1 X29.229 Y201.142 E59.35555
G1 X29.065 Y199.95 E59.39557
G1 X29.037 Y199.609 E59.40695
G1 X29 Y198.709 E59.43691
G1 X29 Y98.822 E62.75916
G1 X29.001 Y98.658 E62.76462
G1 X29.011 Y97.986 E62.78697
G1 X29.065 Y97.05 E62.81815
G1 X29.199 Y96.122 E62.84934
G1 X29.411 Y95.208 E62.88055
G1 X29.7 Y94.316 E62.91173
G1 X30.064 Y93.452 E62.94292
G1 X30.5 Y92.621 E62.97413
G1 X31.006 Y91.831 E63.00533
G1 X31.577 Y91.087 E63.03652
G1 X32.209 Y90.395 E63.06769
G1 X32.898 Y89.758 E63.0989
G1 X33.639 Y89.183 E63.1301
G1 X34.426 Y88.673 E63.16129
G1 X35.253 Y88.232 E63.19246
G1 X36.115 Y87.863 E63.22365
G1 X37.006 Y87.568 E63.25487
G1 X37.918 Y87.351 E63.28605
G1 X38.846 Y87.212 E63.31726
G1 X39.701 Y87.154 E63.34576
G1 X40.33 Y87.141 E63.36668
G1 X252.664 Y87.141 E70.42894
G1 X259.44 Y87.141 E70.65431
G1 X260.153 Y87.151 E70.67803
G1 F2700 E65.67803
;MESH:BottleHolder.stl
G0 F6000 X219.372 Y113.737
G0 X216.621 Y112.39
G0 X160.813 Y151.459
G0 X160.798 Y151.925
G0 X132.27 Y170.526
G0 X133.414 Y171.438
G0 X128.596 Y176.636
G0 X125.995 Y179.018
G0 X123.196 Y181.166
G0 X120.222 Y183.061
G0 X117.687 Y184.38
G0 X113.887 Y186.192
;TYPE:WALL-INNER
G1 F2700 E70.67803
G1 F1200 X114.018 Y186.138 E70.68274
G1 X117.16 Y184.836 E70.79586
G1 X117.286 Y184.77 E70.80059
G1 X120.303 Y183.2 E70.91371
G1 X120.421 Y183.123 E70.9184
G1 X123.289 Y181.297 E71.03148
G1 X123.403 Y181.209 E71.03627
G1 X126.098 Y179.142 E71.14924
G1 X128.709 Y176.749 E71.26704
G1 X131.102 Y174.138 E71.38483
G1 X133.258 Y171.328 E71.50263
G1 X135.161 Y168.341 E71.62043
G1 X135.227 Y168.215 E71.62516
G1 X136.795 Y165.201 E71.73816
G1 X136.851 Y165.07 E71.7429
G1 X138.152 Y161.926 E71.85607
G1 X139.217 Y158.548 E71.97388
G1 X139.983 Y155.09 E72.09168
G1 X140.446 Y151.578 E72.2095
G1 X140.6 Y148.04 E72.32728
G1 X140.446 Y144.502 E72.44507
G1 X139.983 Y140.989 E72.56292
G1 X139.217 Y137.531 E72.68072
G1 X138.152 Y134.153 E72.79853
G1 X138.098 Y134.022 E72.80324
G1 X136.796 Y130.88 E72.91636
G1 X136.73 Y130.754 E72.92109
G1 X135.16 Y127.737 E73.03421
G1 X135.082 Y127.617 E73.03897
G1 X133.257 Y124.751 E73.15198
G1 X133.169 Y124.637 E73.15677
G1 X131.102 Y121.943 E73.26971
G1 X128.709 Y119.331 E73.38753
G1 X126.098 Y116.938 E73.50533
G1 X123.288 Y114.782 E73.62313
G1 X120.301 Y112.879 E73.74093
G1 X120.175 Y112.813 E73.74566
G1 X117.161 Y111.245 E73.85866
G1 X117.03 Y111.189 E73.8634
G1 X113.886 Y109.888 E73.97657
G1 X110.508 Y108.823 E74.09437
G1 X107.05 Y108.057 E74.21217
G1 X103.538 Y107.594 E74.32999
G1 X100 Y107.44 E74.44778
G1 X96.462 Y107.594 E74.56556
G1 X92.949 Y108.057 E74.68342
G1 X89.491 Y108.823 E74.80122
G1 X86.113 Y109.888 E74.91902
G1 X85.982 Y109.942 E74.92374
G1 X82.84 Y111.244 E75.03686
G1 X82.714 Y111.31 E75.04159
G1 X79.697 Y112.88 E75.15471
G1 X79.579 Y112.957 E75.15939
G1 X76.711 Y114.783 E75.27248
G1 X76.597 Y114.871 E75.27727
G1 X73.902 Y116.938 E75.39023
G1 X71.291 Y119.331 E75.50803
G1 X68.898 Y121.943 E75.62585
G1 X66.742 Y124.752 E75.74363
G1 X64.839 Y127.739 E75.86142
G1 X64.773 Y127.865 E75.86615
G1 X63.205 Y130.879 E75.97916
G1 X63.149 Y131.01 E75.98389
G1 X61.848 Y134.154 E76.09706
G1 X60.783 Y137.532 E76.21487
G1 X60.017 Y140.99 E76.33267
G1 X59.554 Y144.502 E76.45049
G1 X59.4 Y148.04 E76.56827
G1 X59.554 Y151.578 E76.68606
G1 X60.017 Y155.091 E76.80391
G1 X60.783 Y158.549 E76.92172
G1 X61.848 Y161.927 E77.03952
G1 X61.902 Y162.058 E77.04423
G1 X63.204 Y165.2 E77.15735
G1 X63.27 Y165.326 E77.16208
G1 X64.84 Y168.343 E77.2752
G1 X64.917 Y168.461 E77.27989
G1 X66.743 Y171.329 E77.39297
G1 X66.831 Y171.443 E77.39776
G1 X68.898 Y174.138 E77.51073
G1 X71.291 Y176.749 E77.62853
G1 X73.902 Y179.142 E77.74632
G1 X76.712 Y181.298 E77.86412
G1 X79.699 Y183.201 E77.98192
G1 X79.825 Y183.267 E77.98665
G1 X82.839 Y184.835 E78.09965
G1 X82.97 Y184.891 E78.10439
G1 X86.114 Y186.192 E78.21756
G1 X89.492 Y187.257 E78.33537
G1 X92.95 Y188.023 E78.45317
G1 X96.462 Y188.486 E78.57099
G1 X100 Y188.64 E78.68877
G1 X103.538 Y188.486 E78.80656
G1 X107.051 Y188.023 E78.92441
G1 X110.509 Y187.257 E79.04221
G1 X113.887 Y186.192 E79.16002
G0 F6000 X113.75 Y185.816
;TYPE:WALL-OUTER
G1 F1200 X113.865 Y185.768 E79.16416
G1 X116.99 Y184.473 E79.27667
G1 X117.101 Y184.415 E79.28084
G1 X120.101 Y182.854 E79.39332
G1 X120.206 Y182.786 E79.39748
G1 X123.058 Y180.97 E79.50993
G1 X123.157 Y180.893 E79.5141
G1 X125.841 Y178.835 E79.6266
G1 X128.426 Y176.466 E79.74322
G1 X130.795 Y173.881 E79.85984
G1 X132.93 Y171.098 E79.9765
G1 X134.814 Y168.141 E80.09312
G1 X134.872 Y168.03 E80.09728
G1 X136.433 Y165.03 E80.20976
G1 X136.482 Y164.915 E80.21392
G1 X137.776 Y161.789 E80.32645
G1 X138.83 Y158.445 E80.44306
G1 X138.857 Y158.322 E80.44725
G1 X139.589 Y155.021 E80.55971
G1 X140.047 Y151.543 E80.67639
G1 X140.2 Y148.04 E80.79301
G1 X140.047 Y144.537 E80.90963
G1 X139.589 Y141.059 E81.02631
G1 X138.83 Y137.635 E81.14296
G1 X137.776 Y134.29 E81.2596
G1 X137.728 Y134.175 E81.26375
G1 X136.433 Y131.05 E81.37626
G1 X136.375 Y130.939 E81.38042
G1 X134.814 Y127.939 E81.4929
G1 X134.746 Y127.834 E81.49706
G1 X132.93 Y124.982 E81.60952
G1 X132.853 Y124.883 E81.61369
G1 X130.795 Y122.2 E81.72616
G1 X128.426 Y119.614 E81.8428
G1 X125.841 Y117.245 E81.95942
G1 X123.058 Y115.11 E82.07609
G1 X120.101 Y113.226 E82.1927
G1 X119.99 Y113.168 E82.19687
G1 X116.99 Y111.607 E82.30935
G1 X116.875 Y111.558 E82.31351
G1 X113.749 Y110.264 E82.42603
G1 X110.405 Y109.21 E82.54265
G1 X110.282 Y109.183 E82.54684
G1 X106.981 Y108.451 E82.6593
G1 X103.503 Y107.993 E82.77597
G1 X100 Y107.84 E82.89259
G1 X96.497 Y107.993 E83.00922
G1 X93.019 Y108.451 E83.12589
G1 X89.595 Y109.21 E83.24254
G1 X86.25 Y110.264 E83.35919
G1 X86.135 Y110.312 E83.36333
G1 X83.01 Y111.607 E83.47584
G1 X82.899 Y111.665 E83.48001
G1 X79.899 Y113.226 E83.59249
G1 X79.794 Y113.294 E83.59665
G1 X76.942 Y115.11 E83.7091
G1 X76.843 Y115.187 E83.71327
G1 X74.159 Y117.245 E83.82577
G1 X71.574 Y119.614 E83.94239
G1 X69.205 Y122.2 E84.05903
G1 X67.07 Y124.982 E84.17567
G1 X65.186 Y127.939 E84.29229
G1 X65.128 Y128.05 E84.29645
G1 X63.567 Y131.05 E84.40893
G1 X63.518 Y131.165 E84.41309
G1 X62.224 Y134.291 E84.52562
G1 X61.17 Y137.635 E84.64223
G1 X61.143 Y137.758 E84.64642
G1 X60.411 Y141.059 E84.75888
G1 X59.953 Y144.537 E84.87556
G1 X59.8 Y148.04 E84.99218
G1 X59.953 Y151.543 E85.1088
G1 X60.411 Y155.021 E85.22548
G1 X61.17 Y158.445 E85.34212
G1 X62.224 Y161.79 E85.45877
G1 X62.272 Y161.905 E85.46292
G1 X63.567 Y165.03 E85.57543
G1 X63.625 Y165.141 E85.57959
G1 X65.186 Y168.141 E85.69207
G1 X65.254 Y168.246 E85.69623
G1 X67.07 Y171.098 E85.80869
G1 X67.147 Y171.197 E85.81286
G1 X69.205 Y173.881 E85.92535
G1 X71.574 Y176.466 E86.04197
G1 X74.159 Y178.835 E86.15859
G1 X76.942 Y180.97 E86.27526
G1 X79.899 Y182.854 E86.39187
G1 X80.01 Y182.912 E86.39604
G1 X83.01 Y184.473 E86.50852
G1 X83.125 Y184.522 E86.51268
G1 X86.251 Y185.816 E86.6252
G1 X89.595 Y186.87 E86.74182
G1 X89.718 Y186.897 E86.74601
G1 X93.019 Y187.629 E86.85847
G1 X96.497 Y188.087 E86.97514
G1 X100 Y188.24 E87.09176
G1 X103.503 Y188.087 E87.20839
G1 X106.981 Y187.629 E87.32506
G1 X110.405 Y186.87 E87.44171
G1 X113.75 Y185.816 E87.55836
G0 F6000 X113.901 Y186.229
G1 F2700 E82.55836
G0 F6000 X117.241 Y185.008
G0 X116.701 Y183.649
G0 X183.379 Y183.69
G0 X182.896 Y185.067
G0 X186.114 Y186.192
;TYPE:WALL-INNER
G1 F2700 E87.55836
G1 F1200 X189.492 Y187.257 E87.67616
G1 X192.95 Y188.023 E87.79396
G1 X196.462 Y188.486 E87.91178
G1 X200 Y188.64 E88.02957
G1 X203.538 Y188.486 E88.14736
G1 X207.051 Y188.023 E88.26521
G1 X210.509 Y187.257 E88.38301
G1 X213.887 Y186.192 E88.50081
G1 X214.018 Y186.138 E88.50553
G1 X217.16 Y184.836 E88.61865
G1 X217.286 Y184.77 E88.62338
G1 X220.303 Y183.2 E88.7365
G1 X220.421 Y183.123 E88.74118
G1 X223.289 Y181.297 E88.85427
G1 X223.403 Y181.209 E88.85906
G1 X226.098 Y179.142 E88.97202
G1 X228.709 Y176.749 E89.08982
G1 X231.102 Y174.138 E89.20762
G1 X233.258 Y171.328 E89.32542
G1 X235.161 Y168.341 E89.44322
G1 X235.227 Y168.215 E89.44795
G1 X236.795 Y165.201 E89.56095
G1 X236.851 Y165.07 E89.56569
G1 X238.152 Y161.926 E89.67886
G1 X239.217 Y158.548 E89.79666
G1 X239.983 Y155.09 E89.91446
G1 X240.446 Y151.578 E90.03228
G1 X240.6 Y148.04 E90.15007
G1 X240.446 Y144.502 E90.26785
G1 X239.983 Y140.989 E90.38571
G1 X239.217 Y137.531 E90.50351
