;FLAVOR:Marlin
;TIME:21175
;Filament used: 21.3253m
;Layer height: 0.24
;MINX:29
;MINY:102.259
;MINZ:0.2
;MAXX:271
;MAXY:197.741
;MAXZ:62.84
;Generated with Cura_SteamEngine 4.6.1
M140 S70
M105
M190 S70
M104 S225
M105
M109 S225
M82 ;absolute extrusion mode
M201 X500.00 Y500.00 Z100.00 E5000.00 ;Setup machine max acceleration
M203 X500.00 Y500.00 Z10.00 E50.00 ;Setup machine max feedrate
M204 P500.00 R1000.00 T500.00 ;Setup Print/Retract/Travel acceleration
M205 X8.00 Y8.00 Z0.40 E5.00 ;Setup Jerk
M220 S100 ;Reset Feedrate
M221 S100 ;Reset Flowrate

G28 ;Home

G92 E0 ;Reset Extruder
G1 Z2.0 F3000 ;Move Z Axis up
G1 X10.1 Y20 Z0.28 F5000.0 ;Move to start position
G1 X10.1 Y200.0 Z0.28 F1500.0 E15 ;Draw the first line
G1 X10.4 Y200.0 Z0.28 F5000.0 ;Move to side a little
G1 X10.4 Y20 Z0.28 F1500.0 E30 ;Draw the second line
G92 E0 ;Reset Extruder
G1 Z2.0 F3000 ;Move Z Axis up

G92 E0
G92 E0
G1 F2700 E-5
;LAYER_COUNT:262
;LAYER:0
M107
G0 F6000 X260.137 Y103.07 Z0.2
;TYPE:SKIRT
G1 F2700 E0
G1 F1200 X261.039 Y103.123 E0.03005
G1 X261.932 Y103.255 E0.06008
G1 X262.81 Y103.466 E0.09011
G1 X263.666 Y103.754 E0.12015
G1 X264.493 Y104.116 E0.15018
G1 X265.285 Y104.551 E0.18023
G1 X266.036 Y105.053 E0.21027
G1 X266.739 Y105.62 E0.24031
G1 X267.389 Y106.247 E0.27035
G1 X267.981 Y106.929 E0.30039
G1 X268.511 Y107.66 E0.33042
G1 X268.973 Y108.436 E0.36046
G1 X269.366 Y109.249 E0.39049
G1 X269.684 Y110.094 E0.42052
G1 X269.927 Y110.964 E0.45056
G1 X270.092 Y111.852 E0.4806
G1 X270.187 Y112.982 E0.51832
G1 X270.2 Y113.589 E0.53851
G1 X270.2 Y186.005 E2.94708
G1 X270.19 Y186.858 E2.97545
G1 X270.139 Y187.76 E3.0055
G1 X270.008 Y188.654 E3.03555
G1 X269.799 Y189.532 E3.06557
G1 X269.513 Y190.389 E3.09562
G1 X269.152 Y191.217 E3.12566
G1 X268.72 Y192.009 E3.15567
G1 X268.219 Y192.761 E3.18572
G1 X267.653 Y193.465 E3.21577
G1 X267.028 Y194.116 E3.24578
G1 X266.347 Y194.71 E3.27584
G1 X265.616 Y195.241 E3.30589
G1 X264.842 Y195.705 E3.33591
G1 X264.029 Y196.099 E3.36595
G1 X263.185 Y196.419 E3.39598
G1 X262.315 Y196.664 E3.42604
G1 X261.428 Y196.83 E3.45605
G1 X260.277 Y196.928 E3.49447
G1 X259.67 Y196.941 E3.51467
G1 X40.707 Y196.941 E10.79741
G1 X39.877 Y196.931 E10.82501
G1 X38.976 Y196.88 E10.85503
G1 X38.082 Y196.748 E10.88509
G1 X37.204 Y196.539 E10.9151
G1 X36.347 Y196.252 E10.94516
G1 X35.52 Y195.891 E10.97518
G1 X34.727 Y195.458 E11.00523
G1 X33.976 Y194.957 E11.03525
G1 X33.272 Y194.391 E11.0653
G1 X32.621 Y193.765 E11.09534
G1 X32.028 Y193.084 E11.12537
G1 X31.498 Y192.353 E11.1554
G1 X31.034 Y191.578 E11.18545
G1 X30.64 Y190.765 E11.21549
G1 X30.32 Y189.921 E11.24552
G1 X30.076 Y189.051 E11.27557
G1 X29.91 Y188.163 E11.30561
G1 X29.813 Y187.008 E11.34417
G1 X29.8 Y186.399 E11.36443
G1 X29.8 Y113.933 E13.77465
G1 X29.81 Y113.13 E13.80136
G1 X29.862 Y112.228 E13.83141
G1 X29.994 Y111.335 E13.86144
G1 X30.204 Y110.457 E13.89146
G1 X30.491 Y109.6 E13.92152
G1 X30.853 Y108.773 E13.95155
G1 X31.286 Y107.981 E13.98157
G1 X31.788 Y107.23 E14.01162
G1 X32.355 Y106.526 E14.04168
G1 X32.981 Y105.876 E14.0717
G1 X33.662 Y105.283 E14.10173
G1 X34.394 Y104.753 E14.13179
G1 X35.169 Y104.29 E14.16182
G1 X35.982 Y103.897 E14.19185
G1 X36.827 Y103.577 E14.2219
G1 X37.696 Y103.334 E14.25191
G1 X38.584 Y103.168 E14.28196
G1 X39.723 Y103.072 E14.31998
G1 X40.33 Y103.059 E14.34017
G1 X259.293 Y103.059 E21.62291
G1 X259.439 Y103.06 E21.62777
G1 X260.137 Y103.07 E21.65098
G0 F6000 X260.143 Y102.67
G1 F1200 X261.062 Y102.723 E21.6816
G1 X261.973 Y102.856 E21.71222
G1 X262.869 Y103.067 E21.74284
G1 X263.743 Y103.355 E21.77345
G1 X264.59 Y103.718 E21.8041
G1 X265.401 Y104.153 E21.8347
G1 X266.171 Y104.657 E21.86531
G1 X266.895 Y105.226 E21.89594
G1 X267.567 Y105.856 E21.92658
G1 X268.182 Y106.541 E21.9572
G1 X268.735 Y107.277 E21.98781
G1 X269.222 Y108.058 E22.01843
G1 X269.639 Y108.879 E22.04905
G1 X269.984 Y109.733 E22.07969
G1 X270.253 Y110.613 E22.11029
G1 X270.445 Y111.514 E22.14093
G1 X270.558 Y112.427 E22.17153
G1 X270.587 Y112.971 E22.18965
G1 X270.6 Y113.589 E22.21021
G1 X270.6 Y186.005 E24.61878
G1 X270.59 Y186.863 E24.64732
G1 X270.539 Y187.782 E24.67793
G1 X270.408 Y188.694 E24.70857
G1 X270.198 Y189.59 E24.73918
G1 X269.912 Y190.465 E24.7698
G1 X269.551 Y191.312 E24.80042
G1 X269.117 Y192.124 E24.83105
G1 X268.615 Y192.896 E24.86168
G1 X268.047 Y193.621 E24.89231
G1 X267.419 Y194.294 E24.92292
G1 X266.735 Y194.91 E24.95354
G1 X266 Y195.464 E24.98415
G1 X265.22 Y195.953 E25.01477
G1 X264.4 Y196.372 E25.0454
G1 X263.547 Y196.718 E25.07602
G1 X262.667 Y196.989 E25.10664
G1 X261.767 Y197.182 E25.13726
G1 X260.853 Y197.297 E25.16789
G1 X260.288 Y197.328 E25.18671
G1 X259.67 Y197.341 E25.20727
G1 X40.707 Y197.341 E32.49001
G1 X39.872 Y197.331 E32.51779
G1 X38.953 Y197.279 E32.5484
G1 X38.042 Y197.148 E32.57901
G1 X37.146 Y196.938 E32.60962
G1 X36.271 Y196.651 E32.64025
G1 X35.424 Y196.289 E32.67089
G1 X34.612 Y195.855 E32.70151
G1 X33.841 Y195.353 E32.73211
G1 X33.116 Y194.785 E32.76274
G1 X32.443 Y194.156 E32.79338
G1 X31.828 Y193.472 E32.82397
G1 X31.274 Y192.737 E32.85459
G1 X30.786 Y191.956 E32.88522
G1 X30.367 Y191.136 E32.91585
G1 X30.021 Y190.283 E32.94646
G1 X29.751 Y189.403 E32.97708
G1 X29.558 Y188.502 E33.00772
G1 X29.444 Y187.589 E33.03833
G1 X29.413 Y187.018 E33.05735
G1 X29.4 Y186.399 E33.07794
G1 X29.4 Y113.933 E35.48817
G1 X29.41 Y113.125 E35.51504
G1 X29.462 Y112.205 E35.54569
G1 X29.594 Y111.294 E35.57631
G1 X29.805 Y110.398 E35.60692
G1 X30.092 Y109.523 E35.63755
G1 X30.455 Y108.677 E35.66817
G1 X30.889 Y107.865 E35.69879
G1 X31.392 Y107.094 E35.72941
G1 X31.961 Y106.37 E35.76004
G1 X32.589 Y105.698 E35.79063
G1 X33.274 Y105.082 E35.82127
G1 X34.01 Y104.529 E35.85189
G1 X34.791 Y104.041 E35.88252
G1 X35.611 Y103.623 E35.91313
G1 X36.465 Y103.278 E35.94377
G1 X37.345 Y103.008 E35.97438
G1 X38.245 Y102.816 E36.00499
G1 X39.159 Y102.702 E36.03563
G1 X39.712 Y102.672 E36.05405
G1 X40.33 Y102.659 E36.07461
G1 X259.293 Y102.659 E43.35734
G1 X259.445 Y102.66 E43.3624
G1 X260.143 Y102.67 E43.38562
G0 F6000 X260.149 Y102.27
G1 F1200 X261.085 Y102.324 E43.4168
G1 X262.013 Y102.456 E43.44798
G1 X262.927 Y102.668 E43.47918
G1 X263.819 Y102.957 E43.51037
G1 X264.684 Y103.32 E43.54157
G1 X265.514 Y103.756 E43.57275
G1 X266.305 Y104.261 E43.60397
G1 X267.049 Y104.832 E43.63516
G1 X267.742 Y105.464 E43.66636
G1 X268.379 Y106.152 E43.69754
G1 X268.954 Y106.893 E43.72874
G1 X269.465 Y107.679 E43.75992
G1 X269.907 Y108.507 E43.79114
G1 X270.276 Y109.369 E43.82232
G1 X270.571 Y110.259 E43.85351
G1 X270.789 Y111.171 E43.8847
G1 X270.929 Y112.099 E43.91591
G1 X270.987 Y112.96 E43.94461
G1 X271 Y113.589 E43.96554
G1 X271 Y186.005 E46.3741
G1 X270.99 Y186.868 E46.40281
G1 X270.939 Y187.805 E46.43402
G1 X270.807 Y188.733 E46.4652
G1 X270.598 Y189.647 E46.49638
G1 X270.311 Y190.54 E46.52758
G1 X269.949 Y191.406 E46.5588
G1 X269.515 Y192.237 E46.58998
G1 X269.011 Y193.028 E46.62117
G1 X268.442 Y193.773 E46.65235
G1 X267.811 Y194.468 E46.68357
G1 X267.124 Y195.106 E46.71476
G1 X266.385 Y195.683 E46.74594
G1 X265.599 Y196.195 E46.77714
G1 X264.773 Y196.638 E46.80832
G1 X263.911 Y197.01 E46.83954
G1 X263.022 Y197.306 E46.87071
G1 X262.11 Y197.526 E46.90191
G1 X261.183 Y197.667 E46.9331
G1 X260.299 Y197.728 E46.96257
G1 X259.67 Y197.741 E46.98349
G1 X40.707 Y197.741 E54.26623
G1 X39.867 Y197.731 E54.29417
G1 X38.931 Y197.679 E54.32535
G1 X38.002 Y197.547 E54.35656
G1 X37.088 Y197.337 E54.38775
G1 X36.195 Y197.05 E54.41895
G1 X35.33 Y196.687 E54.45015
G1 X34.499 Y196.253 E54.48133
G1 X33.708 Y195.749 E54.51253
G1 X32.963 Y195.179 E54.54373
G1 X32.269 Y194.548 E54.57492
G1 X31.632 Y193.861 E54.60609
G1 X31.055 Y193.121 E54.6373
G1 X30.543 Y192.335 E54.66849
G1 X30.1 Y191.508 E54.6997
G1 X29.729 Y190.647 E54.73088
G1 X29.433 Y189.757 E54.76208
G1 X29.214 Y188.845 E54.79327
G1 X29.073 Y187.918 E54.82446
G1 X29.013 Y187.029 E54.85409
G1 X29 Y186.399 E54.87505
G1 X29 Y113.933 E57.28528
G1 X29.01 Y113.119 E57.31236
G1 X29.063 Y112.183 E57.34354
G1 X29.195 Y111.254 E57.37475
G1 X29.406 Y110.34 E57.40595
G1 X29.694 Y109.448 E57.43712
G1 X30.057 Y108.583 E57.46832
G1 X30.492 Y107.752 E57.49952
G1 X30.996 Y106.962 E57.53069
G1 X31.566 Y106.217 E57.56189
G1 X32.198 Y105.523 E57.59311
G1 X32.886 Y104.886 E57.62429
G1 X33.626 Y104.31 E57.65548
G1 X34.412 Y103.798 E57.68668
G1 X35.239 Y103.356 E57.71787
G1 X36.101 Y102.986 E57.74907
G1 X36.991 Y102.69 E57.78027
G1 X37.903 Y102.472 E57.81145
G1 X38.83 Y102.331 E57.84264
G1 X39.701 Y102.272 E57.87168
G1 X40.33 Y102.259 E57.8926
G1 X259.293 Y102.259 E65.17534
G1 X259.451 Y102.26 E65.1806
G1 X260.149 Y102.27 E65.20381
G1 F2700 E60.20381
;MESH:BottleHolderBottom v1.stl
G0 F6000 X242.323 Y116.859
G0 X241.546 Y116.9
G0 X241.83 Y117.263
G0 X239.257 Y119.369
G0 X238.487 Y118.696
G0 X231.905 Y125.278
G0 X231.912 Y125.381
G0 X204.955 Y147.446
G0 X202.443 Y149.919
G0 X202.16 Y149.734
G0 X199.599 Y151.83
G0 X200.019 Y152.347
G0 X193.436 Y158.941
G0 X192.246 Y157.848
G0 X189.684 Y159.946
G0 X191.011 Y161.369
G0 X184.428 Y167.963
G0 X182.332 Y165.963
G0 X179.77 Y168.061
G0 X182.004 Y170.391
G0 X175.421 Y176.984
G0 X172.417 Y174.079
G0 X162.567 Y182.143
G0 X161.157 Y183.554
G0 X160.51 Y184.174
G0 X154.062 Y184.341
;TYPE:WALL-INNER
G1 F2700 E65.20381
G1 F1200 X160.622 Y184.341 E65.422
G1 X160.928 Y183.6 E65.44866
G1 X157.342 Y180.014 E65.61734
G1 X153.756 Y183.6 E65.78601
G1 X154.062 Y184.341 E65.81268
G0 F6000 X154.33 Y183.941
;TYPE:WALL-OUTER
G1 F1200 X160.354 Y183.941 E66.01304
G1 X160.456 Y183.694 E66.02193
G1 X157.342 Y180.58 E66.1684
G1 X154.228 Y183.694 E66.31487
G1 X154.33 Y183.941 E66.32376
G1 F2700 E61.32376
G0 F6000 X154.33 Y184.241
G0 X160.51 Y184.174
G0 X161.143 Y183.581
G0 X161.546 Y183.18
G0 X162.976 Y184.341
;TYPE:WALL-INNER
G1 F2700 E66.32376
G1 F1200 X169.847 Y184.341 E66.55229
G1 X174.768 Y179.412 E66.78395
G1 X166.356 Y171 E67.17962
G1 X158.135 Y179.221 E67.56631
G1 X157.995 Y179.361 E67.5729
G1 X158.135 Y179.501 E67.57714
G1 X162.976 Y184.341 E67.80482
G0 F6000 X163.142 Y183.941
;TYPE:WALL-OUTER
G1 F1200 X169.681 Y183.941 E68.02231
G1 X174.203 Y179.412 E68.23518
G1 X166.356 Y171.566 E68.60425
G1 X158.561 Y179.361 E68.97091
G1 X163.142 Y183.941 E69.18636
G0 F6000 X162.974 Y184.347
G1 F2700 E64.18636
G0 F6000 X158.238 Y179.361
G0 X162.259 Y174.856
G0 X163.274 Y175.871
G0 X163.579 Y170.665
G0 X163.875 Y170.292
G0 X163.621 Y169.955
G0 X163.881 Y165.526
G0 X159.768 Y161.332
G0 X164.404 Y156.615
G0 X164.881 Y148.498
G0 X159.739 Y143.273
G0 X165.533 Y137.398
G0 X165.888 Y131.377
G0 X164.873 Y132.392
G0 X166.356 Y133.634
;TYPE:WALL-INNER
G1 F2700 E69.18636
G1 F1200 X174.578 Y125.413 E69.57307
G1 X174.718 Y125.273 E69.57966
G1 X174.578 Y125.133 E69.5839
G1 X166.356 Y116.912 E69.97062
G1 X157.995 Y125.273 E70.36389
G1 X166.356 Y133.634 E70.75717
G0 F6000 X166.356 Y133.068
;TYPE:WALL-OUTER
G1 F1200 X174.152 Y125.273 E71.12385
G1 X166.356 Y117.478 E71.49052
G1 X158.561 Y125.273 E71.85718
G1 X166.356 Y133.068 E72.22383
G1 F2700 E67.22383
G0 F6000 X166.144 Y133.279
G0 X166.356 Y133.391
G0 X174.475 Y125.273
G0 X175.095 Y124.613
G0 X175.371 Y124.62
;TYPE:WALL-INNER
G1 F2700 E72.22383
G1 F1200 X183.581 Y116.41 E72.61
G1 X183.275 Y115.669 E72.63667
G1 X167.457 Y115.659 E73.16278
G1 X167.151 Y116.4 E73.18944
G1 X175.371 Y124.62 E73.57608
G0 F6000 X175.371 Y124.054
;TYPE:WALL-OUTER
G1 F1200 X183.109 Y116.316 E73.94006
G1 X183.007 Y116.069 E73.94894
G1 X167.725 Y116.059 E74.45722
G1 X167.623 Y116.306 E74.46611
G1 X175.371 Y124.054 E74.83056
G1 F2700 E69.83056
G0 F6000 X175.159 Y124.265
G0 X175.349 Y124.365
G0 X177.757 Y122.475
G0 X176.742 Y121.46
G0 X181.357 Y121.573
G0 X184.358 Y118.655
G0 X187.512 Y121.724
G0 X192.327 Y121.843
G0 X193.406 Y122.841
G0 X194.43 Y121.894
G0 X199.011 Y122.007
G0 X202.416 Y118.684
G0 X205.998 Y122.179
G0 X210.911 Y122.301
G0 X209.897 Y123.318
G0 X211.381 Y124.558
;TYPE:WALL-INNER
G1 F2700 E74.83056
G1 F1200 X219.53 Y116.41 E75.21384
G1 X219.224 Y115.669 E75.2405
G1 X203.515 Y115.659 E75.76298
G1 X203.209 Y116.4 E75.78965
G1 X211.381 Y124.558 E76.1737
G0 F6000 X211.381 Y123.993
;TYPE:WALL-OUTER
G1 F1200 X219.058 Y116.316 E76.53481
G1 X218.956 Y116.069 E76.5437
G1 X203.783 Y116.059 E77.04835
G1 X203.681 Y116.306 E77.05724
G1 X211.381 Y123.993 E77.41912
G1 F2700 E72.41912
G0 F6000 X211.592 Y124.205
G0 X211.403 Y124.304
G0 X202.98 Y116.447
G0 X201.839 Y116.456
G0 X193.406 Y124.613
;TYPE:WALL-INNER
G1 F2700 E77.41912
G1 F1200 X201.61 Y116.41 E77.80499
G1 X201.304 Y115.669 E77.83165
G1 X185.486 Y115.659 E78.35776
G1 X185.18 Y116.4 E78.38442
G1 X193.406 Y124.613 E78.77104
G0 F6000 X193.406 Y124.048
;TYPE:WALL-OUTER
G1 F1200 X201.138 Y116.316 E79.13473
G1 X201.036 Y116.069 E79.14362
G1 X185.754 Y116.059 E79.6519
G1 X185.652 Y116.306 E79.66079
G1 X193.406 Y124.048 E80.02523
G1 F2700 E75.02523
G0 F6000 X193.193 Y124.259
G0 X193.564 Y124.752
G0 X194.344 Y125.266
G0 X202.374 Y133.565
;TYPE:WALL-INNER
G1 F2700 E80.02523
G1 F1200 X210.589 Y125.351 E80.41162
G1 X210.729 Y125.211 E80.4182
G1 X210.589 Y125.071 E80.42245
G1 X202.416 Y116.912 E80.80655
G1 X194.201 Y125.126 E81.19294
G1 X194.061 Y125.266 E81.19952
G1 X194.201 Y125.406 E81.20377
G1 X202.374 Y133.565 E81.58787
G0 F6000 X202.374 Y133
;TYPE:WALL-OUTER
G1 F1200 X210.163 Y125.211 E81.95424
G1 X202.416 Y117.477 E82.31833
G1 X194.627 Y125.266 E82.6847
G1 X202.374 Y133 E83.04879
G1 F2700 E78.04879
G0 F6000 X202.161 Y133.211
G0 X202.219 Y133.707
G0 X201.438 Y134.219
G0 X193.346 Y142.594
;TYPE:WALL-INNER
G1 F2700 E83.04879
G1 F1200 X201.581 Y134.359 E83.43614
G1 X201.721 Y134.219 E83.44273
G1 X201.581 Y134.079 E83.44697
G1 X193.409 Y125.919 E83.83108
G1 X185.179 Y134.148 E84.21817
G1 X185.039 Y134.288 E84.22475
G1 X185.179 Y134.428 E84.229
G1 X193.346 Y142.594 E84.61312
G0 F6000 X193.346 Y142.028
;TYPE:WALL-OUTER
G1 F1200 X201.155 Y134.219 E84.98044
G1 X193.409 Y126.484 E85.34452
G1 X185.605 Y134.288 E85.7116
G1 X193.346 Y142.028 E86.07569
G1 F2700 E81.07569
G0 F6000 X193.133 Y142.239
G0 X185.322 Y134.288
G0 X184.662 Y133.627
G0 X184.386 Y133.634
;TYPE:WALL-INNER
G1 F2700 E86.07569
G1 F1200 X192.614 Y125.406 E86.46271
G1 X192.754 Y125.266 E86.4693
G1 X192.614 Y125.127 E86.47353
G1 X192.613 Y125.126 E86.47357
G1 X192.111 Y124.625 E86.49716
G1 X184.358 Y116.883 E86.86158
G1 X176.135 Y125.104 E87.24832
G1 X175.995 Y125.244 E87.2549
G1 X176.135 Y125.384 E87.25915
G1 X184.386 Y133.634 E87.64723
G0 F6000 X184.386 Y133.068
;TYPE:WALL-OUTER
G1 F1200 X192.188 Y125.266 E88.01421
G1 X191.829 Y124.908 E88.03107
G1 X184.358 Y117.448 E88.38223
G1 X176.561 Y125.244 E88.74895
G1 X184.386 Y133.068 E89.11699
G1 F2700 E84.11699
G0 F6000 X184.173 Y133.279
G0 X184.237 Y133.782
G0 X183.449 Y134.288
G0 X175.371 Y142.649
;TYPE:WALL-INNER
G1 F2700 E89.11699
G1 F1200 X183.732 Y134.288 E89.51027
G1 X175.342 Y125.898 E89.90491
G1 X166.981 Y134.259 E90.29818
G1 X175.371 Y142.649 E90.69282
G0 F6000 X175.371 Y142.083
;TYPE:WALL-OUTER
G1 F1200 X183.166 Y134.288 E91.05947
G1 X175.342 Y126.464 E91.42749
G1 X167.547 Y134.259 E91.79414
G1 X175.371 Y142.083 E92.16216
G1 F2700 E87.16216
G0 F6000 X175.159 Y142.294
G0 X175.506 Y142.783
G0 X176.307 Y143.303
G0 X184.331 Y151.609
;TYPE:WALL-INNER
G1 F2700 E92.16216
G1 F1200 X192.692 Y143.248 E92.55544
G1 X184.526 Y135.081 E92.93956
G1 X184.386 Y134.941 E92.94615
G1 X184.246 Y135.081 E92.95039
G1 X176.164 Y143.163 E93.33055
G1 X176.024 Y143.303 E93.33713
G1 X176.164 Y143.443 E93.34138
G1 X184.331 Y151.609 E93.7255
G0 F6000 X184.331 Y151.043
;TYPE:WALL-OUTER
G1 F1200 X192.126 Y143.248 E94.09216
G1 X184.386 Y135.507 E94.45625
G1 X176.59 Y143.303 E94.82295
G1 X184.331 Y151.043 E95.18704
G1 F2700 E90.18704
G0 F6000 X184.118 Y151.254
G0 X184.331 Y151.886
G0 X184.386 Y153.254
G0 X176.267 Y161.332
G0 X184.288 Y169.596
;TYPE:WALL-INNER
G1 F2700 E95.18704
G1 F1200 X184.428 Y169.736 E95.19362
G1 X184.568 Y169.596 E95.19787
G1 X192.108 Y162.044 E95.55281
G1 X192.782 Y161.368 E95.58456
G1 X184.386 Y152.971 E95.9795
G1 X176.164 Y161.192 E96.36622
G1 X176.024 Y161.332 E96.3728
G1 X176.164 Y161.472 E96.37705
G1 X184.288 Y169.596 E96.75918
