;FLAVOR:Marlin
;TIME:1821
;Filament used: 1.05714m
;Layer height: 0.24
;MINX:132
;MINY:119
;MINZ:0.2
;MAXX:168
;MAXY:181
;MAXZ:32.6
;Generated with Cura_SteamEngine 4.6.1
M140 S70
M105
M190 S70
M104 S225
M105
M109 S225
M82 ;absolute extrusion mode
M201 X500.00 Y500.00 Z100.00 E5000.00 ;Setup machine max acceleration
M203 X500.00 Y500.00 Z10.00 E50.00 ;Setup machine max feedrate
M204 P500.00 R1000.00 T500.00 ;Setup Print/Retract/Travel acceleration
M205 X8.00 Y8.00 Z0.40 E5.00 ;Setup Jerk
M220 S100 ;Reset Feedrate
M221 S100 ;Reset Flowrate

G28 ;Home

G92 E0 ;Reset Extruder
G1 Z2.0 F3000 ;Move Z Axis up
G1 X10.1 Y20 Z0.28 F5000.0 ;Move to start position
G1 X10.1 Y200.0 Z0.28 F1500.0 E15 ;Draw the first line
G1 X10.4 Y200.0 Z0.28 F5000.0 ;Move to side a little
G1 X10.4 Y20 Z0.28 F1500.0 E30 ;Draw the second line
G92 E0 ;Reset Extruder
G1 Z2.0 F3000 ;Move Z Axis up

G92 E0
G92 E0
G1 F2700 E-5
;LAYER_COUNT:136
;LAYER:0
M107
G0 F6000 X157.137 Y119.811 Z0.2
;TYPE:SKIRT
G1 F2700 E0
G1 F1200 X158.039 Y119.864 E0.03005
G1 X158.932 Y119.996 E0.06008
G1 X159.81 Y120.207 E0.09011
G1 X160.666 Y120.495 E0.12015
G1 X161.493 Y120.857 E0.15018
G1 X162.285 Y121.292 E0.18023
G1 X163.036 Y121.794 E0.21027
G1 X163.739 Y122.361 E0.24031
G1 X164.389 Y122.988 E0.27035
G1 X164.981 Y123.67 E0.30039
G1 X165.511 Y124.401 E0.33042
G1 X165.973 Y125.177 E0.36046
G1 X166.366 Y125.99 E0.39049
G1 X166.684 Y126.835 E0.42052
G1 X166.927 Y127.705 E0.45056
G1 X167.092 Y128.593 E0.4806
G1 X167.187 Y129.723 E0.51832
G1 X167.2 Y130.33 E0.53851
G1 X167.199 Y169.39 E1.83766
G1 X167.19 Y170.117 E1.86184
G1 X167.139 Y171.019 E1.89189
G1 X167.008 Y171.913 E1.92194
G1 X166.799 Y172.791 E1.95196
G1 X166.513 Y173.648 E1.98201
G1 X166.152 Y174.476 E2.01205
G1 X165.72 Y175.268 E2.04205
G1 X165.219 Y176.02 E2.07211
G1 X164.653 Y176.724 E2.10215
G1 X164.028 Y177.375 E2.13217
G1 X163.347 Y177.969 E2.16222
G1 X162.616 Y178.5 E2.19228
G1 X161.842 Y178.964 E2.22229
G1 X161.029 Y179.358 E2.25234
G1 X160.185 Y179.678 E2.28236
G1 X159.315 Y179.923 E2.31242
G1 X158.428 Y180.089 E2.34244
G1 X157.277 Y180.187 E2.38086
G1 X156.67 Y180.2 E2.40105
G1 X143.575 Y180.199 E2.83659
G1 X142.877 Y180.19 E2.85981
G1 X141.976 Y180.139 E2.88982
G1 X141.082 Y180.007 E2.91988
G1 X140.204 Y179.798 E2.9499
G1 X139.347 Y179.511 E2.97996
G1 X138.52 Y179.15 E3.00997
G1 X137.727 Y178.717 E3.04002
G1 X136.976 Y178.216 E3.07005
G1 X136.272 Y177.65 E3.10009
G1 X135.621 Y177.024 E3.13013
G1 X135.028 Y176.343 E3.16017
G1 X134.498 Y175.612 E3.1902
G1 X134.034 Y174.837 E3.22024
G1 X133.64 Y174.024 E3.25029
G1 X133.32 Y173.18 E3.28031
G1 X133.076 Y172.31 E3.31036
G1 X132.91 Y171.422 E3.34041
G1 X132.813 Y170.267 E3.37896
G1 X132.8 Y169.658 E3.39922
G1 X132.801 Y130.536 E4.70042
G1 X132.81 Y129.871 E4.72254
G1 X132.862 Y128.969 E4.7526
G1 X132.994 Y128.076 E4.78262
G1 X133.204 Y127.198 E4.81265
G1 X133.491 Y126.341 E4.8427
G1 X133.853 Y125.514 E4.87273
G1 X134.286 Y124.722 E4.90275
G1 X134.788 Y123.971 E4.9328
G1 X135.355 Y123.267 E4.96286
G1 X135.981 Y122.617 E4.99288
G1 X136.662 Y122.024 E5.02291
G1 X137.394 Y121.494 E5.05297
G1 X138.169 Y121.031 E5.083
G1 X138.982 Y120.638 E5.11303
G1 X139.827 Y120.318 E5.14308
G1 X140.696 Y120.075 E5.17309
G1 X141.584 Y119.909 E5.20314
G1 X142.723 Y119.813 E5.24116
G1 X143.33 Y119.8 E5.26135
G1 X156.439 Y119.801 E5.69736
G1 X157.137 Y119.811 E5.72058
G0 F6000 X157.143 Y119.411
G1 F1200 X158.062 Y119.464 E5.75119
G1 X158.973 Y119.597 E5.78182
G1 X159.869 Y119.808 E5.81243
G1 X160.743 Y120.096 E5.84304
G1 X161.59 Y120.459 E5.87369
G1 X162.401 Y120.894 E5.9043
G1 X163.171 Y121.398 E5.93491
G1 X163.895 Y121.967 E5.96553
G1 X164.567 Y122.597 E5.99617
G1 X165.182 Y123.282 E6.02679
G1 X165.735 Y124.018 E6.05741
G1 X166.222 Y124.799 E6.08802
G1 X166.639 Y125.62 E6.11865
G1 X166.984 Y126.474 E6.14928
G1 X167.253 Y127.354 E6.17989
G1 X167.445 Y128.255 E6.21053
G1 X167.558 Y129.168 E6.24113
G1 X167.587 Y129.712 E6.25924
G1 X167.6 Y130.33 E6.2798
G1 X167.599 Y169.395 E7.57911
G1 X167.59 Y170.122 E7.60329
G1 X167.539 Y171.041 E7.63391
G1 X167.408 Y171.953 E7.66455
G1 X167.198 Y172.849 E7.69516
G1 X166.912 Y173.724 E7.72578
G1 X166.551 Y174.571 E7.7564
G1 X166.117 Y175.383 E7.78702
G1 X165.615 Y176.155 E7.81765
G1 X165.047 Y176.88 E7.84828
G1 X164.419 Y177.553 E7.8789
G1 X163.735 Y178.169 E7.90952
G1 X163 Y178.723 E7.94013
G1 X162.22 Y179.212 E7.97075
G1 X161.4 Y179.631 E8.00138
G1 X160.547 Y179.977 E8.03199
G1 X159.667 Y180.248 E8.06262
G1 X158.767 Y180.441 E8.09323
G1 X157.853 Y180.556 E8.12387
G1 X157.288 Y180.587 E8.14269
G1 X156.67 Y180.6 E8.16325
G1 X143.57 Y180.599 E8.59896
G1 X142.872 Y180.59 E8.62218
G1 X141.953 Y180.538 E8.65279
G1 X141.042 Y180.407 E8.6834
G1 X140.146 Y180.197 E8.71401
G1 X139.271 Y179.91 E8.74464
G1 X138.424 Y179.548 E8.77528
G1 X137.612 Y179.114 E8.8059
G1 X136.841 Y178.612 E8.8365
G1 X136.116 Y178.044 E8.86713
G1 X135.443 Y177.415 E8.89777
G1 X134.828 Y176.731 E8.92836
G1 X134.274 Y175.996 E8.95898
G1 X133.786 Y175.215 E8.98961
G1 X133.367 Y174.395 E9.02023
G1 X133.021 Y173.542 E9.05085
G1 X132.751 Y172.662 E9.08147
G1 X132.558 Y171.761 E9.11211
G1 X132.444 Y170.848 E9.14272
G1 X132.413 Y170.277 E9.16173
G1 X132.4 Y169.658 E9.18233
G1 X132.401 Y130.531 E10.4837
G1 X132.41 Y129.866 E10.50582
G1 X132.462 Y128.946 E10.53646
G1 X132.594 Y128.035 E10.56708
G1 X132.805 Y127.139 E10.5977
G1 X133.092 Y126.264 E10.62833
G1 X133.455 Y125.418 E10.65894
G1 X133.889 Y124.606 E10.68957
G1 X134.392 Y123.835 E10.72019
G1 X134.961 Y123.111 E10.75081
G1 X135.589 Y122.439 E10.7814
G1 X136.274 Y121.823 E10.81204
G1 X137.01 Y121.27 E10.84266
G1 X137.791 Y120.782 E10.87329
G1 X138.611 Y120.364 E10.90391
G1 X139.465 Y120.019 E10.93454
G1 X140.345 Y119.749 E10.96516
G1 X141.245 Y119.557 E10.99576
G1 X142.159 Y119.443 E11.0264
G1 X142.712 Y119.413 E11.04482
G1 X143.33 Y119.4 E11.06538
G1 X156.445 Y119.401 E11.50159
G1 X157.143 Y119.411 E11.5248
G0 F6000 X157.149 Y119.011
G1 F1200 X158.085 Y119.065 E11.55599
G1 X159.013 Y119.197 E11.58716
G1 X159.927 Y119.409 E11.61837
G1 X160.819 Y119.698 E11.64956
G1 X161.684 Y120.061 E11.68076
G1 X162.514 Y120.497 E11.71194
G1 X163.305 Y121.002 E11.74315
G1 X164.049 Y121.573 E11.77435
G1 X164.742 Y122.205 E11.80554
G1 X165.379 Y122.893 E11.83673
G1 X165.954 Y123.634 E11.86792
G1 X166.465 Y124.42 E11.8991
G1 X166.907 Y125.248 E11.93032
G1 X167.276 Y126.11 E11.96151
G1 X167.571 Y127 E11.99269
G1 X167.789 Y127.912 E12.02388
G1 X167.929 Y128.84 E12.05509
G1 X167.987 Y129.701 E12.0838
G1 X168 Y130.33 E12.10472
G1 X167.999 Y169.4 E13.4042
G1 X167.99 Y170.127 E13.42838
G1 X167.939 Y171.064 E13.45959
G1 X167.807 Y171.992 E13.49076
G1 X167.598 Y172.906 E13.52195
G1 X167.311 Y173.799 E13.55315
G1 X166.949 Y174.665 E13.58436
G1 X166.515 Y175.496 E13.61555
G1 X166.011 Y176.287 E13.64674
G1 X165.442 Y177.032 E13.67792
G1 X164.811 Y177.727 E13.70914
G1 X164.124 Y178.365 E13.74033
G1 X163.385 Y178.942 E13.77151
G1 X162.599 Y179.454 E13.80271
G1 X161.773 Y179.897 E13.83388
G1 X160.911 Y180.269 E13.86511
G1 X160.022 Y180.565 E13.89627
G1 X159.11 Y180.785 E13.92748
G1 X158.183 Y180.926 E13.95866
G1 X157.299 Y180.987 E13.98814
G1 X156.67 Y181 E14.00906
G1 X143.565 Y180.999 E14.44494
G1 X142.867 Y180.99 E14.46815
G1 X141.931 Y180.938 E14.49933
G1 X141.002 Y180.806 E14.53054
G1 X140.088 Y180.596 E14.56173
G1 X139.195 Y180.309 E14.59293
G1 X138.33 Y179.946 E14.62413
G1 X137.499 Y179.512 E14.65531
G1 X136.708 Y179.008 E14.68651
G1 X135.963 Y178.438 E14.71771
G1 X135.269 Y177.807 E14.74891
G1 X134.632 Y177.12 E14.78007
G1 X134.055 Y176.38 E14.81128
G1 X133.543 Y175.594 E14.84248
G1 X133.1 Y174.767 E14.87368
G1 X132.729 Y173.906 E14.90486
G1 X132.433 Y173.016 E14.93606
G1 X132.214 Y172.104 E14.96725
G1 X132.073 Y171.177 E14.99844
G1 X132.013 Y170.288 E15.02808
G1 X132 Y169.658 E15.04903
G1 X132.001 Y130.525 E16.3506
G1 X132.01 Y129.86 E16.37272
G1 X132.063 Y128.924 E16.4039
G1 X132.195 Y127.995 E16.43511
G1 X132.406 Y127.081 E16.46631
G1 X132.694 Y126.189 E16.49749
G1 X133.057 Y125.324 E16.52869
G1 X133.492 Y124.493 E16.55989
G1 X133.996 Y123.703 E16.59105
G1 X134.566 Y122.958 E16.62225
G1 X135.198 Y122.264 E16.65347
G1 X135.886 Y121.627 E16.68466
G1 X136.626 Y121.051 E16.71585
G1 X137.412 Y120.539 E16.74705
G1 X138.239 Y120.097 E16.77824
G1 X139.101 Y119.727 E16.80944
G1 X139.991 Y119.431 E16.84063
G1 X140.903 Y119.213 E16.87182
G1 X141.83 Y119.072 E16.90301
G1 X142.701 Y119.013 E16.93204
G1 X143.33 Y119 E16.95297
G1 X156.451 Y119.001 E17.38937
G1 X157.149 Y119.011 E17.41259
G1 F2700 E12.41259
;MESH:BottleHookHolder.stl
G0 F6000 X150.975 Y129.335
G0 X150.975 Y131.148
G0 X151.822 Y132.282
G0 X152.025 Y132.661
G0 X152.149 Y133.074
G0 X152.192 Y133.5
G0 X152.149 Y133.926
G0 X152.025 Y134.339
G0 X151.822 Y134.718
G0 X151.549 Y135.049
G0 X151.218 Y135.322
G0 X150 Y135.853
;TYPE:WALL-INNER
G1 F2700 E17.41259
G1 F1200 X150.458 Y135.807 E17.4279
G1 X150.901 Y135.675 E17.44327
G1 X151.308 Y135.456 E17.45865
G1 X151.663 Y135.163 E17.47396
G1 X151.956 Y134.808 E17.48927
G1 X152.175 Y134.401 E17.50464
G1 X152.307 Y133.958 E17.52001
G1 X152.353 Y133.5 E17.53532
G1 X152.307 Y133.042 E17.55063
G1 X152.175 Y132.599 E17.56601
G1 X151.956 Y132.192 E17.58138
G1 X151.663 Y131.837 E17.59669
G1 X151.308 Y131.544 E17.612
G1 X150.901 Y131.325 E17.62737
G1 X150.458 Y131.193 E17.64274
G1 X150 Y131.147 E17.65805
G1 X149.542 Y131.193 E17.67336
G1 X149.099 Y131.325 E17.68874
G1 X148.692 Y131.544 E17.70411
G1 X148.337 Y131.837 E17.71942
G1 X148.044 Y132.192 E17.73473
G1 X147.825 Y132.599 E17.7501
G1 X147.693 Y133.042 E17.76548
G1 X147.647 Y133.5 E17.78079
G1 X147.693 Y133.958 E17.7961
G1 X147.825 Y134.401 E17.81147
G1 X148.044 Y134.808 E17.82684
G1 X148.337 Y135.163 E17.84215
G1 X148.692 Y135.456 E17.85746
G1 X149.099 Y135.675 E17.87283
G1 X149.542 Y135.807 E17.88821
G1 X150 Y135.853 E17.90352
G0 F6000 X150 Y135.451
;TYPE:WALL-OUTER
G1 F1200 X150.38 Y135.413 E17.91622
G1 X150.747 Y135.303 E17.92896
G1 X151.084 Y135.122 E17.94169
G1 X151.379 Y134.879 E17.9544
G1 X151.622 Y134.584 E17.96711
G1 X151.803 Y134.247 E17.97983
G1 X151.913 Y133.88 E17.99258
G1 X151.951 Y133.5 E18.00528
G1 X151.913 Y133.12 E18.01798
G1 X151.803 Y132.753 E18.03072
G1 X151.622 Y132.416 E18.04345
G1 X151.379 Y132.121 E18.05616
G1 X151.084 Y131.878 E18.06887
G1 X150.747 Y131.697 E18.08159
G1 X150.38 Y131.587 E18.09434
G1 X150 Y131.549 E18.10704
G1 X149.62 Y131.587 E18.11974
G1 X149.253 Y131.697 E18.13248
G1 X148.916 Y131.878 E18.14521
G1 X148.621 Y132.121 E18.15792
G1 X148.378 Y132.416 E18.17063
G1 X148.197 Y132.753 E18.18335
G1 X148.087 Y133.12 E18.1961
G1 X148.049 Y133.5 E18.2088
G1 X148.087 Y133.88 E18.2215
G1 X148.197 Y134.247 E18.23424
G1 X148.378 Y134.584 E18.24696
G1 X148.621 Y134.879 E18.25968
G1 X148.916 Y135.122 E18.27239
G1 X149.253 Y135.303 E18.28511
G1 X149.62 Y135.413 E18.29785
G1 X150 Y135.451 E18.31056
G0 F6000 X150 Y135.891
G1 F2700 E13.31056
G0 F6000 X150 Y136.044
G0 X150 Y134.582
G0 X150 Y165.418
G0 X150 Y163.956
G0 X151.218 Y164.678
G0 X151.549 Y164.951
G0 X151.822 Y165.282
G0 X152.025 Y165.661
G0 X152.149 Y166.074
G0 X152.192 Y166.5
G0 X152.149 Y166.926
G0 X152.025 Y167.339
G0 X151.822 Y167.718
G0 X151.549 Y168.049
G0 X151.218 Y168.322
G0 X150 Y168.853
;TYPE:WALL-INNER
G1 F2700 E18.31056
G1 F1200 X150.458 Y168.807 E18.32587
G1 X150.901 Y168.675 E18.34124
G1 X151.308 Y168.456 E18.35661
G1 X151.663 Y168.163 E18.37192
G1 X151.956 Y167.808 E18.38723
G1 X152.175 Y167.401 E18.4026
G1 X152.307 Y166.958 E18.41798
G1 X152.353 Y166.5 E18.43329
G1 X152.307 Y166.042 E18.4486
G1 X152.175 Y165.599 E18.46397
G1 X151.956 Y165.192 E18.47934
G1 X151.663 Y164.837 E18.49465
G1 X151.308 Y164.544 E18.50996
G1 X150.901 Y164.325 E18.52534
G1 X150.458 Y164.193 E18.54071
G1 X150 Y164.147 E18.55602
G1 X149.542 Y164.193 E18.57133
G1 X149.099 Y164.325 E18.5867
G1 X148.692 Y164.544 E18.60208
G1 X148.337 Y164.837 E18.61739
G1 X148.044 Y165.192 E18.6327
G1 X147.825 Y165.599 E18.64807
G1 X147.693 Y166.042 E18.66344
G1 X147.647 Y166.5 E18.67875
G1 X147.693 Y166.958 E18.69406
G1 X147.825 Y167.401 E18.70944
G1 X148.044 Y167.808 E18.72481
G1 X148.337 Y168.163 E18.74012
G1 X148.692 Y168.456 E18.75543
G1 X149.099 Y168.675 E18.7708
G1 X149.542 Y168.807 E18.78617
G1 X150 Y168.853 E18.80148
G0 F6000 X150 Y168.451
;TYPE:WALL-OUTER
G1 F1200 X150.38 Y168.413 E18.81419
G1 X150.747 Y168.303 E18.82693
G1 X151.084 Y168.122 E18.83965
G1 X151.379 Y167.879 E18.85236
G1 X151.622 Y167.584 E18.86508
G1 X151.803 Y167.247 E18.8778
G1 X151.913 Y166.88 E18.89054
G1 X151.951 Y166.5 E18.90324
G1 X151.913 Y166.12 E18.91595
G1 X151.803 Y165.753 E18.92869
G1 X151.622 Y165.416 E18.94141
G1 X151.379 Y165.121 E18.95412
G1 X151.084 Y164.878 E18.96684
G1 X150.747 Y164.697 E18.97956
G1 X150.38 Y164.587 E18.9923
G1 X150 Y164.549 E19.005
G1 X149.62 Y164.587 E19.0177
G1 X149.253 Y164.697 E19.03045
G1 X148.916 Y164.878 E19.04317
G1 X148.621 Y165.121 E19.05588
G1 X148.378 Y165.416 E19.06859
G1 X148.197 Y165.753 E19.08132
G1 X148.087 Y166.12 E19.09406
G1 X148.049 Y166.5 E19.10676
G1 X148.087 Y166.88 E19.11946
G1 X148.197 Y167.247 E19.13221
G1 X148.378 Y167.584 E19.14493
G1 X148.621 Y167.879 E19.15764
G1 X148.916 Y168.122 E19.17035
G1 X149.253 Y168.303 E19.18308
G1 X149.62 Y168.413 E19.19582
G1 X150 Y168.451 E19.20852
G0 F6000 X150 Y168.891
G1 F2700 E14.20852
G0 F6000 X148.585 Y168.615
G0 X148.585 Y169.19
G0 X143.6 Y169.4
;TYPE:WALL-INNER
G1 F2700 E19.20852
G1 F1200 X143.6 Y130.6 E20.49902
G1 X156.4 Y130.6 E20.92475
G1 X156.4 Y169.4 E22.21524
G1 X143.6 Y169.4 E22.64097
G0 F6000 X143.2 Y169.8
;TYPE:WALL-OUTER
G1 F1200 X143.2 Y130.2 E23.95807
G1 X156.8 Y130.2 E24.41041
G1 X156.8 Y169.8 E25.72751
G1 X143.2 Y169.8 E26.17985
G0 F6000 X143.47 Y169.53
G0 X143.71 Y169.01
G0 X143.99 Y169.01
;TYPE:SKIN
G1 F1200 X143.99 Y130.99 E27.4444
G1 X148.897 Y130.99 E27.6076
G1 X148.473 Y131.219 E27.62363
G1 X148.06 Y131.56 E27.64145
G1 X147.719 Y131.973 E27.65926
G1 X147.462 Y132.449 E27.67725
G1 X147.309 Y132.966 E27.69518
G1 X147.255 Y133.5 E27.71304
G1 X147.309 Y134.034 E27.73089
G1 X147.462 Y134.551 E27.74882
G1 X147.719 Y135.027 E27.76681
G1 X148.06 Y135.44 E27.78463
G1 X148.473 Y135.781 E27.80244
G1 X148.949 Y136.038 E27.82043
G1 X149.466 Y136.191 E27.83836
G1 X150 Y136.245 E27.85621
G1 X150.534 Y136.191 E27.87407
G1 X151.051 Y136.038 E27.892
G1 X151.527 Y135.781 E27.90999
G1 X151.94 Y135.44 E27.9278
G1 X152.281 Y135.027 E27.94562
G1 X152.538 Y134.551 E27.96361
G1 X152.691 Y134.034 E27.98154
G1 X152.745 Y133.5 E27.99939
G1 X152.691 Y132.966 E28.01725
G1 X152.538 Y132.449 E28.03518
G1 X152.281 Y131.973 E28.05317
G1 X151.94 Y131.56 E28.07098
G1 X151.527 Y131.219 E28.0888
G1 X151.103 Y130.99 E28.10483
G1 X156.01 Y130.99 E28.26803
G1 X156.01 Y169.01 E29.53258
G1 X151.103 Y169.01 E29.69579
G1 X151.527 Y168.781 E29.71182
G1 X151.94 Y168.44 E29.72963
G1 X152.281 Y168.027 E29.74745
G1 X152.538 Y167.551 E29.76544
G1 X152.691 Y167.034 E29.78337
G1 X152.745 Y166.5 E29.80122
G1 X152.691 Y165.966 E29.81907
G1 X152.538 Y165.449 E29.83701
G1 X152.281 Y164.973 E29.855
G1 X151.94 Y164.56 E29.87281
G1 X151.527 Y164.219 E29.89063
G1 X151.051 Y163.962 E29.90862
G1 X150.534 Y163.809 E29.92655
G1 X150 Y163.755 E29.9444
G1 X149.466 Y163.809 E29.96225
G1 X148.949 Y163.962 E29.98019
G1 X148.473 Y164.219 E29.99818
G1 X148.06 Y164.56 E30.01599
G1 X147.719 Y164.973 E30.0338
G1 X147.462 Y165.449 E30.0518
G1 X147.309 Y165.966 E30.06973
G1 X147.255 Y166.5 E30.08758
G1 X147.309 Y167.034 E30.10543
G1 X147.462 Y167.551 E30.12337
G1 X147.719 Y168.027 E30.14136
G1 X148.06 Y168.44 E30.15917
G1 X148.473 Y168.781 E30.17698
G1 X148.897 Y169.01 E30.19301
G1 X143.99 Y169.01 E30.35622
G0 F6000 X144.524 Y168.849
G1 F1200 X144.149 Y168.473 E30.37388
G0 F6000 X144.149 Y167.908
G1 F1200 X145.09 Y168.849 E30.41814
G0 F6000 X145.656 Y168.849
G1 F1200 X144.149 Y167.342 E30.48903
G0 F6000 X144.149 Y166.776
G1 F1200 X146.221 Y168.849 E30.58651
G0 F6000 X146.787 Y168.849
G1 F1200 X144.149 Y166.211 E30.7106
G0 F6000 X144.149 Y165.645
G1 F1200 X147.353 Y168.849 E30.8613
G0 F6000 X147.918 Y168.849
