;FLAVOR:Marlin
;TIME:470
;Filament used: 0.275833m
;Layer height: 0.24
;MINX:124.664
;MINY:129.293
;MINZ:0.2
;MAXX:175.339
;MAXY:170.705
;MAXZ:2.84
;Generated with Cura_SteamEngine 4.8.0
M140 S70
M105
M190 S70
M104 S225
M105
M109 S225
M82 ;absolute extrusion mode
M201 X500.00 Y500.00 Z100.00 E5000.00 ;Setup machine max acceleration
M203 X500.00 Y500.00 Z10.00 E50.00 ;Setup machine max feedrate
M204 P500.00 R1000.00 T500.00 ;Setup Print/Retract/Travel acceleration
M205 X8.00 Y8.00 Z0.40 E5.00 ;Setup Jerk
M220 S100 ;Reset Feedrate
M221 S100 ;Reset Flowrate

G28 ;Home

G92 E0 ;Reset Extruder
G1 Z2.0 F3000 ;Move Z Axis up
G1 X10.1 Y20 Z0.28 F5000.0 ;Move to start position
G1 X10.1 Y200.0 Z0.28 F1500.0 E15 ;Draw the first line
G1 X10.4 Y200.0 Z0.28 F5000.0 ;Move to side a little
G1 X10.4 Y20 Z0.28 F1500.0 E30 ;Draw the second line
G92 E0 ;Reset Extruder
G1 Z2.0 F3000 ;Move Z Axis up

G92 E0
G92 E0
G1 F2700 E-5
;LAYER_COUNT:12
;LAYER:0
M107
G0 F5400 X128.013 Y132.508 Z0.2
;TYPE:SKIRT
G1 F2700 E0
G1 F900 X128.705 Y131.874 E0.03122
G1 X129.448 Y131.302 E0.0624
G1 X130.237 Y130.796 E0.09358
G1 X131.067 Y130.358 E0.12479
G1 X131.93 Y129.993 E0.15596
G1 X132.822 Y129.702 E0.18716
G1 X133.735 Y129.489 E0.21835
G1 X134.663 Y129.354 E0.24954
G1 X135.612 Y129.298 E0.28115
G1 X135.94 Y129.293 E0.29207
G1 X136.448 Y129.297 E0.30896
G1 X136.642 Y129.303 E0.31542
G1 X137.577 Y129.372 E0.3466
G1 X138.934 Y129.618 E0.39247
G1 X140.602 Y130.03 E0.44962
G1 X143.103 Y130.601 E0.53494
G1 X145.506 Y131.075 E0.6164
G1 X148.034 Y131.502 E0.70168
G1 X150.521 Y131.85 E0.7852
G1 X153.03 Y132.128 E0.86916
G1 X153.618 Y132.179 E0.88879
G1 X154.501 Y132.267 E0.9183
G1 X155.429 Y132.4 E0.94949
G1 X156.343 Y132.611 E0.98068
G1 X157.615 Y133.049 E1.02543
G1 X158.466 Y133.442 E1.05661
G1 X159.281 Y133.907 E1.08782
G1 X160.053 Y134.44 E1.11902
G1 X160.777 Y135.036 E1.15021
G1 X161.447 Y135.692 E1.18139
G1 X162.059 Y136.402 E1.21257
G1 X162.707 Y137.314 E1.24978
G1 X162.997 Y137.77 E1.26776
G1 X164.398 Y139.906 E1.35272
G1 X165.862 Y142.002 E1.43775
G1 X167.351 Y144.013 E1.52098
G1 X168.89 Y145.972 E1.60384
G1 X170.544 Y147.96 E1.68985
G1 X171.62 Y149.194 E1.7443
G1 X172.205 Y149.926 E1.77547
G1 X172.608 Y150.516 E1.79923
G1 X172.839 Y150.891 E1.81388
G1 X173.204 Y151.514 E1.8379
G1 X173.6 Y152.21 E1.86453
G1 X173.966 Y152.872 E1.88969
G1 X174.384 Y153.711 E1.92087
G1 X174.729 Y154.583 E1.95206
G1 X174.999 Y155.481 E1.98325
G1 X175.192 Y156.399 E2.01445
G1 X175.305 Y157.33 E2.04564
G1 X175.339 Y158.267 E2.07683
G1 X175.293 Y159.204 E2.10803
G1 X175.167 Y160.134 E2.13924
G1 X174.962 Y161.049 E2.17043
G1 X174.68 Y161.943 E2.20161
G1 X174.204 Y163.06 E2.24199
G1 X174.094 Y163.283 E2.25026
G1 X173.768 Y163.896 E2.27336
G1 X173.268 Y164.689 E2.30454
G1 X172.703 Y165.438 E2.33574
G1 X172.076 Y166.135 E2.36692
G1 X171.391 Y166.776 E2.39813
G1 X170.655 Y167.357 E2.42931
G1 X170.012 Y167.787 E2.45504
G1 X169.378 Y168.18 E2.47985
G1 X169.095 Y168.35 E2.49083
G1 X168.456 Y168.72 E2.51539
G1 X167.625 Y169.155 E2.54659
G1 X166.793 Y169.505 E2.57661
G1 X166.337 Y169.672 E2.59276
G1 X166.054 Y169.769 E2.60271
G1 X165.804 Y169.851 E2.61146
G1 X165.121 Y170.067 E2.63529
G1 X164.215 Y170.311 E2.66649
G1 X163.292 Y170.478 E2.69769
G1 X162.336 Y170.566 E2.72962
G1 X161.923 Y170.586 E2.74337
G1 X161.66 Y170.596 E2.75213
G1 X157.616 Y170.695 E2.88667
G1 X156.648 Y170.705 E2.91887
G1 X156.081 Y170.696 E2.93773
G1 X155.683 Y170.675 E2.95099
G1 X155.277 Y170.646 E2.96453
G1 X154.968 Y170.62 E2.97484
G1 X151.002 Y170.224 E3.1074
G1 X150.371 Y170.152 E3.12853
G1 X150.017 Y170.106 E3.1404
G1 X148.859 Y169.935 E3.17933
G1 X144.782 Y169.257 E3.3168
G1 X144.1 Y169.133 E3.33985
G1 X142.852 Y168.829 E3.38258
G1 X142.466 Y168.711 E3.396
G1 X142.077 Y168.585 E3.4096
G1 X141.339 Y168.329 E3.43558
G1 X140.467 Y167.984 E3.46677
G1 X139.627 Y167.566 E3.49798
G1 X138.795 Y167.057 E3.53042
G1 X138.077 Y166.573 E3.55922
G1 X137.777 Y166.363 E3.5714
G1 X137.198 Y165.944 E3.59517
G1 X136.463 Y165.363 E3.62633
G1 X135.58 Y164.512 E3.66712
G1 X135.034 Y163.922 E3.69386
G1 X133.59 Y162.327 E3.76542
G1 X132.983 Y161.636 E3.79601
G1 X132.395 Y160.905 E3.82721
G1 X132.04 Y160.394 E3.8479
G1 X131.518 Y159.594 E3.87968
G1 X130.708 Y158.309 E3.9302
G1 X130.337 Y157.702 E3.95386
G1 X130.014 Y157.136 E3.97553
G1 X129.826 Y156.783 E3.98884
G1 X129.699 Y156.537 E3.99804
G1 X128.959 Y155.056 E4.05311
G1 X128.668 Y154.451 E4.07544
G1 X128.54 Y154.176 E4.08553
G1 X128.351 Y153.747 E4.10112
G1 X128.219 Y153.433 E4.11245
G1 X127.464 Y151.584 E4.17887
G1 X127.195 Y150.9 E4.20332
G1 X126.991 Y150.337 E4.22324
G1 X126.738 Y149.57 E4.2501
G1 X125.575 Y145.881 E4.37875
G1 X125.372 Y145.202 E4.40232
G1 X125.084 Y143.995 E4.44359
G1 X124.952 Y143.26 E4.46843
G1 X124.903 Y142.964 E4.47841
G1 X124.786 Y142.192 E4.50438
G1 X124.685 Y141.26 E4.53556
G1 X124.664 Y140.322 E4.56677
G1 X124.723 Y139.386 E4.59796
G1 X124.861 Y138.459 E4.62913
G1 X125.078 Y137.546 E4.66034
G1 X125.372 Y136.655 E4.69155
G1 X125.736 Y135.802 E4.7224
G1 X125.854 Y135.555 E4.7315
G1 X126.294 Y134.727 E4.76269
G1 X126.803 Y133.939 E4.79389
G1 X127.378 Y133.198 E4.82508
G1 X128.013 Y132.508 E4.85627
G0 F5400 X128.343 Y132.743
G1 F900 X129.027 Y132.127 E4.88689
G1 X129.761 Y131.571 E4.91751
G1 X130.541 Y131.082 E4.94813
G1 X131.36 Y130.662 E4.97875
G1 X132.213 Y130.315 E5.00937
G1 X133.093 Y130.043 E5.04001
G1 X133.993 Y129.849 E5.07063
G1 X134.906 Y129.733 E5.10124
G1 X135.618 Y129.698 E5.12495
G1 X135.946 Y129.693 E5.13586
G1 X136.436 Y129.697 E5.15216
G1 X136.63 Y129.703 E5.15862
G1 X137.548 Y129.771 E5.18923
G1 X138.838 Y130.006 E5.23284
G1 X140.233 Y130.35 E5.28063
G1 X140.502 Y130.418 E5.28986
G1 X143.002 Y130.989 E5.37515
G1 X145.475 Y131.476 E5.45898
G1 X147.943 Y131.893 E5.54223
G1 X150.493 Y132.25 E5.62787
G1 X152.989 Y132.527 E5.7114
G1 X153.578 Y132.577 E5.73106
G1 X154.461 Y132.665 E5.76058
G1 X155.372 Y132.796 E5.79119
G1 X156.269 Y133.006 E5.82183
G1 X157.463 Y133.418 E5.86384
G1 X158.298 Y133.806 E5.89446
G1 X159.097 Y134.264 E5.92509
G1 X159.853 Y134.79 E5.95573
G1 X160.56 Y135.379 E5.98633
G1 X161.213 Y136.027 E6.01693
G1 X161.808 Y136.73 E6.04756
G1 X162.37 Y137.529 E6.08005
G1 X162.648 Y137.966 E6.09728
G1 X164.08 Y140.148 E6.18409
G1 X165.529 Y142.223 E6.26826
G1 X167.031 Y144.252 E6.35223
G1 X168.601 Y146.251 E6.43677
G1 X170.238 Y148.218 E6.52188
G1 X171.318 Y149.457 E6.57655
G1 X171.892 Y150.176 E6.60715
G1 X172.271 Y150.732 E6.62953
G1 X172.494 Y151.094 E6.64367
G1 X172.856 Y151.712 E6.66749
G1 X173.25 Y152.403 E6.69395
G1 X173.616 Y153.065 E6.71911
G1 X174.026 Y153.89 E6.74975
G1 X174.363 Y154.746 E6.78035
G1 X174.624 Y155.629 E6.81097
G1 X174.808 Y156.531 E6.84159
G1 X174.913 Y157.446 E6.87222
G1 X174.938 Y158.366 E6.90283
G1 X174.883 Y159.285 E6.93346
G1 X174.748 Y160.196 E6.96409
G1 X174.535 Y161.092 E6.99472
G1 X174.245 Y161.965 E7.02531
G1 X173.845 Y162.883 E7.05862
G1 X173.735 Y163.106 E7.06689
G1 X173.42 Y163.697 E7.08916
G1 X172.929 Y164.476 E7.11979
G1 X172.373 Y165.209 E7.15039
G1 X171.754 Y165.891 E7.18102
G1 X171.079 Y166.517 E7.21164
G1 X170.352 Y167.082 E7.24227
G1 X169.802 Y167.447 E7.26422
G1 X169.168 Y167.84 E7.28903
G1 X168.895 Y168.004 E7.29962
G1 X168.256 Y168.374 E7.32418
G1 X167.44 Y168.8 E7.3548
G1 X166.653 Y169.131 E7.3832
G1 X166.479 Y169.196 E7.38937
G1 X166.207 Y169.293 E7.39898
G1 X165.683 Y169.47 E7.41737
G1 X165 Y169.686 E7.4412
G1 X164.111 Y169.925 E7.47182
G1 X163.205 Y170.086 E7.50242
G1 X162.317 Y170.167 E7.53208
G1 X161.904 Y170.187 E7.54583
G1 X161.65 Y170.196 E7.55429
G1 X157.606 Y170.295 E7.68883
G1 X156.644 Y170.305 E7.72083
G1 X156.098 Y170.297 E7.73899
G1 X155.712 Y170.276 E7.75185
G1 X155.306 Y170.247 E7.76539
G1 X155.008 Y170.222 E7.77533
G1 X151.042 Y169.826 E7.9079
G1 X150.417 Y169.755 E7.92882
G1 X150.076 Y169.71 E7.94026
G1 X148.724 Y169.509 E7.98572
G1 X144.854 Y168.863 E8.11622
G1 X144.172 Y168.739 E8.13928
G1 X142.969 Y168.447 E8.18045
G1 X142.583 Y168.329 E8.19387
G1 X142.208 Y168.207 E8.20699
G1 X141.47 Y167.951 E8.23297
G1 X140.614 Y167.611 E8.26361
G1 X139.791 Y167.199 E8.29422
G1 X139.019 Y166.725 E8.32435
G1 X138.301 Y166.241 E8.35315
G1 X138.012 Y166.039 E8.36487
G1 X137.433 Y165.62 E8.38865
G1 X136.711 Y165.049 E8.41926
G1 X135.874 Y164.24 E8.45798
G1 X135.331 Y163.653 E8.48457
G1 X133.778 Y161.936 E8.56158
G1 X133.283 Y161.372 E8.58654
G1 X132.707 Y160.654 E8.61715
G1 X132.375 Y160.176 E8.63651
G1 X131.857 Y159.38 E8.6681
G1 X131.05 Y158.1 E8.71842
G1 X130.679 Y157.493 E8.74208
G1 X130.367 Y156.948 E8.76297
G1 X130.179 Y156.595 E8.77627
G1 X130.057 Y156.358 E8.78514
G1 X129.32 Y154.883 E8.83998
G1 X129.029 Y154.278 E8.86231
G1 X128.906 Y154.013 E8.87203
G1 X128.719 Y153.591 E8.88738
G1 X128.589 Y153.282 E8.89853
G1 X127.836 Y151.437 E8.96481
G1 X127.567 Y150.753 E8.98925
G1 X127.371 Y150.211 E9.00842
G1 X127.12 Y149.45 E9.03508
G1 X125.958 Y145.766 E9.16356
G1 X125.755 Y145.087 E9.18713
G1 X125.478 Y143.925 E9.22686
G1 X125.346 Y143.19 E9.2517
G1 X125.299 Y142.904 E9.26134
G1 X125.182 Y142.132 E9.28731
G1 X125.083 Y141.217 E9.31792
G1 X125.065 Y140.296 E9.34856
G1 X125.126 Y139.378 E9.37916
G1 X125.267 Y138.468 E9.40978
G1 X125.487 Y137.574 E9.44041
G1 X125.783 Y136.702 E9.47103
G1 X126.097 Y135.975 E9.49737
G1 X126.215 Y135.728 E9.50648
G1 X126.648 Y134.915 E9.53711
G1 X127.149 Y134.143 E9.56772
G1 X127.716 Y133.417 E9.59836
G1 X128.343 Y132.743 E9.62898
G0 F5400 X128.673 Y132.98
G1 F900 X129.348 Y132.38 E9.65902
G1 X130.074 Y131.843 E9.68905
G1 X130.844 Y131.371 E9.71909
G1 X131.653 Y130.969 E9.74914
G1 X132.494 Y130.641 E9.77916
G1 X133.361 Y130.388 E9.8092
G1 X134.247 Y130.213 E9.83924
G1 X135.145 Y130.117 E9.86928
G1 X135.625 Y130.098 E9.88525
G1 X135.953 Y130.093 E9.89616
G1 X136.423 Y130.097 E9.9118
G1 X136.617 Y130.103 E9.91825
G1 X137.518 Y130.171 E9.94831
G1 X138.743 Y130.394 E9.98972
G1 X140.135 Y130.738 E10.03741
G1 X140.401 Y130.805 E10.04653
G1 X142.94 Y131.385 E10.13316
G1 X145.361 Y131.862 E10.21523
G1 X147.933 Y132.296 E10.30198
G1 X150.391 Y132.64 E10.38453
G1 X152.951 Y132.924 E10.4702
G1 X153.539 Y132.975 E10.48983
G1 X154.422 Y133.063 E10.51934
G1 X155.315 Y133.193 E10.54936
G1 X156.194 Y133.4 E10.57939
G1 X157.311 Y133.788 E10.61872
G1 X158.13 Y134.169 E10.64877
G1 X158.912 Y134.62 E10.67879
G1 X159.651 Y135.139 E10.70883
G1 X160.341 Y135.721 E10.73885
G1 X160.978 Y136.362 E10.76891
G1 X161.555 Y137.057 E10.79895
G1 X162.032 Y137.744 E10.82677
G1 X162.319 Y138.196 E10.84458
G1 X163.733 Y140.351 E10.9303
G1 X165.212 Y142.468 E11.0162
G1 X166.71 Y144.492 E11.09995
G1 X168.277 Y146.487 E11.18432
G1 X169.915 Y148.455 E11.26948
G1 X171.017 Y149.719 E11.32526
G1 X171.579 Y150.426 E11.3553
G1 X171.935 Y150.948 E11.37631
G1 X172.149 Y151.296 E11.3899
G1 X172.509 Y151.91 E11.41357
G1 X172.9 Y152.597 E11.43987
G1 X173.266 Y153.259 E11.46503
G1 X173.667 Y154.068 E11.49506
G1 X173.996 Y154.909 E11.52509
G1 X174.248 Y155.776 E11.55512
G1 X174.423 Y156.662 E11.58516
G1 X174.519 Y157.56 E11.6152
G1 X174.535 Y158.463 E11.64524
G1 X174.472 Y159.364 E11.67528
G1 X174.329 Y160.255 E11.70529
G1 X174.107 Y161.131 E11.73535
G1 X173.809 Y161.983 E11.76537
G1 X173.487 Y162.706 E11.79169
G1 X173.377 Y162.929 E11.79996
G1 X173.073 Y163.499 E11.82145
G1 X172.591 Y164.262 E11.85147
G1 X172.043 Y164.98 E11.88151
G1 X171.433 Y165.647 E11.91157
G1 X170.768 Y166.257 E11.94159
G1 X170.05 Y166.805 E11.97163
G1 X169.591 Y167.107 E11.9899
G1 X168.957 Y167.5 E12.01471
G1 X168.694 Y167.658 E12.02492
G1 X168.055 Y168.028 E12.04947
G1 X167.254 Y168.446 E12.07953
G1 X166.513 Y168.756 E12.10624
G1 X166.339 Y168.821 E12.11242
G1 X166.077 Y168.915 E12.12168
G1 X165.794 Y169.012 E12.13163
G1 X165.563 Y169.088 E12.13972
G1 X164.88 Y169.304 E12.16354
G1 X164.007 Y169.538 E12.1936
G1 X163.118 Y169.694 E12.22362
G1 X162.297 Y169.767 E12.25104
G1 X161.884 Y169.787 E12.26479
G1 X161.641 Y169.796 E12.27288
G1 X157.448 Y169.898 E12.41238
G1 X156.64 Y169.906 E12.43925
G1 X156.114 Y169.897 E12.45675
G1 X155.74 Y169.877 E12.46921
G1 X155.334 Y169.848 E12.48275
G1 X155.048 Y169.824 E12.49229
G1 X150.933 Y169.412 E12.62984
G1 X150.462 Y169.358 E12.64561
G1 X150.134 Y169.315 E12.65661
G1 X148.976 Y169.144 E12.69554
G1 X145.074 Y168.495 E12.82711
G1 X144.243 Y168.345 E12.85519
G1 X143.086 Y168.064 E12.8948
G1 X142.7 Y167.946 E12.90822
G1 X142.339 Y167.829 E12.92084
G1 X141.601 Y167.573 E12.94682
G1 X140.762 Y167.239 E12.97686
G1 X139.955 Y166.833 E13.0069
G1 X139.243 Y166.394 E13.03473
G1 X138.525 Y165.91 E13.06352
G1 X138.246 Y165.715 E13.07485
G1 X137.667 Y165.296 E13.09862
G1 X136.96 Y164.735 E13.12864
G1 X136.167 Y163.968 E13.16533
G1 X135.627 Y163.385 E13.19176
G1 X134.183 Y161.79 E13.26332
G1 X133.584 Y161.108 E13.29351
G1 X133.019 Y160.404 E13.32354
G1 X132.71 Y159.957 E13.34161
G1 X132.195 Y159.166 E13.373
G1 X131.391 Y157.891 E13.42314
G1 X131.02 Y157.284 E13.4468
G1 X130.72 Y156.76 E13.46688
G1 X130.532 Y156.407 E13.48018
G1 X130.415 Y156.179 E13.48871
G1 X129.68 Y154.709 E13.54337
G1 X129.389 Y154.104 E13.5657
G1 X129.271 Y153.849 E13.57504
G1 X129.088 Y153.435 E13.5901
G1 X128.96 Y153.13 E13.6011
G1 X128.209 Y151.291 E13.66717
G1 X127.94 Y150.607 E13.69162
G1 X127.751 Y150.085 E13.71008
G1 X127.501 Y149.329 E13.73656
G1 X126.341 Y145.652 E13.8648
G1 X126.138 Y144.973 E13.88837
G1 X125.872 Y143.854 E13.92663
G1 X125.74 Y143.119 E13.95147
G1 X125.694 Y142.844 E13.96074
G1 X125.577 Y142.072 E13.98671
G1 X125.481 Y141.174 E14.01675
G1 X125.466 Y140.271 E14.04679
G1 X125.53 Y139.371 E14.0768
G1 X125.673 Y138.479 E14.10684
G1 X125.895 Y137.604 E14.13687
G1 X126.193 Y136.751 E14.16692
G1 X126.458 Y136.147 E14.18886
G1 X126.576 Y135.9 E14.19796
G1 X127.001 Y135.103 E14.228
G1 X127.495 Y134.347 E14.25804
G1 X128.054 Y133.638 E14.28807
G1 X128.673 Y132.98 E14.31812
G1 F2700 E9.31812
;MESH:RocketLogoTopWing_STL.stl
G0 F5400 X135.081 Y140.189
G0 X136.095 Y140.696
G0 X136.358 Y141.138
;TYPE:WALL-INNER
G1 F2700 E14.31812
G1 F900 X136.727 Y141.454 E14.33428
G1 X136.835 Y141.605 E14.34045
G1 X137.99 Y143.223 E14.40657
G1 X139.713 Y144.813 E14.48455
G1 X142.075 Y146.518 E14.58144
G1 X144.152 Y147.488 E14.65768
G1 X146.659 Y147.488 E14.74107
G1 X148.055 Y147.069 E14.78954
G1 X150.048 Y146.14 E14.86268
G1 X152.984 Y144.074 E14.98208
G1 X153.163 Y143.948 E14.98936
G1 X153.271 Y144.138 E14.99394
G1 X161.023 Y157.674 E15.51275
G1 X161.88 Y157.957 E15.54277
G1 X162.941 Y157.339 E15.58361
G1 X163.114 Y157.238 E15.59027
G1 X163.213 Y157.412 E15.59457
G1 X163.613 Y158.113 E15.62141
G1 X162.702 Y158.659 E15.65674
G1 X161.708 Y158.991 E15.69159
G1 X156.606 Y159.116 E15.86134
G1 X156.462 Y159.111 E15.86613
G1 X151.48 Y158.613 E16.03266
G1 X146.206 Y157.734 E16.21049
G1 X145.194 Y157.397 E16.24597
G1 X144.047 Y156.594 E16.29254
G1 X141.718 Y154.019 E16.40801
G1 X140.237 Y151.675 E16.50023
G1 X139.114 Y149.429 E16.58375
G1 X137.991 Y146.684 E16.6824
G1 X136.488 Y141.925 E16.84839
G1 X136.449 Y141.688 E16.85638
G1 X136.419 Y141.505 E16.86139
G1 X136.358 Y141.138 E16.86559
G0 F5400 X135.9 Y140.484
;TYPE:WALL-OUTER
G1 F900 X136.21 Y140.484 E16.8759
G1 X137.024 Y141.182 E16.91157
G1 X138.292 Y142.957 E16.98412
G1 X139.967 Y144.503 E17.05993
G1 X142.278 Y146.172 E17.15475
G1 X144.241 Y147.088 E17.22679
G1 X146.6 Y147.088 E17.30525
G1 X147.912 Y146.694 E17.35082
G1 X149.847 Y145.792 E17.42182
G1 X153.241 Y143.405 E17.55983
G1 X153.313 Y143.405 E17.56223
G1 X161.294 Y157.342 E18.0964
G1 X161.834 Y157.521 E18.11532
G1 X163.261 Y156.689 E18.17026
G1 X164.123 Y158.2 E18.22812
G1 X164.071 Y158.305 E18.23202
G1 X162.872 Y159.024 E18.27852
G1 X161.776 Y159.39 E18.31695
G1 X156.604 Y159.516 E18.48902
G1 X156.439 Y159.511 E18.49451
G1 X151.42 Y159.009 E18.66228
G1 X146.114 Y158.125 E18.84119
G1 X145.011 Y157.757 E18.87986
G1 X143.781 Y156.896 E18.9298
G1 X141.398 Y154.262 E19.04794
G1 X139.887 Y151.87 E19.14204
G1 X138.753 Y149.602 E19.22638
G1 X137.616 Y146.822 E19.32627
G1 X136.097 Y142.012 E19.49404
G1 X135.858 Y140.568 E19.54272
G1 X135.9 Y140.484 E19.54585
G0 F5400 X136.156 Y140.748
G0 X137.373 Y142.549
