;FLAVOR:Marlin
;TIME:7510
;Filament used: 3.66955m
;Layer height: 0.24
;MINX:97.536
;MINY:88.295
;MINZ:0.2
;MAXX:202.474
;MAXY:211.722
;MAXZ:5
;Generated with Cura_SteamEngine 4.8.0
M140 S70
M105
M190 S70
M104 S225
M105
M109 S225
M82 ;absolute extrusion mode
M201 X500.00 Y500.00 Z100.00 E5000.00 ;Setup machine max acceleration
M203 X500.00 Y500.00 Z10.00 E50.00 ;Setup machine max feedrate
M204 P500.00 R1000.00 T500.00 ;Setup Print/Retract/Travel acceleration
M205 X8.00 Y8.00 Z0.40 E5.00 ;Setup Jerk
M220 S100 ;Reset Feedrate
M221 S100 ;Reset Flowrate

G28 ;Home

G92 E0 ;Reset Extruder
G1 Z2.0 F3000 ;Move Z Axis up
G1 X10.1 Y20 Z0.28 F5000.0 ;Move to start position
G1 X10.1 Y200.0 Z0.28 F1500.0 E15 ;Draw the first line
G1 X10.4 Y200.0 Z0.28 F5000.0 ;Move to side a little
G1 X10.4 Y20 Z0.28 F1500.0 E30 ;Draw the second line
G92 E0 ;Reset Extruder
G1 Z2.0 F3000 ;Move Z Axis up

G92 E0
G92 E0
G1 F2700 E-5
;LAYER_COUNT:21
;LAYER:0
M107
G0 F5400 X100.183 Y92.156 Z0.2
;TYPE:SKIRT
G1 F2700 E0
G1 F900 X100.821 Y91.469 E0.03118
G1 X101.516 Y90.839 E0.06238
G1 X102.262 Y90.27 E0.09359
G1 X103.053 Y89.767 E0.12477
G1 X103.885 Y89.333 E0.15598
G1 X104.75 Y88.972 E0.18715
G1 X105.643 Y88.686 E0.21834
G1 X106.557 Y88.476 E0.24953
G1 X107.486 Y88.346 E0.28073
G1 X108.423 Y88.295 E0.31194
G1 X109.36 Y88.324 E0.34312
G1 X109.847 Y88.371 E0.35939
G1 X110.159 Y88.408 E0.36984
G1 X111.085 Y88.558 E0.40104
G1 X111.73 Y88.711 E0.42309
G1 X112.392 Y88.891 E0.44591
G1 X113.861 Y89.311 E0.49673
G1 X116.339 Y89.944 E0.58179
G1 X118.776 Y90.494 E0.66489
G1 X119.743 Y90.683 E0.69766
G1 X119.949 Y90.733 E0.70471
G1 X121.156 Y90.973 E0.74564
G1 X122.067 Y91.195 E0.77683
G1 X122.722 Y91.408 E0.79973
G1 X122.97 Y91.497 E0.8085
G1 X123.645 Y91.764 E0.83264
G1 X124.736 Y92.239 E0.87222
G1 X125.145 Y92.424 E0.88715
G1 X125.671 Y92.653 E0.90623
G1 X126.488 Y93.019 E0.936
G1 X127.446 Y93.46 E0.97108
G1 X127.637 Y93.55 E0.9781
G1 X129.03 Y94.224 E1.02957
G1 X130.889 Y95.114 E1.09812
G1 X133.191 Y96.14 E1.18195
G1 X135.529 Y97.104 E1.26606
G1 X137.898 Y98.005 E1.35036
G1 X140.23 Y98.813 E1.43245
G1 X142.635 Y99.574 E1.51635
G1 X145.082 Y100.271 E1.60097
G1 X147.537 Y100.898 E1.68525
G1 X149.962 Y101.442 E1.76791
G1 X152.44 Y101.926 E1.85188
G1 X154.934 Y102.341 E1.93598
G1 X157.005 Y102.63 E2.00552
G1 X157.55 Y102.701 E2.0238
G1 X158.474 Y102.862 E2.055
G1 X159.381 Y103.1 E2.08619
G1 X160.265 Y103.415 E2.1174
G1 X160.846 Y103.67 E2.1385
G1 X161.709 Y104.079 E2.17027
G1 X161.905 Y104.174 E2.17751
G1 X163.639 Y105.04 E2.24198
G1 X164.232 Y105.346 E2.26417
G1 X164.532 Y105.506 E2.27548
G1 X164.843 Y105.682 E2.28737
G1 X165.446 Y106.038 E2.31066
G1 X167.369 Y107.204 E2.38546
G1 X167.974 Y107.582 E2.40918
G1 X168.745 Y108.111 E2.44028
G1 X169.294 Y108.514 E2.46293
G1 X171.361 Y110.072 E2.54902
G1 X171.913 Y110.5 E2.57226
G1 X172.846 Y111.311 E2.61337
G1 X173.497 Y111.947 E2.64364
G1 X176.399 Y114.862 E2.78045
G1 X176.887 Y115.366 E2.80378
G1 X177.667 Y116.265 E2.84337
G1 X177.744 Y116.364 E2.84754
G1 X177.945 Y116.631 E2.85866
G1 X178.289 Y117.104 E2.87811
G1 X179.167 Y118.34 E2.92854
G1 X179.575 Y118.934 E2.9525
G1 X180.073 Y119.729 E2.9837
G1 X180.501 Y120.564 E3.01491
G1 X180.944 Y121.683 E3.05494
G1 X181.074 Y122.086 E3.06902
G1 X181.183 Y122.445 E3.0815
G1 X181.349 Y123.027 E3.10163
G1 X181.447 Y123.402 E3.11452
G1 X181.573 Y123.919 E3.13222
G1 X181.756 Y124.839 E3.16342
G1 X181.825 Y125.372 E3.1813
G1 X182.084 Y127.833 E3.2636
G1 X182.425 Y130.377 E3.34897
G1 X182.822 Y132.819 E3.43126
G1 X183.303 Y135.324 E3.5161
G1 X183.837 Y137.742 E3.59846
G1 X184.458 Y140.213 E3.6832
G1 X185.138 Y142.627 E3.76662
G1 X185.895 Y145.054 E3.85117
G1 X186.701 Y147.394 E3.93349
G1 X187.59 Y149.763 E4.01765
G1 X188.54 Y152.093 E4.10134
G1 X189.546 Y154.367 E4.18404
G1 X191.074 Y157.544 E4.3013
G1 X191.292 Y157.976 E4.31739
G1 X192.135 Y159.606 E4.37843
G1 X193.829 Y162.81 E4.49897
G1 X194.136 Y163.412 E4.52145
G1 X194.396 Y163.958 E4.54156
G1 X194.668 Y164.575 E4.56399
G1 X195.169 Y165.76 E4.60678
G1 X195.444 Y166.436 E4.63105
G1 X195.998 Y167.776 E4.67928
G1 X196.49 Y168.937 E4.72122
G1 X196.763 Y169.57 E4.74415
G1 X196.926 Y169.969 E4.75848
G1 X197.059 Y170.314 E4.77078
G1 X197.175 Y170.63 E4.78198
G1 X197.645 Y171.969 E4.82917
G1 X198.05 Y173.134 E4.8702
G1 X198.455 Y174.344 E4.91264
G1 X200.126 Y179.571 E5.09515
G1 X200.302 Y180.152 E5.11535
G1 X200.543 Y181.097 E5.14778
G1 X200.772 Y182.196 E5.18512
G1 X200.817 Y182.427 E5.19295
G1 X201.274 Y184.868 E5.27555
G1 X201.65 Y186.819 E5.34163
G1 X201.916 Y188.306 E5.39187
G1 X202.04 Y189.036 E5.4165
G1 X202.13 Y189.685 E5.43829
G1 X202.251 Y190.806 E5.4758
G1 X202.362 Y192.014 E5.51614
G1 X202.422 Y192.775 E5.54153
G1 X202.454 Y193.438 E5.56361
G1 X202.474 Y194.648 E5.60386
G1 X202.472 Y198.918 E5.74588
G1 X202.462 Y199.609 E5.76887
G1 X202.438 Y200.191 E5.78824
G1 X202.422 Y200.428 E5.79614
G1 X202.397 Y200.73 E5.80622
G1 X202.347 Y201.232 E5.823
G1 X202.259 Y201.988 E5.84831
G1 X202.111 Y202.914 E5.8795
G1 X201.885 Y203.824 E5.91069
G1 X201.582 Y204.712 E5.9419
G1 X201.204 Y205.57 E5.97308
G1 X200.755 Y206.393 E6.00426
G1 X200.237 Y207.175 E6.03546
G1 X199.654 Y207.91 E6.06666
G1 X199.011 Y208.593 E6.09786
G1 X198.312 Y209.218 E6.12905
G1 X197.563 Y209.782 E6.16023
G1 X196.768 Y210.28 E6.19144
G1 X195.933 Y210.708 E6.22264
G1 X195.065 Y211.063 E6.25383
G1 X194.17 Y211.344 E6.28503
G1 X193.255 Y211.547 E6.31621
G1 X191.943 Y211.699 E6.36014
G1 X191.402 Y211.718 E6.37814
G1 X191.043 Y211.722 E6.39008
G1 X190.751 Y211.722 E6.39979
G1 X190.231 Y211.714 E6.41709
G1 X189.294 Y211.659 E6.44831
G1 X188.692 Y211.582 E6.4685
G1 X188.234 Y211.51 E6.48392
G1 X184.657 Y210.907 E6.60457
G1 X183.908 Y210.771 E6.62989
G1 X182.997 Y210.565 E6.66095
G1 X182.701 Y210.484 E6.67116
G1 X181.479 Y210.133 E6.71345
G1 X181.151 Y210.034 E6.72484
G1 X180.915 Y209.96 E6.73307
G1 X180.134 Y209.705 E6.76039
G1 X178.857 Y209.298 E6.80497
G1 X177.542 Y208.889 E6.85077
G1 X176.876 Y208.672 E6.87407
G1 X176.24 Y208.443 E6.89655
G1 X175.285 Y208.065 E6.93072
G1 X175.098 Y207.989 E6.93743
G1 X172.032 Y206.71 E7.04792
G1 X171.367 Y206.421 E7.07204
G1 X170.751 Y206.13 E7.0947
G1 X169.606 Y205.543 E7.13749
G1 X167.313 Y204.361 E7.2233
G1 X167.142 Y204.264 E7.22983
G1 X166.083 Y203.722 E7.2694
G1 X165.546 Y203.428 E7.28976
G1 X164.684 Y202.925 E7.32296
G1 X163.901 Y202.478 E7.35295
G1 X163.366 Y202.162 E7.37361
G1 X163.166 Y202.04 E7.3814
G1 X161.563 Y201.042 E7.44421
G1 X160.929 Y200.656 E7.4689
G1 X160.4 Y200.313 E7.48987
G1 X159.361 Y199.596 E7.53185
G1 X158.583 Y199.047 E7.56352
G1 X157.42 Y198.273 E7.60999
G1 X156.921 Y197.93 E7.63013
G1 X156.67 Y197.753 E7.64034
G1 X156.204 Y197.412 E7.65955
G1 X155.05 Y196.55 E7.70746
G1 X152.971 Y195.041 E7.7929
G1 X152.691 Y194.831 E7.80454
G1 X152.315 Y194.529 E7.82058
G1 X151.701 Y194.011 E7.8473
G1 X151.486 Y193.822 E7.85682
G1 X149.388 Y192.074 E7.94765
G1 X147.432 Y190.538 E8.03036
G1 X145.383 Y189.019 E8.1152
G1 X143.324 Y187.582 E8.19871
G1 X141.249 Y186.219 E8.28128
G1 X139.078 Y184.881 E8.3661
G1 X136.915 Y183.63 E8.44921
G1 X134.679 Y182.419 E8.53379
G1 X132.445 Y181.291 E8.61702
G1 X130.193 Y180.231 E8.69981
G1 X127.85 Y179.209 E8.78483
G1 X125.544 Y178.28 E8.86752
G1 X123.142 Y177.39 E8.95271
G1 X120.756 Y176.583 E9.03649
G1 X120.55 Y176.518 E9.04367
G1 X119.779 Y176.267 E9.07064
G1 X119.555 Y176.191 E9.07851
G1 X118.768 Y175.916 E9.10624
G1 X117.897 Y175.569 E9.13742
G1 X117.07 Y175.156 E9.16817
G1 X117.014 Y175.125 E9.1703
G1 X116.223 Y174.643 E9.2011
G1 X115.697 Y174.291 E9.22216
G1 X115.349 Y174.05 E9.23623
G1 X114.75 Y173.623 E9.2607
G1 X114.01 Y173.047 E9.29189
G1 X113.101 Y172.178 E9.33372
G1 X112.479 Y171.512 E9.36403
G1 X112.335 Y171.355 E9.37111
G1 X110.889 Y169.744 E9.44311
G1 X110.42 Y169.207 E9.46683
G1 X109.834 Y168.475 E9.49801
G1 X109.495 Y167.986 E9.5178
G1 X109.097 Y167.374 E9.54208
G1 X108.174 Y165.918 E9.59942
G1 X107.8 Y165.31 E9.62316
G1 X107.488 Y164.77 E9.64391
G1 X107.365 Y164.542 E9.65252
G1 X107.209 Y164.241 E9.6638
G1 X106.428 Y162.678 E9.72191
G1 X106.108 Y162.012 E9.74649
G1 X105.984 Y161.745 E9.75628
G1 X105.801 Y161.329 E9.7714
G1 X105.66 Y160.993 E9.78352
G1 X104.921 Y159.182 E9.84857
G1 X104.655 Y158.506 E9.87273
G1 X104.45 Y157.941 E9.89272
G1 X104.201 Y157.185 E9.9192
G1 X103.02 Y153.431 E10.05009
G1 X102.83 Y152.792 E10.07226
G1 X102.543 Y151.58 E10.11369
G1 X102.399 Y150.769 E10.14108
G1 X102.351 Y150.472 E10.15109
G1 X102.245 Y149.763 E10.17493
G1 X102.146 Y148.831 E10.20611
G1 X102.137 Y147.602 E10.24698
G1 X102.18 Y146.74 E10.27569
G1 X102.261 Y145.463 E10.31825
G1 X102.347 Y142.994 E10.40042
G1 X102.364 Y140.427 E10.4858
G1 X102.31 Y137.921 E10.56917
G1 X102.185 Y135.419 E10.65249
G1 X101.988 Y132.908 E10.73626
G1 X101.721 Y130.413 E10.81972
G1 X101.382 Y127.915 E10.90356
G1 X100.973 Y125.431 E10.9873
G1 X100.498 Y122.983 E11.07023
G1 X99.906 Y120.334 E11.16051
G1 X99.668 Y119.342 E11.19444
G1 X99.026 Y116.818 E11.28107
G1 X98.665 Y115.528 E11.32562
G1 X98.587 Y115.229 E11.3359
G1 X98.344 Y114.024 E11.37678
G1 X98.144 Y112.639 E11.42333
G1 X98.1 Y112.301 E11.43466
G1 X98.072 Y112.053 E11.44296
G1 X98.006 Y111.083 E11.4753
G1 X97.991 Y110.459 E11.49606
G1 X97.988 Y110.223 E11.50391
G1 X97.981 Y107.582 E11.59175
G1 X97.904 Y105.086 E11.67481
G1 X97.758 Y102.614 E11.75717
G1 X97.689 Y101.885 E11.78153
G1 X97.671 Y101.533 E11.79325
G1 X97.573 Y100.339 E11.83309
G1 X97.536 Y99.402 E11.86428
G1 X97.601 Y98.242 E11.90293
G1 X97.617 Y98.096 E11.90781
G1 X97.759 Y97.169 E11.939
G1 X97.98 Y96.257 E11.97021
G1 X98.277 Y95.367 E12.00142
G1 X98.649 Y94.506 E12.03262
G1 X99.092 Y93.68 E12.06379
G1 X99.605 Y92.895 E12.09498
G1 X100.183 Y92.156 E12.12618
G0 F5400 X100.564 Y92.326
G1 F900 X101.199 Y91.659 E12.15681
G1 X101.889 Y91.05 E12.18742
G1 X102.63 Y90.503 E12.21806
G1 X103.415 Y90.022 E12.24868
G1 X104.239 Y89.611 E12.27931
G1 X105.095 Y89.273 E12.30992
G1 X105.978 Y89.011 E12.34055
G1 X106.88 Y88.827 E12.37117
G1 X107.794 Y88.721 E12.40177
G1 X108.715 Y88.695 E12.43242
G1 X109.8 Y88.768 E12.46858
G1 X110.112 Y88.805 E12.47903
G1 X111.021 Y88.953 E12.50967
G1 X111.626 Y89.097 E12.53035
G1 X112.282 Y89.275 E12.55296
G1 X113.79 Y89.706 E12.60512
G1 X116.224 Y90.328 E12.68868
G1 X118.71 Y90.889 E12.77344
G1 X119.667 Y91.076 E12.80588
G1 X119.853 Y91.121 E12.81224
G1 X121.078 Y91.365 E12.85378
G1 X121.972 Y91.584 E12.8844
G1 X122.586 Y91.784 E12.90588
G1 X122.834 Y91.873 E12.91464
G1 X123.485 Y92.131 E12.93793
G1 X124.734 Y92.676 E12.98325
G1 X124.971 Y92.784 E12.99192
G1 X125.508 Y93.019 E13.01141
G1 X126.32 Y93.382 E13.041
G1 X127.463 Y93.91 E13.08287
G1 X128.856 Y94.585 E13.13436
G1 X130.703 Y95.469 E13.20246
G1 X133.054 Y96.516 E13.28806
G1 X135.37 Y97.472 E13.3714
G1 X137.761 Y98.381 E13.45647
G1 X140.127 Y99.2 E13.53975
G1 X142.51 Y99.955 E13.62289
G1 X144.978 Y100.658 E13.70824
G1 X147.422 Y101.282 E13.79214
G1 X149.903 Y101.839 E13.87671
G1 X152.369 Y102.32 E13.96027
G1 X154.847 Y102.732 E14.04382
G1 X156.998 Y103.033 E14.11606
G1 X157.499 Y103.098 E14.13287
G1 X158.406 Y103.256 E14.16349
G1 X159.296 Y103.492 E14.19411
G1 X160.162 Y103.805 E14.22474
G1 X160.675 Y104.031 E14.24338
G1 X161.538 Y104.44 E14.27515
G1 X161.727 Y104.532 E14.28214
G1 X163.456 Y105.395 E14.34641
G1 X164.049 Y105.701 E14.36861
G1 X164.341 Y105.857 E14.37962
G1 X164.64 Y106.027 E14.39106
G1 X165.239 Y106.38 E14.41418
G1 X167.157 Y107.543 E14.48879
G1 X167.762 Y107.921 E14.51251
G1 X168.505 Y108.431 E14.54249
G1 X168.575 Y108.484 E14.54541
G1 X169.054 Y108.834 E14.56514
G1 X171.116 Y110.388 E14.65102
G1 X171.668 Y110.816 E14.67425
G1 X172.567 Y111.598 E14.71388
G1 X173.213 Y112.229 E14.74391
G1 X176.111 Y115.141 E14.88056
G1 X176.599 Y115.645 E14.90389
G1 X177.351 Y116.51 E14.94201
G1 X177.428 Y116.609 E14.94618
G1 X177.622 Y116.867 E14.95692
G1 X177.963 Y117.335 E14.97618
G1 X178.737 Y118.423 E15.02059
G1 X179.245 Y119.161 E15.05039
G1 X179.733 Y119.941 E15.08099
G1 X180.151 Y120.762 E15.11163
G1 X180.564 Y121.81 E15.1491
G1 X180.691 Y122.202 E15.1628
G1 X180.861 Y122.769 E15.18249
G1 X180.964 Y123.135 E15.19514
G1 X181.059 Y123.497 E15.20759
G1 X181.185 Y124.014 E15.22528
G1 X181.364 Y124.917 E15.2559
G1 X181.428 Y125.414 E15.27257
G1 X181.693 Y127.926 E15.35658
G1 X182.022 Y130.388 E15.4392
G1 X182.434 Y132.92 E15.52452
G1 X182.906 Y135.38 E15.60783
G1 X183.455 Y137.862 E15.69238
G1 X184.067 Y140.299 E15.77595
G1 X184.754 Y142.74 E15.86029
G1 X185.511 Y145.166 E15.94482
G1 X186.335 Y147.56 E16.02903
G1 X187.212 Y149.896 E16.11202
G1 X188.175 Y152.256 E16.1968
G1 X189.194 Y154.56 E16.28059
G1 X190.704 Y157.699 E16.39644
G1 X190.915 Y158.117 E16.41202
G1 X191.762 Y159.755 E16.47335
G1 X193.473 Y162.991 E16.5951
G1 X193.78 Y163.593 E16.61757
G1 X194.03 Y164.12 E16.63697
G1 X194.299 Y164.731 E16.65918
G1 X194.799 Y165.911 E16.7018
G1 X195.05 Y166.528 E16.72396
G1 X195.664 Y168.012 E16.77737
G1 X196.122 Y169.095 E16.81648
G1 X196.395 Y169.728 E16.83941
G1 X196.553 Y170.113 E16.85325
G1 X196.686 Y170.458 E16.86555
G1 X196.797 Y170.762 E16.87631
G1 X197.267 Y172.1 E16.92348
G1 X197.67 Y173.261 E16.96436
G1 X198.074 Y174.466 E17.00663
G1 X199.743 Y179.687 E17.18894
G1 X199.919 Y180.268 E17.20913
G1 X200.151 Y181.179 E17.24039
G1 X200.38 Y182.278 E17.27773
G1 X200.424 Y182.5 E17.28526
G1 X200.756 Y184.283 E17.34558
G1 X200.888 Y184.978 E17.36911
G1 X201.256 Y186.89 E17.43387
G1 X201.521 Y188.373 E17.48398
G1 X201.645 Y189.103 E17.50861
G1 X201.732 Y189.728 E17.52959
G1 X201.853 Y190.843 E17.5669
G1 X201.976 Y192.194 E17.61202
G1 X202.024 Y192.807 E17.63247
G1 X202.054 Y193.445 E17.65371
G1 X202.074 Y194.648 E17.69373
G1 X202.072 Y198.912 E17.83555
G1 X202.062 Y199.603 E17.85853
G1 X202.039 Y200.164 E17.87721
G1 X202.023 Y200.401 E17.88511
G1 X201.999 Y200.692 E17.89482
G1 X201.95 Y201.186 E17.91133
G1 X201.862 Y201.942 E17.93665
G1 X201.716 Y202.851 E17.96727
G1 X201.491 Y203.743 E17.99787
G1 X201.19 Y204.614 E18.02852
G1 X200.815 Y205.454 E18.05911
G1 X200.368 Y206.259 E18.08974
G1 X199.853 Y207.022 E18.12035
G1 X199.274 Y207.738 E18.15098
G1 X198.635 Y208.4 E18.18158
G1 X197.94 Y209.005 E18.21223
G1 X197.196 Y209.547 E18.24285
G1 X196.408 Y210.022 E18.27345
G1 X195.581 Y210.428 E18.30409
G1 X194.722 Y210.76 E18.33472
G1 X193.838 Y211.016 E18.36533
G1 X192.935 Y211.194 E18.39594
G1 X191.921 Y211.3 E18.42985
G1 X191.397 Y211.318 E18.44729
G1 X191.038 Y211.322 E18.45923
G1 X190.757 Y211.322 E18.46858
G1 X190.237 Y211.314 E18.48588
G1 X189.318 Y211.26 E18.51649
G1 X188.754 Y211.186 E18.53541
G1 X188.104 Y211.082 E18.55731
G1 X184.728 Y210.513 E18.67118
G1 X183.979 Y210.377 E18.6965
G1 X183.102 Y210.179 E18.7264
G1 X182.811 Y210.099 E18.73644
G1 X181.594 Y209.75 E18.77855
G1 X181.266 Y209.651 E18.78994
G1 X181.039 Y209.579 E18.79786
G1 X180.328 Y209.347 E18.82274
G1 X178.976 Y208.916 E18.86994
G1 X177.521 Y208.462 E18.92063
G1 X177 Y208.292 E18.93886
G1 X176.387 Y208.071 E18.96053
G1 X175.252 Y207.62 E19.00115
G1 X172.028 Y206.274 E19.11735
G1 X171.526 Y206.055 E19.13557
G1 X170.934 Y205.774 E19.15736
G1 X169.789 Y205.188 E19.20014
G1 X167.496 Y204.006 E19.28595
G1 X167.324 Y203.908 E19.29253
G1 X166.265 Y203.366 E19.3321
G1 X165.747 Y203.083 E19.35173
G1 X164.841 Y202.554 E19.38663
G1 X163.944 Y202.04 E19.42101
G1 X163.377 Y201.701 E19.44298
G1 X161.72 Y200.669 E19.50791
G1 X161.137 Y200.314 E19.53061
G1 X160.627 Y199.984 E19.55082
G1 X159.592 Y199.269 E19.59266
G1 X158.827 Y198.729 E19.6238
G1 X157.784 Y198.036 E19.66545
G1 X157.148 Y197.6 E19.6911
G1 X156.906 Y197.429 E19.70095
G1 X156.444 Y197.091 E19.71999
G1 X155.365 Y196.284 E19.76481
G1 X153.206 Y194.718 E19.85352
G1 X152.935 Y194.514 E19.8648
G1 X152.572 Y194.223 E19.88027
G1 X152.148 Y193.867 E19.89869
G1 X151.64 Y193.428 E19.92102
G1 X149.667 Y191.785 E20.00641
G1 X147.65 Y190.2 E20.09173
G1 X145.627 Y188.702 E20.17546
G1 X143.567 Y187.264 E20.25902
G1 X141.432 Y185.861 E20.34399
G1 X139.309 Y184.552 E20.42694
G1 X137.084 Y183.266 E20.51242
G1 X134.885 Y182.075 E20.59559
G1 X132.616 Y180.929 E20.68014
