;FLAVOR:Marlin
;TIME:546
;Filament used: 0.289439m
;Layer height: 0.24
;MINX:124.009
;MINY:128.851
;MINZ:0.2
;MAXX:175.992
;MAXY:171.148
;MAXZ:2.84
;Generated with Cura_SteamEngine 4.8.0
M140 S70
M105
M190 S70
M104 S225
M105
M109 S225
M82 ;absolute extrusion mode
M201 X500.00 Y500.00 Z100.00 E5000.00 ;Setup machine max acceleration
M203 X500.00 Y500.00 Z10.00 E50.00 ;Setup machine max feedrate
M204 P500.00 R1000.00 T500.00 ;Setup Print/Retract/Travel acceleration
M205 X8.00 Y8.00 Z0.40 E5.00 ;Setup Jerk
M220 S100 ;Reset Feedrate
M221 S100 ;Reset Flowrate

G28 ;Home

G92 E0 ;Reset Extruder
G1 Z2.0 F3000 ;Move Z Axis up
G1 X10.1 Y20 Z0.28 F5000.0 ;Move to start position
G1 X10.1 Y200.0 Z0.28 F1500.0 E15 ;Draw the first line
G1 X10.4 Y200.0 Z0.28 F5000.0 ;Move to side a little
G1 X10.4 Y20 Z0.28 F1500.0 E30 ;Draw the second line
G92 E0 ;Reset Extruder
G1 Z2.0 F3000 ;Move Z Axis up

G92 E0
G92 E0
G1 F2700 E-5
;LAYER_COUNT:12
;LAYER:0
M107
G0 F5400 X127.442 Y131.989 Z0.2
;TYPE:SKIRT
G1 F2700 E0
G1 F900 X128.141 Y131.363 E0.03121
G1 X128.889 Y130.798 E0.06239
G1 X129.684 Y130.3 E0.09359
G1 X130.518 Y129.87 E0.1248
G1 X131.385 Y129.514 E0.15597
G1 X132.28 Y129.232 E0.18718
G1 X133.195 Y129.028 E0.21836
G1 X134.124 Y128.902 E0.24954
G1 X134.957 Y128.857 E0.27729
G1 X135.336 Y128.851 E0.2899
G1 X135.905 Y128.857 E0.30882
G1 X136.072 Y128.863 E0.31438
G1 X137.007 Y128.937 E0.34558
G1 X138.298 Y129.173 E0.38923
G1 X139.261 Y129.41 E0.42221
G1 X140.174 Y129.648 E0.45359
G1 X142.601 Y130.207 E0.53643
G1 X145.108 Y130.712 E0.62149
G1 X147.562 Y131.13 E0.70428
G1 X150.047 Y131.484 E0.78777
G1 X152.572 Y131.771 E0.87229
G1 X154.021 Y131.895 E0.92066
G1 X154.678 Y131.961 E0.94262
G1 X155.607 Y132.095 E0.97384
G1 X156.52 Y132.307 E1.00502
G1 X157.413 Y132.596 E1.03623
G1 X158.277 Y132.96 E1.06742
G1 X159.107 Y133.396 E1.0986
G1 X159.897 Y133.901 E1.12978
G1 X160.641 Y134.472 E1.16098
G1 X161.334 Y135.105 E1.1922
G1 X161.97 Y135.794 E1.22338
G1 X162.546 Y136.534 E1.25457
G1 X162.86 Y137.001 E1.27329
G1 X163.356 Y137.78 E1.304
G1 X164.75 Y139.906 E1.38856
G1 X166.194 Y141.976 E1.47251
G1 X167.698 Y144.008 E1.55659
G1 X169.252 Y145.989 E1.64033
G1 X170.854 Y147.914 E1.72363
G1 X172.191 Y149.445 E1.79123
G1 X172.781 Y150.175 E1.82245
G1 X173.182 Y150.756 E1.84593
G1 X173.476 Y151.23 E1.86448
G1 X173.786 Y151.763 E1.88499
G1 X174.257 Y152.591 E1.91667
G1 X174.62 Y153.248 E1.94164
G1 X175.038 Y154.088 E1.97285
G1 X175.383 Y154.96 E2.00404
G1 X175.653 Y155.858 E2.03523
G1 X175.845 Y156.776 E2.06642
G1 X175.958 Y157.707 E2.09761
G1 X175.992 Y158.644 E2.1288
G1 X175.945 Y159.581 E2.16
G1 X175.819 Y160.511 E2.19121
G1 X175.614 Y161.426 E2.2224
G1 X175.332 Y162.32 E2.25358
G1 X174.854 Y163.44 E2.29408
G1 X174.731 Y163.689 E2.30332
G1 X174.281 Y164.511 E2.33449
G1 X173.761 Y165.292 E2.3657
G1 X173.177 Y166.026 E2.39689
G1 X172.533 Y166.708 E2.42809
G1 X171.833 Y167.332 E2.45928
G1 X171.082 Y167.894 E2.49048
G1 X170.685 Y168.154 E2.50626
G1 X169.961 Y168.605 E2.53463
G1 X169.656 Y168.788 E2.54646
G1 X169.048 Y169.14 E2.56983
G1 X168.217 Y169.575 E2.60103
G1 X167.319 Y169.949 E2.63338
G1 X166.951 Y170.082 E2.6464
G1 X166.61 Y170.2 E2.6584
G1 X166.334 Y170.292 E2.66807
G1 X165.674 Y170.501 E2.6911
G1 X165.672 Y170.496 E2.69128
G1 X164.921 Y170.711 E2.71726
G1 X164.001 Y170.892 E2.74845
G1 X162.884 Y171.004 E2.78579
G1 X162.518 Y171.022 E2.79797
G1 X162.244 Y171.032 E2.80709
G1 X157.854 Y171.138 E2.95315
G1 X156.97 Y171.148 E2.98255
G1 X156.352 Y171.138 E3.00311
G1 X155.962 Y171.116 E3.0161
G1 X155.596 Y171.09 E3.0283
G1 X155.282 Y171.064 E3.03878
G1 X150.898 Y170.625 E3.18533
G1 X150.44 Y170.573 E3.20066
G1 X150.066 Y170.524 E3.2132
G1 X148.941 Y170.357 E3.25103
G1 X144.829 Y169.673 E3.38967
G1 X143.912 Y169.508 E3.42066
G1 X142.726 Y169.225 E3.46122
G1 X142.485 Y169.153 E3.46958
G1 X142.226 Y169.072 E3.47861
G1 X141.728 Y168.907 E3.49606
G1 X141.069 Y168.676 E3.51928
G1 X140.198 Y168.328 E3.55048
G1 X139.36 Y167.907 E3.58167
G1 X138.551 Y167.41 E3.61325
G1 X137.796 Y166.9 E3.64356
G1 X137.516 Y166.705 E3.6549
G1 X136.927 Y166.28 E3.67906
G1 X136.191 Y165.7 E3.71023
G1 X135.315 Y164.857 E3.75066
G1 X134.76 Y164.26 E3.77778
G1 X133.071 Y162.392 E3.86154
G1 X132.599 Y161.856 E3.88529
G1 X132.009 Y161.126 E3.91651
G1 X131.641 Y160.595 E3.938
G1 X131.113 Y159.785 E3.97016
G1 X130.23 Y158.383 E4.02527
G1 X129.857 Y157.772 E4.04907
G1 X129.563 Y157.259 E4.06874
G1 X129.404 Y156.964 E4.07989
G1 X129.248 Y156.664 E4.09113
G1 X128.438 Y155.041 E4.15146
G1 X128.147 Y154.436 E4.17379
G1 X128.02 Y154.163 E4.18381
G1 X127.829 Y153.729 E4.19958
G1 X127.673 Y153.356 E4.21303
G1 X126.888 Y151.434 E4.28208
G1 X126.625 Y150.766 E4.30596
G1 X126.413 Y150.181 E4.32665
G1 X126.158 Y149.404 E4.35385
G1 X124.943 Y145.554 E4.48813
G1 X124.732 Y144.85 E4.51257
G1 X124.442 Y143.636 E4.55408
G1 X124.31 Y142.901 E4.57892
G1 X124.264 Y142.624 E4.58826
G1 X124.134 Y141.776 E4.6168
G1 X124.032 Y140.844 E4.64798
G1 X124.009 Y139.906 E4.67919
G1 X124.066 Y138.97 E4.71038
G1 X124.203 Y138.042 E4.74158
G1 X124.418 Y137.129 E4.77277
G1 X124.711 Y136.238 E4.80397
G1 X125.13 Y135.268 E4.83911
G1 X125.254 Y135.015 E4.84848
G1 X125.702 Y134.191 E4.87968
G1 X126.219 Y133.408 E4.91089
G1 X126.8 Y132.673 E4.94205
G1 X127.442 Y131.989 E4.97325
G0 F5400 X127.771 Y132.228
G1 F900 X128.46 Y131.618 E5.00386
G1 X129.2 Y131.07 E5.03448
G1 X129.985 Y130.589 E5.0651
G1 X130.808 Y130.177 E5.09571
G1 X131.665 Y129.839 E5.12636
G1 X132.547 Y129.576 E5.15697
G1 X133.449 Y129.39 E5.1876
G1 X134.363 Y129.284 E5.2182
G1 X134.963 Y129.257 E5.23818
G1 X135.342 Y129.251 E5.25079
G1 X135.891 Y129.257 E5.26905
G1 X136.058 Y129.263 E5.2746
G1 X136.975 Y129.336 E5.3052
G1 X138.203 Y129.561 E5.34672
G1 X139.16 Y129.797 E5.37951
G1 X140.088 Y130.039 E5.41141
G1 X142.538 Y130.603 E5.49502
G1 X145.028 Y131.104 E5.5795
G1 X147.479 Y131.522 E5.6622
G1 X150.012 Y131.883 E5.7473
G1 X152.494 Y132.165 E5.83038
G1 X153.982 Y132.293 E5.88005
G1 X154.639 Y132.359 E5.90202
G1 X155.55 Y132.491 E5.93263
G1 X156.446 Y132.701 E5.96324
G1 X157.321 Y132.988 E5.99387
G1 X158.167 Y133.35 E6.02448
G1 X158.979 Y133.785 E6.05511
G1 X159.75 Y134.288 E6.08573
G1 X160.475 Y134.856 E6.11637
G1 X161.147 Y135.484 E6.14696
G1 X161.763 Y136.169 E6.1776
G1 X162.522 Y137.216 E6.22061
G1 X162.958 Y137.902 E6.24764
G1 X164.439 Y140.16 E6.33746
G1 X165.861 Y142.197 E6.42008
G1 X167.394 Y144.27 E6.50584
G1 X168.928 Y146.225 E6.58849
G1 X170.569 Y148.197 E6.67382
G1 X171.891 Y149.71 E6.74064
G1 X172.469 Y150.426 E6.77125
G1 X172.846 Y150.972 E6.79332
G1 X172.886 Y151.034 E6.79577
G1 X173.13 Y151.432 E6.8113
G1 X173.439 Y151.961 E6.83167
G1 X173.907 Y152.785 E6.86319
G1 X174.27 Y153.442 E6.88816
G1 X174.68 Y154.266 E6.91877
G1 X175.017 Y155.123 E6.9494
G1 X175.278 Y156.006 E6.98002
G1 X175.461 Y156.908 E7.01063
G1 X175.566 Y157.823 E7.04127
G1 X175.591 Y158.743 E7.07188
G1 X175.535 Y159.662 E7.1025
G1 X175.401 Y160.573 E7.13313
G1 X175.187 Y161.468 E7.16373
G1 X174.897 Y162.342 E7.19436
G1 X174.496 Y163.263 E7.22777
G1 X174.373 Y163.512 E7.23701
G1 X173.93 Y164.319 E7.26763
G1 X173.418 Y165.084 E7.29824
G1 X172.842 Y165.802 E7.32886
G1 X172.206 Y166.468 E7.35949
G1 X171.514 Y167.075 E7.3901
G1 X170.474 Y167.814 E7.43254
G1 X169.75 Y168.265 E7.46091
G1 X169.456 Y168.442 E7.47232
G1 X168.848 Y168.794 E7.49569
G1 X168.032 Y169.22 E7.52631
G1 X167.181 Y169.574 E7.55696
G1 X166.82 Y169.704 E7.56972
G1 X166.479 Y169.822 E7.58172
G1 X166.213 Y169.91 E7.59104
G1 X165.553 Y170.119 E7.61407
G1 X165.552 Y170.114 E7.61424
G1 X164.811 Y170.326 E7.63987
G1 X163.907 Y170.501 E7.6705
G1 X162.865 Y170.604 E7.70532
G1 X162.499 Y170.622 E7.71751
G1 X162.234 Y170.632 E7.72633
G1 X157.703 Y170.74 E7.87708
G1 X156.966 Y170.748 E7.90159
G1 X156.37 Y170.738 E7.92142
G1 X155.99 Y170.717 E7.93408
G1 X155.624 Y170.691 E7.94628
G1 X155.322 Y170.666 E7.95636
G1 X151.086 Y170.243 E8.09795
G1 X150.485 Y170.175 E8.11807
G1 X150.125 Y170.128 E8.13014
G1 X148.814 Y169.932 E8.17423
G1 X144.745 Y169.253 E8.31144
G1 X143.984 Y169.115 E8.33716
G1 X142.841 Y168.841 E8.37625
G1 X142.6 Y168.769 E8.38462
G1 X142.35 Y168.691 E8.39333
G1 X141.861 Y168.529 E8.41046
G1 X141.202 Y168.298 E8.43369
G1 X140.347 Y167.956 E8.46432
G1 X139.525 Y167.541 E8.49494
G1 X138.775 Y167.079 E8.52424
G1 X138.02 Y166.569 E8.55455
G1 X137.751 Y166.381 E8.56546
G1 X137.162 Y165.956 E8.58962
G1 X136.439 Y165.385 E8.62026
G1 X135.607 Y164.585 E8.65865
G1 X135.056 Y163.992 E8.68557
G1 X133.466 Y162.235 E8.76439
G1 X132.899 Y161.591 E8.79293
G1 X132.321 Y160.875 E8.82353
G1 X131.976 Y160.377 E8.84368
G1 X131.452 Y159.572 E8.87563
G1 X130.654 Y158.307 E8.92538
G1 X130.199 Y157.563 E8.95438
G1 X129.915 Y157.069 E8.97333
G1 X129.756 Y156.774 E8.98448
G1 X129.606 Y156.485 E8.99531
G1 X128.799 Y154.868 E9.05542
G1 X128.508 Y154.263 E9.07775
G1 X128.386 Y154 E9.08739
G1 X128.198 Y153.574 E9.10288
G1 X128.043 Y153.204 E9.11622
G1 X127.26 Y151.287 E9.18509
G1 X126.997 Y150.619 E9.20897
G1 X126.793 Y150.055 E9.22892
G1 X126.539 Y149.283 E9.25595
G1 X125.326 Y145.439 E9.39001
G1 X125.115 Y144.735 E9.41446
G1 X124.836 Y143.566 E9.45443
G1 X124.704 Y142.831 E9.47927
G1 X124.659 Y142.563 E9.48831
G1 X124.529 Y141.715 E9.51684
G1 X124.43 Y140.8 E9.54745
G1 X124.409 Y139.88 E9.57806
G1 X124.469 Y138.961 E9.60869
G1 X124.609 Y138.051 E9.63931
G1 X124.827 Y137.156 E9.66995
G1 X125.121 Y136.284 E9.70056
G1 X125.489 Y135.444 E9.73106
G1 X125.613 Y135.191 E9.74043
G1 X126.053 Y134.383 E9.77103
G1 X126.563 Y133.616 E9.80167
G1 X127.136 Y132.896 E9.83227
G1 X127.771 Y132.228 E9.86293
G0 F5400 X128.098 Y132.468
G1 F900 X128.779 Y131.875 E9.89296
G1 X129.51 Y131.345 E9.92299
G1 X130.285 Y130.881 E9.95304
G1 X131.098 Y130.487 E9.98308
G1 X131.942 Y130.167 E10.01311
G1 X132.812 Y129.923 E10.04316
G1 X133.699 Y129.757 E10.07317
G1 X134.97 Y129.657 E10.11558
G1 X135.349 Y129.651 E10.12818
G1 X135.876 Y129.657 E10.14571
G1 X136.043 Y129.663 E10.15127
G1 X136.943 Y129.735 E10.1813
G1 X138.108 Y129.95 E10.2207
G1 X139.059 Y130.184 E10.25328
G1 X139.969 Y130.421 E10.28455
G1 X142.475 Y130.998 E10.37008
G1 X144.947 Y131.496 E10.45396
G1 X147.428 Y131.919 E10.53766
G1 X149.947 Y132.278 E10.62229
G1 X152.487 Y132.566 E10.70732
G1 X153.942 Y132.691 E10.75589
G1 X154.599 Y132.757 E10.77785
G1 X155.492 Y132.887 E10.80786
G1 X156.371 Y133.096 E10.83791
G1 X157.228 Y133.381 E10.86795
G1 X158.056 Y133.741 E10.89798
G1 X158.849 Y134.173 E10.92802
G1 X159.601 Y134.673 E10.95805
G1 X160.306 Y135.238 E10.9881
G1 X160.957 Y135.863 E11.01812
G1 X161.551 Y136.544 E11.04817
G1 X162.185 Y137.431 E11.08444
G1 X162.678 Y138.205 E11.11496
G1 X164.093 Y140.362 E11.20076
G1 X165.544 Y142.442 E11.28511
G1 X167.057 Y144.487 E11.36972
G1 X168.625 Y146.486 E11.45422
G1 X170.261 Y148.452 E11.53929
G1 X171.591 Y149.974 E11.60652
G1 X172.157 Y150.678 E11.63656
G1 X172.51 Y151.189 E11.65722
G1 X172.55 Y151.251 E11.65967
G1 X172.785 Y151.634 E11.67462
G1 X173.091 Y152.159 E11.69483
G1 X173.557 Y152.978 E11.72617
G1 X173.92 Y153.635 E11.75113
G1 X174.321 Y154.444 E11.78117
G1 X174.649 Y155.286 E11.81122
G1 X174.902 Y156.153 E11.84126
G1 X175.077 Y157.039 E11.8713
G1 X175.172 Y157.937 E11.90133
G1 X175.188 Y158.84 E11.93137
G1 X175.124 Y159.741 E11.96141
G1 X174.981 Y160.632 E11.99143
G1 X174.759 Y161.508 E12.02148
G1 X174.461 Y162.36 E12.05151
G1 X174.137 Y163.085 E12.07792
G1 X174.014 Y163.334 E12.08715
G1 X173.579 Y164.126 E12.11721
G1 X173.075 Y164.875 E12.14723
G1 X172.507 Y165.577 E12.17727
G1 X171.879 Y166.226 E12.20731
G1 X171.196 Y166.817 E12.23735
G1 X170.262 Y167.475 E12.27535
G1 X169.538 Y167.926 E12.30372
G1 X169.256 Y168.095 E12.31465
G1 X168.648 Y168.447 E12.33802
G1 X167.847 Y168.865 E12.36807
G1 X167.044 Y169.198 E12.39698
G1 X166.69 Y169.326 E12.4095
G1 X166.349 Y169.444 E12.4215
G1 X166.092 Y169.529 E12.43051
G1 X165.432 Y169.738 E12.45353
G1 X164.701 Y169.941 E12.47877
G1 X163.814 Y170.111 E12.50881
G1 X162.845 Y170.205 E12.54119
G1 X162.479 Y170.223 E12.55337
G1 X162.224 Y170.232 E12.56186
G1 X157.699 Y170.34 E12.71241
G1 X156.962 Y170.348 E12.73692
G1 X156.388 Y170.338 E12.75601
G1 X156.018 Y170.318 E12.76834
G1 X155.652 Y170.292 E12.78054
G1 X155.361 Y170.268 E12.79025
G1 X150.988 Y169.83 E12.93643
G1 X150.53 Y169.778 E12.95176
G1 X150.183 Y169.732 E12.9634
G1 X148.88 Y169.537 E13.00722
G1 X144.816 Y168.859 E13.14426
G1 X144.055 Y168.721 E13.16998
G1 X142.955 Y168.458 E13.2076
G1 X142.714 Y168.386 E13.21597
G1 X142.474 Y168.311 E13.22433
G1 X141.993 Y168.152 E13.24118
G1 X141.334 Y167.921 E13.2644
G1 X140.496 Y167.585 E13.29443
G1 X139.69 Y167.176 E13.32449
G1 X138.998 Y166.747 E13.35157
G1 X138.243 Y166.237 E13.38188
G1 X137.985 Y166.057 E13.39234
G1 X137.396 Y165.632 E13.4165
G1 X136.687 Y165.071 E13.44657
G1 X135.9 Y164.312 E13.48294
G1 X135.353 Y163.723 E13.50967
G1 X133.671 Y161.863 E13.59308
G1 X133.199 Y161.327 E13.61683
G1 X132.633 Y160.623 E13.64688
G1 X132.311 Y160.158 E13.66569
G1 X131.79 Y159.358 E13.69744
G1 X130.913 Y157.966 E13.75216
G1 X130.54 Y157.355 E13.77597
G1 X130.267 Y156.879 E13.79422
G1 X130.108 Y156.584 E13.80537
G1 X129.964 Y156.307 E13.81575
G1 X129.159 Y154.694 E13.87571
G1 X128.868 Y154.089 E13.89804
G1 X128.751 Y153.836 E13.90731
G1 X128.567 Y153.419 E13.92247
G1 X128.413 Y153.053 E13.93568
G1 X127.632 Y151.141 E14.00437
G1 X127.369 Y150.473 E14.02825
G1 X127.173 Y149.93 E14.04745
G1 X126.921 Y149.163 E14.0743
G1 X125.709 Y145.324 E14.2082
G1 X125.498 Y144.62 E14.23265
G1 X125.23 Y143.495 E14.27111
G1 X125.098 Y142.76 E14.29595
G1 X125.055 Y142.503 E14.30461
G1 X124.925 Y141.655 E14.33315
G1 X124.828 Y140.757 E14.36319
G1 X124.81 Y139.854 E14.39323
G1 X124.873 Y138.953 E14.42327
G1 X125.015 Y138.061 E14.45331
G1 X125.235 Y137.185 E14.48335
G1 X125.532 Y136.332 E14.51339
G1 X125.848 Y135.62 E14.5393
G1 X125.972 Y135.367 E14.54867
G1 X126.405 Y134.574 E14.57872
G1 X126.906 Y133.823 E14.60875
G1 X127.472 Y133.119 E14.63879
G1 X128.098 Y132.468 E14.66883
G1 F2700 E9.66883
;MESH:RocketLogoTopWing_STL.stl
G0 F5400 X134.43 Y139.752
G0 X135.439 Y140.254
G0 X135.697 Y140.665
;TYPE:WALL-INNER
G1 F2700 E14.66883
G1 F900 X136.142 Y141.046 E14.68832
G1 X136.169 Y141.084 E14.68987
G1 X137.463 Y142.896 E14.76393
G1 X139.261 Y144.556 E14.84532
G1 X141.728 Y146.336 E14.9465
G1 X143.891 Y147.347 E15.02591
G1 X146.503 Y147.347 E15.11279
G1 X147.957 Y146.91 E15.16328
G1 X150.036 Y145.941 E15.23957
G1 X153.138 Y143.759 E15.36571
G1 X153.316 Y143.634 E15.37295
G1 X153.424 Y143.823 E15.37751
G1 X161.544 Y158.001 E15.92094
G1 X162.419 Y158.289 E15.95157
G1 X163.548 Y157.631 E15.99504
G1 X163.721 Y157.53 E16.0017
G1 X163.82 Y157.704 E16.00599
G1 X164.27 Y158.492 E16.03618
G1 X163.289 Y159.08 E16.07422
G1 X162.247 Y159.428 E16.11076
G1 X156.906 Y159.558 E16.28845
G1 X156.757 Y159.553 E16.29341
G1 X151.543 Y159.032 E16.46769
G1 X146.026 Y158.113 E16.65372
G1 X144.962 Y157.758 E16.69102
G1 X143.757 Y156.915 E16.73993
G1 X141.318 Y154.218 E16.86088
G1 X139.768 Y151.764 E16.95742
G1 X138.595 Y149.417 E17.04468
G1 X137.417 Y146.539 E17.14811
G1 X135.845 Y141.564 E17.32165
G1 X135.777 Y141.154 E17.33547
G1 X135.77 Y141.108 E17.33698
G1 X135.697 Y140.665 E17.34335
G0 F5400 X135.251 Y140.042
;TYPE:WALL-OUTER
G1 F900 X135.585 Y140.042 E17.35446
G1 X136.439 Y140.774 E17.39187
G1 X137.765 Y142.63 E17.46774
G1 X139.515 Y144.246 E17.54697
G1 X141.931 Y145.99 E17.64607
G1 X143.98 Y146.947 E17.72129
G1 X146.444 Y146.947 E17.80324
G1 X147.814 Y146.535 E17.85082
G1 X149.835 Y145.593 E17.92499
G1 X153.386 Y143.096 E18.06937
G1 X153.469 Y143.096 E18.07213
G1 X161.815 Y157.669 E18.63069
G1 X162.373 Y157.853 E18.65023
G1 X163.869 Y156.981 E18.70783
G1 X164.777 Y158.574 E18.76881
G1 X164.72 Y158.689 E18.77308
G1 X163.459 Y159.445 E18.82198
G1 X162.315 Y159.827 E18.8621
G1 X156.904 Y159.958 E19.04212
G1 X156.734 Y159.953 E19.04778
G1 X151.483 Y159.428 E19.2233
G1 X145.934 Y158.504 E19.4104
G1 X144.779 Y158.118 E19.4509
G1 X143.491 Y157.217 E19.50318
G1 X140.998 Y154.461 E19.62678
G1 X139.418 Y151.959 E19.72521
G1 X138.232 Y149.586 E19.81344
